;FLAVOR:UltiGCode
;TIME:3021
;MATERIAL:1619
;MATERIAL2:0

;Layer count: 63
;LAYER:0
M107
G0 F9000 X100.471 Y87.619 Z0.300
;TYPE:SKIRT
G1 F1200 X105.680 Y87.619 E0.62508
G1 X118.680 Y87.620 E2.18508
G1 X118.680 Y87.619 E2.18520
G1 X123.259 Y87.619 E2.73468
G1 X129.519 Y87.621 E3.48588
G1 X129.520 Y113.438 E6.58392
G1 X122.783 Y113.436 E7.39236
G1 X122.282 Y113.437 E7.45248
G1 X120.947 Y113.436 E7.61268
G1 X120.728 Y113.437 E7.63896
G1 X110.843 Y113.436 E8.82516
G1 X109.280 Y113.437 E9.01272
G1 X107.948 Y113.436 E9.17256
G1 X107.729 Y113.437 E9.19884
G1 X104.584 Y113.436 E9.57624
G1 X100.481 Y113.444 E10.06860
G1 X100.481 Y91.633 E12.68592
G1 X100.471 Y87.619 E13.16760
G0 F9000 X100.872 Y88.019
G1 F1200 X106.080 Y88.019 E13.79256
G1 X119.080 Y88.020 E15.35256
G1 X119.080 Y88.019 E15.35268
G1 X123.259 Y88.019 E15.85416
G1 X129.119 Y88.021 E16.55736
G1 X129.120 Y113.038 E19.55940
G1 X122.782 Y113.036 E20.31996
G1 X122.282 Y113.037 E20.37996
G1 X120.946 Y113.036 E20.54028
G1 X120.727 Y113.037 E20.56656
G1 X110.843 Y113.036 E21.75264
G1 X109.280 Y113.037 E21.94020
G1 X107.947 Y113.036 E22.10016
G1 X107.728 Y113.037 E22.12644
G1 X104.583 Y113.036 E22.50384
G1 X100.881 Y113.043 E22.94809
G1 X100.881 Y91.633 E25.51729
G1 X100.872 Y88.019 E25.95097
G10
G0 F9000 X104.681 Y91.819
;TYPE:WALL-INNER
G11
G1 F1200 X107.120 Y91.820 E26.24365
G1 X107.121 Y102.772 E27.55789
G1 X109.880 Y102.772 E27.88897
G1 X109.880 Y91.819 E29.20333
G1 X120.120 Y91.820 E30.43213
G1 X120.120 Y102.772 E31.74637
G1 X122.880 Y102.772 E32.07757
G1 X122.880 Y91.819 E33.39193
G1 X125.319 Y91.820 E33.68461
G1 X125.320 Y109.237 E35.77465
G1 X122.776 Y109.236 E36.07993
G1 X122.279 Y109.237 E36.13957
G1 X120.932 Y109.236 E36.30121
G1 X120.717 Y109.237 E36.32701
G1 X107.933 Y109.236 E37.86109
G1 X107.718 Y109.237 E37.88689
G1 X104.681 Y109.236 E38.25133
G1 X104.681 Y91.819 E40.34137
G0 F9000 X104.280 Y91.419
;TYPE:WALL-OUTER
G1 F1200 X107.520 Y91.420 E40.73017
G1 X107.521 Y102.372 E42.04441
G1 X109.480 Y102.372 E42.27949
G1 X109.480 Y91.419 E43.59385
G1 X120.520 Y91.420 E44.91865
G1 X120.520 Y102.372 E46.23289
G1 X122.480 Y102.372 E46.46809
G1 X122.480 Y91.419 E47.78245
G1 X125.719 Y91.420 E48.17113
G1 X125.720 Y109.637 E50.35717
G1 X120.933 Y109.636 E50.93161
G1 X109.280 Y109.637 E52.32997
G1 X107.934 Y109.636 E52.49149
G1 X104.281 Y109.637 E52.92985
G1 X104.280 Y91.419 E55.11601
G0 F9000 X104.820 Y92.092
;TYPE:SKIN
G1 F900 X106.979 Y94.251 E55.48240
G0 F9000 X106.979 Y94.817
G1 F900 X104.820 Y92.657 E55.84888
G0 F9000 X104.820 Y93.223
G1 F900 X106.979 Y95.383 E56.21536
G0 F9000 X106.979 Y95.948
G1 F900 X104.820 Y93.789 E56.58175
G0 F9000 X104.820 Y94.354
G1 F900 X106.979 Y96.514 E56.94823
G0 F9000 X106.979 Y97.080
G1 F900 X104.820 Y94.920 E57.31471
G0 F9000 X104.820 Y95.486
G1 F900 X106.980 Y97.646 E57.68128
G0 F9000 X106.980 Y98.212
G1 F900 X104.820 Y96.051 E58.04793
G0 F9000 X104.820 Y96.617
G1 F900 X106.980 Y98.777 E58.41449
G0 F9000 X106.980 Y99.343
G1 F900 X104.820 Y97.183 E58.78105
G0 F9000 X104.820 Y97.749
G1 F900 X106.980 Y99.909 E59.14762
G0 F9000 X106.980 Y100.474
G1 F900 X104.820 Y98.314 E59.51418
G0 F9000 X104.820 Y98.880
G1 F900 X106.980 Y101.040 E59.88075
G0 F9000 X106.980 Y101.606
G1 F900 X104.820 Y99.446 E60.24731
G0 F9000 X107.180 Y102.713
G0 X109.821 Y102.713
G0 X110.019 Y99.554
G1 F900 X119.561 Y109.095 E61.86656
G0 F9000 X118.995 Y109.095
G1 F900 X110.019 Y100.119 E63.38984
G0 F9000 X110.019 Y100.685
G1 F900 X118.429 Y109.095 E64.81706
G0 F9000 X117.864 Y109.095
G1 F900 X110.019 Y101.251 E66.14832
G0 F9000 X110.019 Y101.817
G1 F900 X117.298 Y109.095 E67.38352
G0 F9000 X116.732 Y109.095
G1 F900 X110.019 Y102.382 E68.52275
G0 F9000 X109.982 Y102.911
G1 F900 X116.167 Y109.095 E69.57230
G0 F9000 X115.601 Y109.095
G1 F900 X109.416 Y102.911 E70.62184
G0 F9000 X108.851 Y102.911
G1 F900 X115.035 Y109.095 E71.67130
G0 F9000 X114.469 Y109.095
G1 F900 X108.285 Y102.911 E72.72076
G0 F9000 X107.719 Y102.911
G1 F900 X113.903 Y109.095 E73.77022
G0 F9000 X113.337 Y109.095
G1 F900 X107.154 Y102.911 E74.81959
G0 F9000 X106.980 Y102.737
G1 F900 X104.820 Y100.578 E75.18607
G0 F9000 X104.820 Y101.143
G1 F900 X112.772 Y109.095 E76.53557
G0 F9000 X112.206 Y109.095
G1 F900 X104.820 Y101.709 E77.78902
G0 F9000 X104.820 Y102.275
G1 F900 X111.640 Y109.095 E78.94641
G0 F9000 X111.075 Y109.095
G1 F900 X104.820 Y102.840 E80.00792
G0 F9000 X104.820 Y103.406
G1 F900 X110.509 Y109.095 E80.97338
G0 F9000 X109.943 Y109.095
G1 F900 X104.820 Y103.972 E81.84278
G0 F9000 X104.820 Y104.537
G1 F900 X109.378 Y109.095 E82.61630
G0 F9000 X108.812 Y109.095
G1 F900 X104.820 Y105.103 E83.29376
G0 F9000 X104.820 Y105.669
G1 F900 X108.246 Y109.095 E83.87517
G0 F9000 X107.681 Y109.095
G1 F900 X104.820 Y106.235 E84.36061
G0 F9000 X104.820 Y106.800
G1 F900 X107.115 Y109.095 E84.75009
G0 F9000 X106.549 Y109.095
G1 F900 X104.820 Y107.366 E85.04351
G0 F9000 X104.820 Y107.932
G1 F900 X105.983 Y109.095 E85.24088
G0 F9000 X105.418 Y109.095
G1 F900 X104.820 Y108.497 E85.34236
G0 F9000 X106.980 Y102.171
G1 F900 X104.820 Y100.011 E85.70893
G0 F9000 X107.180 Y102.713
G0 X109.821 Y102.713
G0 X110.019 Y92.766
G1 F900 X119.979 Y102.726 E87.39919
G0 F9000 X119.979 Y102.160
G1 F900 X110.019 Y92.200 E89.08946
G0 F9000 X110.344 Y91.959
G1 F900 X119.979 Y101.594 E90.72458
G0 F9000 X119.979 Y101.029
G1 F900 X110.909 Y91.959 E92.26381
G0 F9000 X111.475 Y91.959
G1 F900 X119.979 Y100.463 E93.70698
G0 F9000 X119.979 Y99.897
G1 F900 X112.041 Y91.959 E95.05411
G0 F9000 X112.606 Y91.959
G1 F900 X119.979 Y99.332 E96.30535
G0 F9000 X119.979 Y98.766
G1 F900 X113.172 Y91.959 E97.46053
G0 F9000 X113.738 Y91.959
G1 F900 X119.979 Y98.200 E98.51966
G0 F9000 X119.979 Y97.635
G1 F900 X114.303 Y91.959 E99.48291
G0 F9000 X114.869 Y91.959
G1 F900 X119.979 Y97.069 E100.35011
G0 F9000 X119.979 Y96.503
G1 F900 X115.435 Y91.959 E101.12125
G0 F9000 X116.001 Y91.959
G1 F900 X119.979 Y95.938 E101.79643
G0 F9000 X119.979 Y95.372
G1 F900 X116.567 Y91.959 E102.37555
G0 F9000 X117.132 Y91.959
G1 F900 X119.979 Y94.806 E102.85870
G0 F9000 X119.979 Y94.241
G1 F900 X117.698 Y91.959 E103.24588
G0 F9000 X118.264 Y91.959
G1 F900 X119.979 Y93.675 E103.53701
G0 F9000 X119.979 Y93.109
G1 F900 X118.830 Y91.959 E103.73209
G0 F9000 X119.395 Y91.959
G1 F900 X119.979 Y92.544 E103.83128
G0 F9000 X110.019 Y93.331
G1 F900 X125.179 Y108.491 E106.40402
G0 F9000 X125.179 Y109.057
G1 F900 X110.019 Y93.897 E108.97676
G0 F9000 X110.019 Y94.463
G1 F900 X124.652 Y109.095 E111.45997
G0 F9000 X124.086 Y109.095
G1 F900 X110.019 Y95.028 E113.84722
G0 F9000 X110.019 Y95.594
G1 F900 X123.520 Y109.095 E116.13842
G0 F9000 X122.955 Y109.095
G1 F900 X110.019 Y96.160 E118.33364
G0 F9000 X110.019 Y96.725
G1 F900 X122.389 Y109.095 E120.43290
G0 F9000 X121.823 Y109.095
G1 F900 X110.019 Y97.291 E122.43611
G0 F9000 X110.019 Y97.857
G1 F900 X121.258 Y109.095 E124.34335
G0 F9000 X120.692 Y109.095
G1 F900 X110.019 Y98.422 E126.15461
G0 F9000 X110.019 Y98.988
G1 F900 X120.126 Y109.095 E127.86983
G0 F9000 X125.179 Y107.925
G1 F900 X120.165 Y102.912 E128.72065
G0 F9000 X120.731 Y102.912
G1 F900 X125.179 Y107.360 E129.47550
G0 F9000 X125.179 Y106.794
G1 F900 X121.297 Y102.912 E130.13430
G0 F9000 X121.862 Y102.912
G1 F900 X125.179 Y106.228 E130.69712
G0 F9000 X125.179 Y105.662
G1 F900 X122.428 Y102.912 E131.16390
G0 F9000 X122.994 Y102.912
G1 F900 X125.179 Y105.097 E131.53471
G0 F9000 X125.179 Y104.531
G1 F900 X123.019 Y102.372 E131.90119
G0 F9000 X123.019 Y101.806
G1 F900 X125.179 Y103.965 E132.26766
G0 F9000 X125.179 Y103.400
G1 F900 X123.019 Y101.240 E132.63423
G0 F9000 X123.019 Y100.675
G1 F900 X125.179 Y102.834 E133.00071
G0 F9000 X125.179 Y102.268
G1 F900 X123.019 Y100.109 E133.36719
G0 F9000 X123.019 Y99.543
G1 F900 X125.179 Y101.703 E133.73375
G0 F9000 X125.179 Y101.137
G1 F900 X123.019 Y98.977 E134.10032
G0 F9000 X123.019 Y98.412
G1 F900 X125.179 Y100.571 E134.46680
G0 F9000 X125.179 Y100.006
G1 F900 X123.019 Y97.846 E134.83336
G0 F9000 X123.019 Y97.280
G1 F900 X125.179 Y99.440 E135.19992
G0 F9000 X125.179 Y98.874
G1 F900 X123.019 Y96.715 E135.56640
G0 F9000 X123.019 Y96.149
G1 F900 X125.179 Y98.309 E135.93297
G0 F9000 X125.179 Y97.743
G1 F900 X123.019 Y95.583 E136.29953
G0 F9000 X123.019 Y95.018
G1 F900 X125.179 Y97.177 E136.66601
G0 F9000 X125.179 Y96.611
G1 F900 X123.019 Y94.452 E137.03249
G0 F9000 X123.019 Y93.886
G1 F900 X125.179 Y96.046 E137.39905
G0 F9000 X125.179 Y95.480
G1 F900 X123.019 Y93.321 E137.76553
G0 F9000 X123.019 Y92.755
G1 F900 X125.179 Y94.914 E138.13201
G0 F9000 X125.179 Y94.349
G1 F900 X123.019 Y92.189 E138.49858
G0 F9000 X123.355 Y91.959
G1 F900 X125.179 Y93.783 E138.80812
G0 F9000 X125.179 Y93.217
G1 F900 X123.921 Y91.959 E139.02161
G0 F9000 X124.486 Y91.959
G1 F900 X125.179 Y92.652 E139.13922
G0 F9000 X125.179 Y92.086
G1 F900 X125.052 Y91.959 E139.16077
G0 F9000 X122.821 Y102.713
G0 X120.179 Y102.713
G0 X107.180 Y102.713
G0 X106.979 Y92.554
G1 F900 X106.384 Y91.959 E139.26174
G0 F9000 X105.819 Y91.959
G1 F900 X106.979 Y93.120 E139.45869
G0 F9000 X106.979 Y93.685
G1 F900 X105.253 Y91.959 E139.75160
;LAYER:1
M106 S63
G0 F9000 X104.681 Y91.694 Z0.360
;TYPE:WALL-INNER
G1 F1800 X107.120 Y91.694 E139.81013
G1 X107.121 Y102.772 E140.07601
G1 X109.880 Y102.772 E140.14222
G1 X109.880 Y91.694 E140.40809
G1 X120.120 Y91.694 E140.65385
G1 X120.120 Y102.772 E140.91973
G1 X122.880 Y102.772 E140.98597
G1 X122.880 Y91.695 E141.25181
G1 X125.319 Y91.694 E141.31035
G1 X125.320 Y109.190 E141.73025
G1 X122.887 Y109.189 E141.78865
G1 X122.279 Y109.190 E141.80324
G1 X120.980 Y109.189 E141.83441
G1 X120.718 Y109.190 E141.84070
G1 X107.980 Y109.189 E142.14641
G1 X107.719 Y109.190 E142.15268
G1 X104.688 Y109.189 E142.22542
G1 X104.681 Y91.694 E142.64530
G0 F9000 X104.280 Y91.294
;TYPE:WALL-OUTER
G1 F1320 X107.520 Y91.294 E142.72306
G1 X107.521 Y102.372 E142.98893
G1 X109.480 Y102.372 E143.03595
G1 X109.480 Y91.294 E143.30182
G1 X120.520 Y91.295 E143.56678
G1 X120.520 Y102.372 E143.83263
G1 X122.480 Y102.372 E143.87967
G1 X122.480 Y91.295 E144.14552
G1 X125.719 Y91.294 E144.22325
G1 X125.720 Y109.590 E144.66236
G1 X104.281 Y109.590 E145.17689
G1 X104.280 Y91.294 E145.61600
G0 F9000 X104.821 Y92.319
;TYPE:SKIN
G1 F900 X105.307 Y91.834 E145.63248
G0 F9000 X105.872 Y91.834
G1 F900 X104.821 Y92.885 E145.66815
G0 F9000 X104.821 Y93.451
G1 F900 X106.438 Y91.834 E145.72303
G0 F9000 X106.978 Y91.859
G1 F900 X104.822 Y94.016 E145.79623
G0 F9000 X104.822 Y94.581
G1 F900 X106.978 Y92.425 E145.86940
G0 F9000 X106.978 Y92.990
G1 F900 X104.822 Y95.147 E145.94260
G0 F9000 X104.822 Y95.712
G1 F900 X106.978 Y93.556 E146.01577
G0 F9000 X106.978 Y94.122
G1 F900 X104.822 Y96.278 E146.08895
G0 F9000 X104.822 Y96.843
G1 F900 X106.978 Y94.687 E146.16213
G0 F9000 X106.978 Y95.253
G1 F900 X104.823 Y97.408 E146.23527
G0 F9000 X104.823 Y97.974
G1 F900 X106.978 Y95.819 E146.30841
G0 F9000 X106.978 Y96.385
G1 F900 X104.823 Y98.540 E146.38156
G0 F9000 X104.824 Y99.105
G1 F900 X106.978 Y96.950 E146.45468
G0 F9000 X106.979 Y97.515
G1 F900 X104.824 Y99.670 E146.52783
G0 F9000 X104.824 Y100.236
G1 F900 X106.979 Y98.081 E146.60097
G0 F9000 X106.979 Y98.647
G1 F900 X104.825 Y100.801 E146.67408
G0 F9000 X104.825 Y101.367
G1 F900 X106.979 Y99.212 E146.74721
G0 F9000 X106.979 Y99.778
G1 F900 X104.825 Y101.932 E146.82031
G0 F9000 X104.825 Y102.497
G1 F900 X106.979 Y100.344 E146.89341
G0 F9000 X106.979 Y100.909
G1 F900 X104.825 Y103.063 E146.96652
G0 F9000 X104.825 Y103.629
G1 F900 X106.979 Y101.475 E147.03962
G0 F9000 X106.979 Y102.041
G1 F900 X104.826 Y104.194 E147.11270
G0 F9000 X104.826 Y104.759
G1 F900 X106.979 Y102.606 E147.18578
G0 F9000 X107.240 Y102.911
G1 F900 X104.826 Y105.325 E147.26771
G0 F9000 X104.827 Y105.890
G1 F900 X107.806 Y102.911 E147.36882
G0 F9000 X108.371 Y102.911
G1 F900 X104.827 Y106.456 E147.48912
G0 F9000 X104.827 Y107.022
G1 F900 X108.937 Y102.911 E147.62864
G0 F9000 X109.503 Y102.911
G1 F900 X104.827 Y107.587 E147.78735
G0 F9000 X104.827 Y108.152
G1 F900 X119.979 Y93.001 E148.30161
G0 F9000 X119.979 Y93.567
G1 F900 X104.827 Y108.718 E148.81587
G0 F9000 X105.063 Y109.048
G1 F900 X119.979 Y94.132 E149.32213
G0 F9000 X119.979 Y94.698
G1 F900 X105.629 Y109.048 E149.80919
G0 F9000 X106.194 Y109.048
G1 F900 X119.979 Y95.264 E150.27705
G0 F9000 X119.979 Y95.829
G1 F900 X106.760 Y109.048 E150.72572
G0 F9000 X107.326 Y109.048
G1 F900 X119.979 Y96.395 E151.15517
G0 F9000 X119.979 Y96.961
G1 F900 X107.891 Y109.048 E151.56544
G0 F9000 X108.457 Y109.048
G1 F900 X119.979 Y97.526 E151.95651
G0 F9000 X119.979 Y98.092
G1 F900 X109.023 Y109.048 E152.32837
G0 F9000 X109.588 Y109.048
G1 F900 X119.979 Y98.658 E152.68103
G0 F9000 X119.979 Y99.224
G1 F900 X110.154 Y109.048 E153.01448
G0 F9000 X110.720 Y109.048
G1 F900 X119.979 Y99.789 E153.32875
G0 F9000 X119.979 Y92.435
G1 F900 X110.019 Y102.395 E153.66680
G0 F9000 X110.019 Y101.829
G1 F900 X119.979 Y91.870 E154.00484
G0 F9000 X119.449 Y91.834
G1 F900 X110.019 Y101.264 E154.32490
G0 F9000 X110.019 Y100.698
G1 F900 X118.883 Y91.834 E154.62576
G0 F9000 X118.318 Y91.834
G1 F900 X110.019 Y100.132 E154.90742
G0 F9000 X111.285 Y109.048
G1 F900 X119.979 Y100.355 E155.20248
G0 F9000 X119.979 Y100.921
G1 F900 X111.850 Y109.049 E155.47837
G0 F9000 X112.416 Y109.049
G1 F900 X119.979 Y101.486 E155.73507
G0 F9000 X119.979 Y102.052
G1 F900 X112.982 Y109.049 E155.97256
G0 F9000 X113.547 Y109.049
G1 F900 X119.979 Y102.618 E156.19085
G0 F9000 X120.250 Y102.912
G1 F900 X114.113 Y109.049 E156.39914
G0 F9000 X114.679 Y109.049
G1 F900 X120.816 Y102.912 E156.60744
G0 F9000 X121.381 Y102.912
G1 F900 X115.244 Y109.049 E156.81574
G0 F9000 X115.810 Y109.049
G1 F900 X121.947 Y102.912 E157.02403
G0 F9000 X122.513 Y102.912
G1 F900 X116.376 Y109.049 E157.23233
G0 F9000 X116.942 Y109.049
G1 F900 X125.178 Y100.812 E157.51189
G0 F9000 X125.178 Y100.247
G1 F900 X123.019 Y102.406 E157.58517
G0 F9000 X123.019 Y101.840
G1 F900 X125.178 Y99.681 E157.65845
G0 F9000 X125.178 Y99.115
G1 F900 X123.019 Y101.274 E157.73172
G0 F9000 X123.019 Y100.708
G1 F900 X125.178 Y98.550 E157.80499
G0 F9000 X125.178 Y97.984
G1 F900 X123.019 Y100.143 E157.87827
G0 F9000 X125.178 Y101.378
G1 F900 X117.507 Y109.049 E158.13863
G0 F9000 X118.073 Y109.049
G1 F900 X125.178 Y101.944 E158.37978
G0 F9000 X125.178 Y102.509
G1 F900 X118.638 Y109.050 E158.60177
G0 F9000 X119.204 Y109.050
G1 F900 X125.178 Y103.075 E158.80455
G0 F9000 X125.178 Y103.641
G1 F900 X119.769 Y109.050 E158.98814
G0 F9000 X120.335 Y109.050
G1 F900 X125.178 Y104.207 E159.15252
G0 F9000 X125.178 Y104.772
G1 F900 X120.901 Y109.050 E159.29770
G0 F9000 X121.466 Y109.050
G1 F900 X125.178 Y105.338 E159.42369
G0 F9000 X125.178 Y105.904
G1 F900 X122.032 Y109.050 E159.53047
G0 F9000 X122.598 Y109.050
G1 F900 X125.178 Y106.469 E159.61805
G0 F9000 X125.178 Y107.035
G1 F900 X123.163 Y109.050 E159.68644
G0 F9000 X123.729 Y109.050
G1 F900 X125.178 Y107.601 E159.73563
G0 F9000 X125.178 Y108.166
G1 F900 X124.295 Y109.050 E159.76561
G0 F9000 X124.860 Y109.050
G1 F900 X125.178 Y108.732 E159.77641
G0 F9000 X123.019 Y99.577
G1 F900 X125.178 Y97.418 E159.84968
G0 F9000 X125.178 Y96.853
G1 F900 X123.019 Y99.011 E159.92295
G0 F9000 X123.019 Y98.446
G1 F900 X125.178 Y96.287 E159.99623
G0 F9000 X125.178 Y95.721
G1 F900 X123.019 Y97.880 E160.06950
G0 F9000 X123.019 Y97.314
G1 F900 X125.178 Y95.156 E160.14277
G0 F9000 X125.178 Y94.590
G1 F900 X123.019 Y96.749 E160.21605
G0 F9000 X123.019 Y96.183
G1 F900 X125.178 Y94.024 E160.28932
G0 F9000 X125.178 Y93.459
G1 F900 X123.019 Y95.617 E160.36259
G0 F9000 X123.019 Y95.052
G1 F900 X125.178 Y92.893 E160.43586
