;FLAVOR:UltiGCode
;TIME:289
;MATERIAL:652
;MATERIAL2:0

;Layer count: 29
;LAYER:0
M107
G0 F9000 X106.034 Y101.986 Z0.300
;TYPE:SKIRT
G1 F1800 X106.932 Y101.233 E0.17579
G1 X107.998 Y100.716 E0.35350
G1 X109.166 Y100.479 E0.53227
G1 X110.361 Y100.536 E0.71173
G1 X111.259 Y100.815 E0.85278
G1 X111.921 Y101.109 E0.96143
G1 X112.305 Y101.279 E1.02442
G1 X112.818 Y100.013 E1.22932
G1 X113.641 Y98.478 E1.49058
G1 X113.907 Y97.983 E1.57487
G1 X115.585 Y95.399 E2.03702
G1 X117.762 Y94.286 E2.40378
G1 X118.901 Y93.703 E2.59571
G1 X122.405 Y93.703 E3.12131
G1 X123.447 Y93.846 E3.27907
G1 X124.661 Y94.379 E3.47795
G1 X125.675 Y95.218 E3.67536
G1 X126.416 Y96.285 E3.87022
G1 X126.841 Y97.516 E4.06557
G1 X126.922 Y98.836 E4.26394
G1 X126.642 Y100.076 E4.45462
G1 X125.093 Y103.161 E4.97243
G1 X124.402 Y104.546 E5.20460
G1 X123.527 Y107.766 E5.70512
G1 X123.361 Y108.377 E5.80009
G1 X123.056 Y111.857 E6.32409
G1 X122.996 Y112.525 E6.42469
G1 X123.300 Y116.002 E6.94823
G1 X123.299 Y116.002 E6.94838
G1 X123.357 Y116.657 E7.04702
G1 X124.239 Y119.912 E7.55287
G1 X124.398 Y120.496 E7.64366
G1 X125.084 Y121.877 E7.87496
G1 X125.085 Y121.877 E7.87511
G1 X126.292 Y124.304 E8.28170
G1 X126.630 Y124.967 E8.39333
G1 X126.891 Y126.252 E8.59001
G1 X126.791 Y127.555 E8.78604
G1 X126.354 Y128.764 E8.97887
G1 X125.606 Y129.818 E9.17274
G1 X124.587 Y130.646 E9.36969
G1 X123.379 Y131.162 E9.56672
G1 X122.362 Y131.297 E9.72061
G1 X118.902 Y131.297 E10.23961
G1 X116.812 Y130.228 E10.59174
G1 X115.586 Y129.601 E10.79829
G1 X114.227 Y127.512 E11.17212
G1 X113.930 Y127.057 E11.25362
G1 X113.146 Y125.604 E11.50127
G1 X112.864 Y125.080 E11.59053
G1 X112.309 Y123.717 E11.81128
G1 X112.142 Y123.792 E11.83874
G1 X111.606 Y124.032 E11.92683
G1 X111.454 Y124.099 E11.95175
G1 X111.140 Y124.233 E12.00296
G1 X110.296 Y124.470 E12.13446
G1 X109.144 Y124.520 E12.30742
G1 X107.987 Y124.279 E12.48469
G1 X106.924 Y123.765 E12.66181
G1 X106.022 Y123.001 E12.83912
G1 X105.323 Y122.031 E13.01846
G1 X104.894 Y120.916 E13.19766
G1 X104.779 Y119.990 E13.33763
G1 X104.779 Y118.438 E13.57043
G1 X103.930 Y117.419 E13.76938
G1 X103.282 Y115.936 E14.01214
G1 X103.104 Y114.631 E14.20970
G1 X103.104 Y110.360 E14.85035
G1 X103.291 Y109.033 E15.05137
G1 X103.950 Y107.550 E15.29479
G1 X104.779 Y106.568 E15.48756
G1 X104.779 Y105.009 E15.72141
G1 X104.898 Y104.063 E15.86443
G1 X105.336 Y102.950 E16.04384
G1 X106.034 Y101.986 E16.22237
G0 F9000 X106.402 Y102.329
G1 F1800 X107.205 Y101.656 E16.37953
G1 X108.160 Y101.194 E16.53866
G1 X109.204 Y100.981 E16.69849
G1 X110.273 Y101.032 E16.85902
G1 X111.083 Y101.284 E16.98626
G1 X111.719 Y101.566 E17.09062
G1 X112.391 Y101.865 E17.20095
G1 X112.391 Y101.866 E17.20110
G1 X112.570 Y101.945 E17.23045
G1 X112.627 Y101.817 E17.25146
G1 X113.271 Y100.226 E17.50892
G1 X114.082 Y98.714 E17.76629
G1 X114.337 Y98.238 E17.84729
G1 X115.931 Y95.784 E18.28623
G1 X117.989 Y94.731 E18.63299
G1 X119.022 Y94.203 E18.80701
G1 X122.371 Y94.203 E19.30936
G1 X123.310 Y94.332 E19.45153
G1 X124.396 Y94.809 E19.62945
G1 X125.303 Y95.559 E19.80599
G1 X125.966 Y96.514 E19.98038
G1 X126.346 Y97.615 E20.15509
G1 X126.418 Y98.796 E20.33256
G1 X126.168 Y99.907 E20.50338
G1 X124.646 Y102.937 E21.01200
G1 X123.931 Y104.369 E21.25208
G1 X123.045 Y107.634 E21.75955
G1 X122.867 Y108.286 E21.86093
G1 X122.558 Y111.813 E22.39200
G1 X122.495 Y112.524 E22.49907
G1 X122.802 Y116.045 E23.02922
G1 X122.801 Y116.045 E23.02937
G1 X122.863 Y116.748 E23.13523
G1 X123.756 Y120.043 E23.64731
G1 X123.926 Y120.667 E23.74432
G1 X124.638 Y122.101 E23.98448
G1 X125.829 Y124.497 E24.38583
G1 X126.154 Y125.133 E24.49297
G1 X126.387 Y126.283 E24.66897
G1 X126.298 Y127.449 E24.84438
G1 X125.907 Y128.530 E25.01681
G1 X125.237 Y129.473 E25.19033
G1 X124.326 Y130.214 E25.36647
G1 X123.245 Y130.675 E25.54275
G1 X122.329 Y130.797 E25.68137
G1 X119.022 Y130.797 E26.17742
G1 X117.040 Y129.783 E26.51137
G1 X115.932 Y129.216 E26.69806
G1 X114.646 Y127.240 E27.05171
G1 X114.360 Y126.801 E27.13030
G1 X113.317 Y124.867 E27.45990
G1 X112.659 Y123.249 E27.72190
G1 X112.571 Y123.055 E27.75385
G1 X112.392 Y123.134 E27.78320
G1 X112.392 Y123.133 E27.78335
G1 X111.929 Y123.339 E27.85936
G1 X111.402 Y123.575 E27.94598
G1 X111.255 Y123.641 E27.97015
G1 X110.974 Y123.761 E28.01598
G1 X110.216 Y123.973 E28.13404
G1 X109.185 Y124.018 E28.28884
G1 X108.149 Y123.802 E28.44758
G1 X107.199 Y123.342 E28.60591
G1 X106.392 Y122.659 E28.76449
G1 X105.767 Y121.791 E28.92493
G1 X105.383 Y120.794 E29.08519
G1 X105.279 Y119.959 E29.21141
G1 X105.279 Y118.257 E29.46671
G1 X104.359 Y117.153 E29.68227
G1 X103.768 Y115.800 E29.90374
G1 X103.604 Y114.597 E30.08586
G1 X103.604 Y110.395 E30.71616
G1 X103.776 Y109.172 E30.90142
G1 X104.378 Y107.818 E31.12369
G1 X105.279 Y106.751 E31.33316
G1 X105.279 Y105.040 E31.58981
G1 X105.386 Y104.188 E31.71862
G1 X105.778 Y103.191 E31.87931
G1 X106.402 Y102.329 E32.03894
G10
G0 F9000 X109.350 Y105.078
;TYPE:WALL-INNER
G11
G1 F1800 X109.397 Y105.039 E32.04810
G1 X109.450 Y105.013 E32.05695
G1 X109.512 Y105.000 E32.06645
G1 X109.575 Y105.003 E32.07591
G1 X109.671 Y105.033 E32.09100
G1 X110.767 Y105.521 E32.27096
G1 X112.073 Y106.097 E32.48507
G1 X112.729 Y106.382 E32.59235
G1 X113.360 Y106.639 E32.69455
G1 X113.754 Y106.796 E32.75817
G1 X114.536 Y106.515 E32.88282
G1 X114.920 Y106.376 E32.94407
G1 X115.454 Y105.497 E33.09835
G1 X115.869 Y104.367 E33.27892
G1 X116.310 Y103.378 E33.44135
G1 X116.899 Y101.925 E33.67652
G1 X117.783 Y100.275 E33.95731
G1 X118.703 Y98.859 E34.21060
G1 X119.986 Y98.203 E34.42675
G1 X122.098 Y98.203 E34.74355
G1 X122.212 Y98.219 E34.76081
G1 X122.278 Y98.248 E34.77163
G1 X122.330 Y98.291 E34.78175
G1 X122.365 Y98.340 E34.79078
G1 X122.386 Y98.403 E34.80074
G1 X122.390 Y98.473 E34.81126
G1 X122.373 Y98.551 E34.82323
G1 X121.071 Y101.142 E35.25819
G1 X120.176 Y102.937 E35.55906
G1 X118.913 Y107.584 E36.28139
G1 X118.479 Y112.525 E37.02540
G1 X118.911 Y117.455 E37.76773
G1 X120.169 Y122.097 E38.48915
G1 X122.264 Y126.311 E39.19505
G1 X122.342 Y126.465 E39.22095
G1 X122.356 Y126.532 E39.23122
G1 X122.351 Y126.603 E39.24189
G1 X122.330 Y126.659 E39.25086
G1 X122.293 Y126.711 E39.26044
G1 X122.239 Y126.755 E39.27088
G1 X122.175 Y126.783 E39.28136
G1 X119.986 Y126.797 E39.60972
G1 X118.704 Y126.142 E39.82566
G1 X117.800 Y124.753 E40.07425
G1 X116.943 Y123.163 E40.34519
G1 X116.335 Y121.671 E40.58686
G1 X115.897 Y120.702 E40.74637
G1 X115.457 Y119.511 E40.93682
G1 X115.028 Y118.764 E41.06604
G1 X114.099 Y118.189 E41.22992
G1 X113.116 Y118.450 E41.38248
G1 X112.496 Y118.718 E41.48379
G1 X111.920 Y118.969 E41.57804
G1 X110.772 Y119.476 E41.76629
G1 X110.305 Y119.684 E41.84297
G1 X109.649 Y119.977 E41.95074
G1 X109.582 Y119.997 E41.96123
G1 X109.510 Y120.000 E41.97204
G1 X109.448 Y119.987 E41.98154
G1 X109.397 Y119.962 E41.99006
G1 X109.349 Y119.921 E41.99953
G1 X109.315 Y119.874 E42.00823
G1 X109.292 Y119.814 E42.01787
G1 X109.279 Y117.016 E42.43757
G1 X109.219 Y116.587 E42.50255
G1 X109.018 Y116.135 E42.57675
G1 X108.701 Y115.759 E42.65052
G1 X108.123 Y115.368 E42.75519
G1 X108.022 Y115.301 E42.77337
G1 X107.796 Y115.030 E42.82631
G1 X107.656 Y114.709 E42.87884
G1 X107.604 Y114.327 E42.93666
G1 X107.604 Y110.678 E43.48401
G1 X107.660 Y110.283 E43.54386
G1 X107.801 Y109.964 E43.59617
G1 X108.029 Y109.694 E43.64918
G1 X108.708 Y109.235 E43.77212
G1 X109.025 Y108.855 E43.84635
G1 X109.221 Y108.405 E43.91997
G1 X109.279 Y107.984 E43.98372
G1 X109.279 Y105.290 E44.38782
G1 X109.292 Y105.185 E44.40369
G1 X109.315 Y105.126 E44.41319
G1 X109.350 Y105.078 E44.42210
G0 F9000 X108.779 Y105.259
;TYPE:WALL-OUTER
G1 F1800 X108.804 Y105.061 E44.45203
G1 X108.874 Y104.884 E44.48059
G1 X108.981 Y104.735 E44.50810
G1 X109.124 Y104.615 E44.53610
G1 X109.289 Y104.536 E44.56354
G1 X109.472 Y104.498 E44.59158
G1 X109.662 Y104.507 E44.62011
G1 X109.852 Y104.567 E44.65000
G1 X112.273 Y105.639 E45.04716
G1 X112.923 Y105.921 E45.15344
G1 X113.547 Y106.175 E45.25449
G1 X113.763 Y106.261 E45.28937
G1 X114.584 Y105.966 E45.42023
G1 X115.001 Y105.279 E45.54077
G1 X115.407 Y104.175 E45.71722
G1 X115.850 Y103.182 E45.88032
G1 X116.447 Y101.709 E46.11873
G1 X117.347 Y100.030 E46.40448
G1 X118.357 Y98.475 E46.68261
G1 X119.866 Y97.703 E46.93686
G1 X122.130 Y97.703 E47.27646
G1 X122.350 Y97.733 E47.30977
G1 X122.542 Y97.817 E47.34120
G1 X122.702 Y97.950 E47.37241
G1 X122.815 Y98.112 E47.40204
G1 X122.881 Y98.303 E47.43235
G1 X122.894 Y98.514 E47.46406
G1 X122.847 Y98.722 E47.49605
G1 X120.645 Y103.115 E48.23314
G1 X119.407 Y107.672 E48.94147
G1 X118.981 Y112.525 E49.67222
G1 X119.405 Y117.367 E50.40130
G1 X120.639 Y121.919 E51.10874
G1 X122.711 Y126.086 E51.80680
G1 X122.819 Y126.299 E51.84262
G1 X122.860 Y126.503 E51.87384
G1 X122.845 Y126.706 E51.90437
G1 X122.778 Y126.891 E51.93388
G1 X122.660 Y127.058 E51.96455
G1 X122.499 Y127.188 E51.99559
G1 X122.311 Y127.268 E52.02624
G1 X122.096 Y127.297 E52.05878
G1 X119.866 Y127.297 E52.39328
G1 X118.357 Y126.525 E52.64754
G1 X117.372 Y125.011 E52.91847
G1 X116.488 Y123.374 E53.19753
G1 X115.876 Y121.868 E53.44137
G1 X115.434 Y120.891 E53.60222
G1 X115.002 Y119.724 E53.78888
G1 X114.657 Y119.123 E53.89283
G1 X114.019 Y118.728 E54.00539
G1 X113.280 Y118.924 E54.12007
G1 X112.695 Y119.177 E54.21567
G1 X112.121 Y119.427 E54.30959
G1 X110.508 Y120.141 E54.57418
G1 X109.857 Y120.432 E54.68114
G1 X109.662 Y120.493 E54.71179
G1 X109.469 Y120.502 E54.74077
G1 X109.284 Y120.463 E54.76913
G1 X109.124 Y120.386 E54.79577
G1 X108.980 Y120.264 E54.82408
G1 X108.870 Y120.111 E54.85234
G1 X108.803 Y119.937 E54.88031
G1 X108.779 Y119.742 E54.90978
G1 X108.779 Y117.051 E55.31343
G1 X108.734 Y116.726 E55.36265
G1 X108.590 Y116.403 E55.41569
G1 X108.364 Y116.134 E55.46839
G1 X107.682 Y115.674 E55.59179
G1 X107.367 Y115.295 E55.66571
G1 X107.171 Y114.846 E55.73920
G1 X107.104 Y114.358 E55.81308
G1 X107.104 Y110.644 E56.37018
G1 X107.174 Y110.143 E56.44606
G1 X107.374 Y109.695 E56.51966
G1 X107.691 Y109.319 E56.59343
G1 X108.368 Y108.861 E56.71603
G1 X108.595 Y108.590 E56.76906
G1 X108.735 Y108.268 E56.82173
G1 X108.779 Y107.949 E56.87003
G1 X108.779 Y105.259 E57.27353
G0 F9000 X109.453 Y105.563
;TYPE:SKIN
G1 F1800 X118.484 Y114.595 E59.18940
G0 F9000 X118.417 Y113.820
G1 F1800 X109.938 Y105.342 E60.98796
G0 F9000 X109.453 Y106.271
G1 F1800 X118.552 Y115.370 E62.91815
G0 F9000 X118.620 Y116.145
G1 F1800 X109.453 Y106.978 E64.86276
G0 F9000 X109.453 Y107.685
G1 F1800 X118.688 Y116.920 E66.82180
G0 F9000 X118.808 Y117.747
G1 F1800 X109.405 Y108.345 E68.81637
G0 F9000 X109.212 Y108.859
G1 F1800 X119.071 Y118.717 E70.90768
G0 F9000 X119.334 Y119.687
G1 F1800 X108.910 Y109.263 E73.11894
G0 F9000 X108.515 Y109.576
G1 F1800 X119.597 Y120.657 E75.46968
G0 F9000 X119.860 Y121.628
G1 F1800 X108.105 Y109.873 E77.96330
G0 F9000 X107.838 Y110.312
G1 F1800 X120.321 Y122.796 E80.61145
G0 F9000 X121.022 Y124.204
G1 F1800 X107.778 Y110.960 E83.42092
G0 F9000 X107.778 Y111.667
G1 F1800 X114.112 Y118.001 E84.76457
G0 F9000 X113.554 Y118.150
G1 F1800 X107.778 Y112.374 E85.98984
G0 F9000 X107.778 Y113.081
G1 F1800 X113.004 Y118.307 E87.09844
G0 F9000 X112.513 Y118.523
G1 F1800 X107.778 Y113.789 E88.10278
G0 F9000 X107.807 Y114.525
G1 F1800 X112.021 Y118.739 E88.99671
G0 F9000 X111.531 Y118.955
G1 F1800 X109.433 Y116.858 E89.44165
G0 F9000 X109.455 Y117.587
G1 F1800 X111.040 Y119.172 E89.77788
G0 F9000 X110.549 Y119.388
G1 F1800 X109.459 Y118.298 E90.00911
G0 F9000 X109.462 Y119.008
G1 F1800 X109.811 Y119.710 E90.13540
G1 X109.465 Y119.718 E90.18732
G0 F9000 X114.088 Y118.261
G0 X114.986 Y118.804
G0 X115.656 Y119.545
G1 F1800 X121.723 Y125.612 E91.47432
G0 F9000 X122.010 Y126.606
G1 F1800 X116.077 Y120.673 E92.73290
G0 F9000 X116.632 Y121.935
G1 F1800 X121.308 Y126.611 E93.72483
G0 F9000 X120.606 Y126.616
G1 F1800 X117.127 Y123.138 E94.46273
G0 F9000 X117.959 Y124.677
G1 F1800 X119.773 Y126.490 E94.84743
G0 F9000 X118.349 Y113.045
G1 F1800 X111.204 Y105.901 E96.36301
G0 F9000 X112.469 Y106.459
G1 F1800 X118.322 Y112.311 E97.60452
G0 F9000 X118.379 Y111.662
G1 F1800 X113.668 Y106.950 E98.60398
G0 F9000 X114.233 Y106.809
G1 F1800 X118.436 Y111.011 E99.49546
G0 F9000 X118.493 Y110.361
G1 F1800 X114.753 Y106.621 E100.28883
G0 F9000 X115.157 Y106.319
G1 F1800 X118.550 Y109.711 E101.00849
G0 F9000 X118.607 Y109.062
G1 F1800 X115.425 Y105.879 E101.68360
G0 F9000 X115.669 Y105.416
G1 F1800 X118.664 Y108.411 E102.31894
G0 F9000 X118.721 Y107.761
G1 F1800 X115.859 Y104.899 E102.92606
G0 F9000 X116.051 Y104.383
G1 F1800 X118.842 Y107.175 E103.51823
G0 F9000 X118.993 Y106.618
G1 F1800 X116.269 Y103.895 E104.09597
G0 F9000 X116.485 Y103.404
G1 F1800 X119.144 Y106.063 E104.66003
G0 F9000 X119.295 Y105.506
G1 F1800 X116.690 Y102.901 E105.21263
G0 F9000 X116.894 Y102.398
G1 F1800 X119.446 Y104.950 E105.75399
G0 F9000 X119.597 Y104.395
G1 F1800 X117.106 Y101.903 E106.28252
G0 F9000 X117.353 Y101.443
G1 F1800 X119.748 Y103.838 E106.79057
G0 F9000 X119.899 Y103.282
G1 F1800 X117.600 Y100.983 E107.27827
G0 F9000 X117.847 Y100.523
G1 F1800 X120.073 Y102.749 E107.75047
G0 F9000 X120.309 Y102.278
G1 F1800 X118.115 Y100.083 E108.21600
G0 F9000 X118.393 Y99.654
G1 F1800 X120.546 Y101.807 E108.67272
G0 F9000 X120.781 Y101.336
G1 F1800 X118.671 Y99.226 E109.12031
G0 F9000 X119.037 Y98.885
G1 F1800 X121.017 Y100.865 E109.54034
G0 F9000 X121.253 Y100.394
G1 F1800 X119.505 Y98.646 E109.91114
G0 F9000 X119.973 Y98.406
G1 F1800 X121.490 Y99.923 E110.23295
G0 F9000 X121.726 Y99.452
G1 F1800 X120.652 Y98.378 E110.46078
G0 F9000 X121.359 Y98.378
G1 F1800 X122.079 Y98.745 E110.58854
G1 X122.066 Y98.378 E110.64363
;LAYER:1
M106 S127
G0 F9000 X122.098 Y98.203 Z0.450
;TYPE:WALL-INNER
G1 F2520 X122.212 Y98.219 E110.65226
G1 X122.278 Y98.248 E110.65767
G1 X122.330 Y98.291 E110.66273
G1 X122.365 Y98.340 E110.66725
G1 X122.386 Y98.403 E110.67223
G1 X122.390 Y98.473 E110.67748
G1 X122.373 Y98.552 E110.68355
G1 X121.646 Y99.991 E110.80446
G1 X120.176 Y102.937 E111.05139
G1 X118.913 Y107.584 E111.41256
G1 X118.479 Y112.525 E111.78456
G1 X118.911 Y117.455 E112.15573
G1 X120.169 Y122.098 E112.51651
G1 X122.264 Y126.311 E112.86939
G1 X122.342 Y126.465 E112.88234
G1 X122.356 Y126.532 E112.88747
G1 X122.351 Y126.603 E112.89281
G1 X122.330 Y126.659 E112.89730
G1 X122.293 Y126.711 E112.90209
G1 X122.239 Y126.755 E112.90731
G1 X122.175 Y126.783 E112.91255
G1 X119.986 Y126.797 E113.07673
G1 X118.704 Y126.142 E113.18470
G1 X117.800 Y124.753 E113.30899
G1 X116.942 Y123.163 E113.44450
G1 X115.924 Y120.663 E113.64695
G1 X115.696 Y120.159 E113.68844
G1 X115.457 Y119.511 E113.74024
G1 X115.028 Y118.764 E113.80484
G1 X114.099 Y118.189 E113.88678
G1 X113.116 Y118.450 E113.96306
G1 X112.496 Y118.718 E114.01372
G1 X111.920 Y118.969 E114.06085
G1 X110.772 Y119.476 E114.15497
G1 X110.182 Y119.739 E114.20342
G1 X109.688 Y119.959 E114.24397
G1 X109.594 Y119.996 E114.25155
G1 X109.510 Y120.000 E114.25786
G1 X109.448 Y119.987 E114.26261
G1 X109.397 Y119.962 E114.26687
G1 X109.349 Y119.921 E114.27160
G1 X109.315 Y119.874 E114.27595
G1 X109.292 Y119.814 E114.28077
G1 X109.279 Y117.016 E114.49063
G1 X109.219 Y116.587 E114.52311
G1 X109.018 Y116.135 E114.56021
G1 X108.702 Y115.759 E114.59705
G1 X108.021 Y115.299 E114.65869
G1 X107.796 Y115.030 E114.68499
G1 X107.656 Y114.709 E114.71125
G1 X107.604 Y114.327 E114.74017
G1 X107.604 Y110.678 E115.01384
G1 X107.660 Y110.283 E115.04376
G1 X107.801 Y109.964 E115.06992
G1 X108.029 Y109.694 E115.09643
G1 X108.708 Y109.235 E115.15789
G1 X109.025 Y108.855 E115.19501
G1 X109.221 Y108.405 E115.23182
G1 X109.279 Y107.984 E115.26369
