;FLAVOR:UltiGCode
;TIME:3395
;MATERIAL:3141
;MATERIAL2:0

;Layer count: 30
;LAYER:0
M107
G0 F9000 X52.190 Y95.448 Z0.300
;TYPE:SKIRT
G1 F1200 X177.810 Y95.447 E15.07440
G1 X177.810 Y129.552 E19.16700
G1 X52.190 Y129.553 E34.24140
G1 X52.190 Y95.448 E38.33400
G10
G0 F9000 X55.990 Y99.248
;TYPE:WALL-INNER
G11
G1 F1200 X174.010 Y99.247 E52.49640
G1 X174.010 Y108.616 E53.62068
G1 X173.739 Y106.960 E53.82204
G1 X173.376 Y105.582 E53.99304
G1 X172.883 Y104.293 E54.15865
G1 X172.761 Y104.101 E54.18595
G1 X172.571 Y103.932 E54.21646
G1 X172.300 Y103.800 E54.25264
G1 X169.488 Y103.800 E54.59008
G1 X169.562 Y103.725 E54.60272
G1 X169.906 Y103.049 E54.69374
G1 X170.026 Y102.300 E54.78477
G1 X169.905 Y101.552 E54.87569
G1 X169.562 Y100.875 E54.96676
G1 X169.025 Y100.339 E55.05781
G1 X168.349 Y99.993 E55.14894
G1 X167.598 Y99.874 E55.24018
G1 X166.852 Y99.994 E55.33085
G1 X166.173 Y100.337 E55.42214
G1 X165.637 Y100.876 E55.51336
G1 X165.294 Y101.552 E55.60432
G1 X165.173 Y102.300 E55.69525
G1 X165.293 Y103.049 E55.78628
G1 X165.637 Y103.726 E55.87740
G1 X165.710 Y103.799 E55.88979
G1 X64.301 Y103.788 E68.05887
G1 X64.363 Y103.726 E68.06939
G1 X64.707 Y103.048 E68.16063
G1 X64.826 Y102.301 E68.25140
G1 X64.707 Y101.553 E68.34228
G1 X64.363 Y100.875 E68.43352
G1 X63.826 Y100.338 E68.52465
G1 X63.148 Y99.994 E68.61588
G1 X62.400 Y99.875 E68.70677
G1 X61.653 Y99.994 E68.79754
G1 X60.975 Y100.338 E68.88877
G1 X60.438 Y100.875 E68.97991
G1 X60.094 Y101.553 E69.07114
G1 X59.975 Y102.301 E69.16203
G1 X60.094 Y103.048 E69.25280
G1 X60.438 Y103.726 E69.34403
G1 X60.499 Y103.787 E69.35438
G1 X57.890 Y103.787 E69.66746
G1 X57.675 Y103.815 E69.69348
G1 X57.441 Y103.925 E69.72451
G1 X57.249 Y104.086 E69.75458
G1 X57.122 Y104.282 E69.78260
G1 X56.886 Y104.842 E69.85553
G1 X56.554 Y105.836 E69.98129
G1 X56.233 Y107.124 E70.14057
G1 X56.028 Y108.369 E70.29198
G1 X55.990 Y108.702 E70.33220
G1 X55.990 Y99.248 E71.46668
G10
G0 F9000 X55.990 Y116.384
G11
G1 F1200 X56.261 Y118.040 E71.66805
G1 X56.624 Y119.418 E71.83905
G1 X57.117 Y120.707 E72.00466
G1 X57.239 Y120.899 E72.03195
G1 X57.429 Y121.068 E72.06247
G1 X57.700 Y121.200 E72.09864
G1 X60.512 Y121.200 E72.43608
G1 X60.438 Y121.274 E72.44864
G1 X60.094 Y121.952 E72.53987
G1 X59.975 Y122.700 E72.63076
G1 X60.094 Y123.447 E72.72153
G1 X60.438 Y124.125 E72.81276
G1 X60.975 Y124.661 E72.90381
G1 X61.651 Y125.007 E72.99494
G1 X62.402 Y125.126 E73.08618
G1 X63.149 Y125.005 E73.17699
G1 X63.826 Y124.662 E73.26806
G1 X64.363 Y124.125 E73.35920
G1 X64.707 Y123.447 E73.45043
G1 X64.826 Y122.700 E73.54120
G1 X64.707 Y121.952 E73.63209
G1 X64.363 Y121.274 E73.72332
G1 X64.290 Y121.201 E73.73571
G1 X165.699 Y121.212 E85.90479
G1 X165.637 Y121.274 E85.91531
G1 X165.293 Y121.952 E86.00655
G1 X165.175 Y122.699 E86.09730
G1 X165.292 Y123.448 E86.18827
G1 X165.636 Y124.126 E86.27950
G1 X166.173 Y124.663 E86.37063
G1 X166.851 Y125.007 E86.46186
G1 X167.601 Y125.124 E86.55295
G1 X168.347 Y125.006 E86.64359
G1 X169.025 Y124.662 E86.73482
G1 X169.562 Y124.125 E86.82595
G1 X169.905 Y123.448 E86.91702
G1 X170.026 Y122.700 E87.00795
G1 X169.906 Y121.951 E87.09898
G1 X169.562 Y121.275 E87.19000
G1 X169.500 Y121.213 E87.20052
G1 X172.109 Y121.213 E87.51360
G1 X172.329 Y121.185 E87.54021
G1 X172.559 Y121.074 E87.57086
G1 X172.751 Y120.917 E87.60062
G1 X172.878 Y120.717 E87.62905
G1 X173.114 Y120.158 E87.70186
G1 X173.443 Y119.171 E87.82671
G1 X173.579 Y118.676 E87.88831
G1 X173.767 Y117.879 E87.98657
G1 X173.973 Y116.628 E88.13872
G1 X174.010 Y116.300 E88.17833
G1 X174.010 Y125.752 E89.31257
G1 X55.990 Y125.753 E103.47497
G1 X55.990 Y116.384 E104.59925
G0 F9000 X56.388 Y116.347
;TYPE:WALL-OUTER
G1 F1200 X56.652 Y117.957 E104.79503
G1 X57.005 Y119.295 E104.96108
G1 X57.476 Y120.526 E105.11924
G1 X57.547 Y120.638 E105.13516
G1 X57.654 Y120.733 E105.15233
G1 X57.792 Y120.800 E105.17073
G1 X61.730 Y120.800 E105.64329
G1 X61.213 Y121.065 E105.71301
G1 X60.766 Y121.512 E105.78887
G1 X60.479 Y122.077 E105.86491
G1 X60.380 Y122.700 E105.94061
G1 X60.479 Y123.322 E106.01619
G1 X60.766 Y123.887 E106.09224
G1 X61.213 Y124.334 E106.16810
G1 X61.776 Y124.622 E106.24398
G1 X62.401 Y124.721 E106.31992
G1 X63.024 Y124.620 E106.39565
G1 X63.588 Y124.334 E106.47154
G1 X64.035 Y123.887 E106.54740
G1 X64.322 Y123.322 E106.62344
G1 X64.421 Y122.700 E106.69902
G1 X64.322 Y122.077 E106.77472
G1 X64.035 Y121.512 E106.85077
G1 X63.588 Y121.065 E106.92662
G1 X63.071 Y120.801 E106.99628
G1 X166.906 Y120.812 E119.45648
G1 X166.412 Y121.065 E119.52309
G1 X165.965 Y121.512 E119.59894
G1 X165.678 Y122.077 E119.67499
G1 X165.580 Y122.700 E119.75067
G1 X165.677 Y123.323 E119.82633
G1 X165.964 Y123.888 E119.90238
G1 X166.411 Y124.335 E119.97823
G1 X166.976 Y124.622 E120.05428
G1 X167.600 Y124.719 E120.13006
G1 X168.222 Y124.621 E120.20562
G1 X168.787 Y124.334 E120.28167
G1 X169.234 Y123.887 E120.35752
G1 X169.520 Y123.323 E120.43341
G1 X169.621 Y122.700 E120.50915
G1 X169.521 Y122.076 E120.58498
G1 X169.234 Y121.512 E120.66092
G1 X168.788 Y121.064 E120.73678
G1 X168.293 Y120.813 E120.80338
G1 X172.084 Y120.813 E121.25830
G1 X172.214 Y120.796 E121.27403
G1 X172.342 Y120.735 E121.29105
G1 X172.448 Y120.648 E121.30750
G1 X172.523 Y120.530 E121.32428
G1 X172.739 Y120.017 E121.39107
G1 X173.060 Y119.054 E121.51289
G1 X173.376 Y117.796 E121.66853
G1 X173.576 Y116.575 E121.81701
G1 X173.637 Y116.039 E121.88174
G1 X173.760 Y114.540 E122.06223
G1 X173.800 Y113.123 E122.23233
G1 X173.813 Y112.500 E122.30711
G1 X173.771 Y110.553 E122.54081
G1 X173.612 Y108.653 E122.76960
G1 X173.348 Y107.043 E122.96538
G1 X172.995 Y105.705 E123.13144
G1 X172.524 Y104.474 E123.28960
G1 X172.453 Y104.362 E123.30551
G1 X172.346 Y104.267 E123.32268
G1 X172.208 Y104.200 E123.34109
G1 X168.269 Y104.200 E123.81377
G1 X168.788 Y103.936 E123.88365
G1 X169.234 Y103.488 E123.95951
G1 X169.521 Y102.924 E124.03544
G1 X169.621 Y102.300 E124.11128
G1 X169.520 Y101.677 E124.18702
G1 X169.234 Y101.113 E124.26290
G1 X168.787 Y100.666 E124.33876
G1 X168.224 Y100.378 E124.41464
G1 X167.599 Y100.279 E124.49058
G1 X166.977 Y100.379 E124.56618
G1 X166.411 Y100.665 E124.64228
G1 X165.965 Y101.113 E124.71814
G1 X165.679 Y101.677 E124.79402
G1 X165.578 Y102.300 E124.86976
G1 X165.678 Y102.924 E124.94559
G1 X165.965 Y103.488 E125.02153
G1 X166.412 Y103.935 E125.09739
G1 X166.929 Y104.199 E125.16705
G1 X63.094 Y104.188 E137.62725
G1 X63.588 Y103.935 E137.69385
G1 X64.035 Y103.488 E137.76971
G1 X64.322 Y102.923 E137.84576
G1 X64.421 Y102.301 E137.92133
G1 X64.322 Y101.678 E137.99703
G1 X64.035 Y101.113 E138.07308
G1 X63.588 Y100.666 E138.14894
G1 X63.023 Y100.379 E138.22498
G1 X62.400 Y100.280 E138.30068
G1 X61.778 Y100.379 E138.37626
G1 X61.213 Y100.666 E138.45231
G1 X60.766 Y101.113 E138.52816
G1 X60.479 Y101.678 E138.60421
G1 X60.380 Y102.301 E138.67991
G1 X60.479 Y102.923 E138.75549
G1 X60.766 Y103.488 E138.83153
G1 X61.213 Y103.935 E138.90739
G1 X61.710 Y104.187 E138.97426
G1 X57.916 Y104.187 E139.42954
G1 X57.788 Y104.204 E139.44504
G1 X57.658 Y104.265 E139.46227
G1 X57.552 Y104.353 E139.47880
G1 X57.477 Y104.469 E139.49538
G1 X57.261 Y104.983 E139.56228
G1 X56.939 Y105.948 E139.68436
G1 X56.625 Y107.205 E139.83983
G1 X56.424 Y108.424 E139.98809
G1 X56.363 Y108.960 E140.05282
G1 X56.240 Y110.460 E140.23343
G1 X56.214 Y111.247 E140.32792
G1 X56.187 Y112.500 E140.47831
G1 X56.229 Y114.448 E140.71213
G1 X56.388 Y116.347 E140.94080
G0 F9000 X56.090 Y116.369
G0 X55.890 Y125.943
G0 X55.590 Y126.153
G1 F1200 X55.590 Y98.848 E144.21740
G1 X174.410 Y98.847 E158.47580
G1 X174.410 Y126.152 E161.75240
G1 X55.590 Y126.153 E176.01080
G0 F9000 X56.315 Y125.611
;TYPE:SKIN
G1 F900 X56.129 Y125.425 E176.04237
G0 F9000 X56.129 Y124.860
G1 F900 X56.881 Y125.611 E176.16990
G0 F9000 X57.446 Y125.611
G1 F900 X56.129 Y124.294 E176.39341
G0 F9000 X56.129 Y123.728
G1 F900 X58.012 Y125.611 E176.71296
G0 F9000 X58.578 Y125.611
G1 F900 X56.129 Y123.163 E177.12849
G0 F9000 X56.129 Y122.597
G1 F900 X59.143 Y125.611 E177.63998
G0 F9000 X59.709 Y125.611
G1 F900 X56.129 Y122.031 E178.24752
G0 F9000 X56.129 Y121.466
G1 F900 X60.275 Y125.611 E178.95104
G0 F9000 X60.840 Y125.611
G1 F900 X56.129 Y120.900 E179.75052
G0 F9000 X56.129 Y120.334
G1 F900 X61.406 Y125.611 E180.64606
G0 F9000 X61.972 Y125.611
G1 F900 X61.392 Y125.032 E180.74440
G0 F9000 X62.154 Y125.228
G1 F900 X62.623 Y125.414 E180.80934
G1 X63.149 Y125.374 E180.87612
G1 X63.669 Y125.611 E180.94470
G0 F9000 X64.234 Y125.611
G1 F900 X63.571 Y124.947 E181.05730
G0 F9000 X63.937 Y124.748
G1 F900 X64.800 Y125.611 E181.20375
G0 F9000 X65.366 Y125.611
G1 F900 X64.220 Y124.465 E181.39824
G0 F9000 X64.493 Y124.173
G1 F900 X65.932 Y125.611 E181.64236
G0 F9000 X66.497 Y125.611
G1 F900 X64.684 Y123.798 E181.95003
G0 F9000 X64.855 Y123.404
G1 F900 X67.063 Y125.611 E182.32466
G0 F9000 X67.629 Y125.611
G1 F900 X64.934 Y122.917 E182.78193
G0 F9000 X64.909 Y122.326
G1 F900 X68.194 Y125.611 E183.33941
G0 F9000 X68.760 Y125.611
G1 F900 X64.620 Y121.471 E184.04199
G0 F9000 X65.055 Y121.340
G1 F900 X69.326 Y125.611 E184.76681
G0 F9000 X69.891 Y125.611
G1 F900 X65.620 Y121.340 E185.49162
G0 F9000 X66.186 Y121.340
G1 F900 X70.457 Y125.611 E186.21643
G0 F9000 X71.023 Y125.611
G1 F900 X66.752 Y121.340 E186.94125
G0 F9000 X67.317 Y121.340
G1 F900 X71.588 Y125.611 E187.66606
G0 F9000 X72.154 Y125.611
G1 F900 X67.883 Y121.340 E188.39087
G0 F9000 X68.449 Y121.340
G1 F900 X72.720 Y125.611 E189.11568
G0 F9000 X73.285 Y125.611
G1 F900 X69.015 Y121.340 E189.84041
G0 F9000 X69.580 Y121.340
G1 F900 X73.851 Y125.611 E190.56522
G0 F9000 X74.417 Y125.611
G1 F900 X70.146 Y121.340 E191.29004
G0 F9000 X70.712 Y121.341
G1 F900 X74.983 Y125.611 E192.01476
G0 F9000 X75.548 Y125.611
G1 F900 X71.278 Y121.341 E192.73941
G0 F9000 X71.844 Y121.341
G1 F900 X76.114 Y125.611 E193.46405
G0 F9000 X76.680 Y125.611
G1 F900 X72.409 Y121.341 E194.18878
G0 F9000 X72.975 Y121.341
G1 F900 X77.245 Y125.611 E194.91342
G0 F9000 X77.811 Y125.611
G1 F900 X73.541 Y121.341 E195.63806
G0 F9000 X74.106 Y121.341
G1 F900 X78.377 Y125.611 E196.36279
G0 F9000 X78.942 Y125.611
G1 F900 X74.672 Y121.341 E197.08744
G0 F9000 X75.238 Y121.341
G1 F900 X79.508 Y125.611 E197.81208
G0 F9000 X80.074 Y125.611
G1 F900 X75.803 Y121.341 E198.53681
G0 F9000 X76.369 Y121.341
G1 F900 X80.639 Y125.611 E199.26145
G0 F9000 X81.205 Y125.611
G1 F900 X76.936 Y121.342 E199.98592
G0 F9000 X77.501 Y121.342
G1 F900 X81.771 Y125.611 E200.71048
G0 F9000 X82.336 Y125.611
G1 F900 X78.067 Y121.342 E201.43495
G0 F9000 X78.633 Y121.342
G1 F900 X82.902 Y125.611 E202.15943
G0 F9000 X83.468 Y125.611
G1 F900 X79.198 Y121.342 E202.88399
G0 F9000 X79.764 Y121.342
G1 F900 X84.033 Y125.611 E203.60846
G0 F9000 X84.599 Y125.611
G1 F900 X80.330 Y121.342 E204.33293
G0 F9000 X80.895 Y121.342
G1 F900 X85.165 Y125.611 E205.05749
G0 F9000 X85.731 Y125.611
G1 F900 X81.461 Y121.342 E205.78205
G0 F9000 X82.027 Y121.342
G1 F900 X86.296 Y125.611 E206.50652
G0 F9000 X86.862 Y125.611
G1 F900 X82.593 Y121.343 E207.23091
G0 F9000 X83.159 Y121.343
G1 F900 X87.428 Y125.611 E207.95530
G0 F9000 X87.993 Y125.611
G1 F900 X83.724 Y121.343 E208.67969
G0 F9000 X84.290 Y121.343
G1 F900 X88.559 Y125.611 E209.40408
G0 F9000 X89.125 Y125.611
G1 F900 X84.856 Y121.343 E210.12846
G0 F9000 X85.422 Y121.343
G1 F900 X89.690 Y125.611 E210.85277
G0 F9000 X90.256 Y125.611
G1 F900 X85.987 Y121.343 E211.57716
G0 F9000 X86.553 Y121.343
G1 F900 X90.822 Y125.611 E212.30155
G0 F9000 X91.387 Y125.611
G1 F900 X87.119 Y121.343 E213.02585
G0 F9000 X87.684 Y121.343
G1 F900 X91.953 Y125.611 E213.75024
G0 F9000 X92.519 Y125.611
G1 F900 X88.250 Y121.343 E214.47463
G0 F9000 X88.816 Y121.343
G1 F900 X93.084 Y125.611 E215.19893
G0 F9000 X93.650 Y125.611
G1 F900 X89.382 Y121.343 E215.92323
G0 F9000 X89.948 Y121.343
G1 F900 X94.216 Y125.611 E216.64754
G0 F9000 X94.782 Y125.611
G1 F900 X90.513 Y121.343 E217.37193
G0 F9000 X91.079 Y121.343
G1 F900 X95.347 Y125.611 E218.09623
G0 F9000 X95.913 Y125.611
G1 F900 X91.645 Y121.343 E218.82053
G0 F9000 X92.210 Y121.343
G1 F900 X96.479 Y125.611 E219.54492
G0 F9000 X97.044 Y125.611
G1 F900 X92.776 Y121.343 E220.26922
G0 F9000 X93.342 Y121.343
G1 F900 X97.610 Y125.611 E220.99353
G0 F9000 X98.176 Y125.611
G1 F900 X93.908 Y121.343 E221.71783
G0 F9000 X94.474 Y121.344
G1 F900 X98.741 Y125.611 E222.44197
G0 F9000 X99.307 Y125.611
G1 F900 X95.040 Y121.344 E223.16610
G0 F9000 X95.605 Y121.344
G1 F900 X99.873 Y125.611 E223.89032
G0 F9000 X100.438 Y125.611
G1 F900 X96.171 Y121.344 E224.61445
G0 F9000 X96.737 Y121.344
G1 F900 X101.004 Y125.611 E225.33859
G0 F9000 X101.570 Y125.611
G1 F900 X97.302 Y121.344 E226.06280
G0 F9000 X97.868 Y121.344
G1 F900 X102.135 Y125.611 E226.78694
G0 F9000 X102.701 Y125.611
G1 F900 X98.434 Y121.344 E227.51107
G0 F9000 X98.999 Y121.344
G1 F900 X103.267 Y125.611 E228.23529
G0 F9000 X103.832 Y125.611
G1 F900 X99.565 Y121.344 E228.95943
G0 F9000 X100.131 Y121.344
G1 F900 X104.398 Y125.611 E229.68356
G0 F9000 X104.964 Y125.611
G1 F900 X100.697 Y121.345 E230.40761
G0 F9000 X101.263 Y121.345
G1 F900 X105.530 Y125.611 E231.13166
G0 F9000 X106.095 Y125.611
G1 F900 X101.829 Y121.345 E231.85562
G0 F9000 X102.394 Y121.345
G1 F900 X106.661 Y125.611 E232.57967
G0 F9000 X107.227 Y125.611
G1 F900 X102.960 Y121.345 E233.30372
G0 F9000 X103.526 Y121.345
G1 F900 X107.792 Y125.611 E234.02768
G0 F9000 X108.358 Y125.611
G1 F900 X104.091 Y121.345 E234.75173
G0 F9000 X104.657 Y121.345
G1 F900 X108.924 Y125.611 E235.47578
G0 F9000 X109.489 Y125.611
G1 F900 X105.223 Y121.345 E236.19975
G0 F9000 X105.788 Y121.345
G1 F900 X110.055 Y125.611 E236.92380
G0 F9000 X110.621 Y125.611
G1 F900 X106.355 Y121.345 E237.64776
G0 F9000 X106.920 Y121.345
G1 F900 X111.186 Y125.611 E238.37172
G0 F9000 X111.752 Y125.611
G1 F900 X107.486 Y121.345 E239.09569
G0 F9000 X108.052 Y121.345
G1 F900 X112.318 Y125.611 E239.81965
G0 F9000 X112.883 Y125.611
G1 F900 X108.617 Y121.345 E240.54362
G0 F9000 X109.183 Y121.345
G1 F900 X113.449 Y125.611 E241.26758
G0 F9000 X114.015 Y125.611
G1 F900 X109.749 Y121.345 E241.99154
G0 F9000 X110.315 Y121.345
G1 F900 X114.580 Y125.611 E242.71542
G0 F9000 X115.146 Y125.611
G1 F900 X110.880 Y121.345 E243.43939
G0 F9000 X111.446 Y121.345
G1 F900 X115.712 Y125.611 E244.16335
G0 F9000 X116.278 Y125.611
G1 F900 X112.012 Y121.345 E244.88732
G0 F9000 X112.578 Y121.346
G1 F900 X116.843 Y125.611 E245.61111
G0 F9000 X117.409 Y125.611
G1 F900 X113.144 Y121.346 E246.33491
G0 F9000 X113.709 Y121.346
G1 F900 X117.975 Y125.611 E247.05879
G0 F9000 X118.540 Y125.611
G1 F900 X114.275 Y121.346 E247.78258
G0 F9000 X114.841 Y121.346
G1 F900 X119.106 Y125.611 E248.50637
G0 F9000 X119.672 Y125.611
G1 F900 X115.406 Y121.346 E249.23025
G0 F9000 X115.972 Y121.346
G1 F900 X120.237 Y125.611 E249.95405
G0 F9000 X120.803 Y125.611
G1 F900 X116.538 Y121.346 E250.67784
G0 F9000 X117.103 Y121.346
G1 F900 X121.369 Y125.611 E251.40172
G0 F9000 X121.934 Y125.611
G1 F900 X117.669 Y121.346 E252.12552
G0 F9000 X118.236 Y121.347
G1 F900 X122.500 Y125.611 E252.84914
G0 F9000 X123.066 Y125.611
G1 F900 X118.801 Y121.347 E253.57285
G0 F9000 X119.367 Y121.347
G1 F900 X123.631 Y125.611 E254.29648
G0 F9000 X124.197 Y125.611
G1 F900 X119.933 Y121.347 E255.02010
G0 F9000 X120.498 Y121.347
G1 F900 X124.763 Y125.611 E255.74381
G0 F9000 X125.329 Y125.611
G1 F900 X121.064 Y121.347 E256.46752
G0 F9000 X121.630 Y121.347
G1 F900 X125.894 Y125.611 E257.19114
G0 F9000 X126.460 Y125.611
G1 F900 X122.195 Y121.347 E257.91485
G0 F9000 X122.761 Y121.347
G1 F900 X127.026 Y125.611 E258.63856
G0 F9000 X127.591 Y125.611
G1 F900 X123.327 Y121.347 E259.36219
G0 F9000 X123.892 Y121.347
G1 F900 X128.157 Y125.611 E260.08590
G0 F9000 X128.723 Y125.611
G1 F900 X124.459 Y121.348 E260.80944
G0 F9000 X125.024 Y121.348
G1 F900 X129.288 Y125.611 E261.53298
G0 F9000 X129.854 Y125.611
G1 F900 X125.590 Y121.348 E262.25652
G0 F9000 X126.156 Y121.348
G1 F900 X130.420 Y125.611 E262.98006
G0 F9000 X130.985 Y125.611
G1 F900 X126.722 Y121.348 E263.70351
G0 F9000 X127.287 Y121.348
G1 F900 X131.551 Y125.611 E264.42705
G0 F9000 X132.117 Y125.611
