;FLAVOR:UltiGCode
;TIME:4799
;MATERIAL:11413
;MATERIAL2:0

;Layer count: 102
;LAYER:0
M107
G0 F9000 X18.193 Y43.415 Z0.300
;TYPE:SKIRT
G1 F1800 X46.529 Y15.079 E6.01097
G1 X50.462 Y18.981 E6.84201
G1 X51.900 Y20.420 E7.14716
G1 X207.992 Y176.509 E40.25895
G1 X212.602 Y181.124 E41.23741
G1 X184.263 Y209.463 E47.24902
G1 X179.331 Y204.558 E48.29240
G1 X177.014 Y202.238 E48.78423
G1 X21.924 Y47.149 E81.68368
G1 X18.193 Y43.415 E82.47546
G10
G0 F9000 X23.848 Y43.416
;TYPE:WALL-INNER
G11
G1 F1800 X46.540 Y20.724 E87.28916
G1 X47.637 Y21.813 E87.52102
G1 X206.947 Y181.123 E121.31578
G1 X184.256 Y203.814 E126.12927
G1 X182.156 Y201.725 E126.57358
G1 X23.848 Y43.416 E160.15588
G0 F9000 X54.933 Y60.219
G1 F1800 X54.437 Y61.178 E160.31783
G1 X54.054 Y61.907 E160.44136
G1 X53.827 Y62.449 E160.52950
G1 X53.778 Y62.706 E160.56874
G1 X53.801 Y63.017 E160.61552
G1 X53.914 Y63.299 E160.66109
G1 X54.051 Y63.481 E160.69526
G1 X54.808 Y64.241 E160.85616
G1 X56.547 Y65.981 E161.22517
G1 X56.214 Y65.980 E161.27512
G1 X56.054 Y65.984 E161.29912
G1 X55.568 Y66.142 E161.37578
G1 X55.150 Y66.448 E161.45348
G1 X54.845 Y66.867 E161.53122
G1 X54.684 Y67.358 E161.60873
G1 X54.683 Y67.728 E161.66423
G1 X54.687 Y67.888 E161.68824
G1 X54.844 Y68.371 E161.76442
G1 X55.147 Y68.790 E161.84198
G1 X55.568 Y69.099 E161.92032
G1 X56.064 Y69.258 E161.99844
G1 X56.431 Y69.259 E162.05350
G1 X56.591 Y69.255 E162.07750
G1 X57.075 Y69.097 E162.15387
G1 X57.495 Y68.792 E162.23173
G1 X57.800 Y68.372 E162.30959
G1 X57.961 Y67.881 E162.38710
G1 X57.962 Y67.627 E162.42520
G1 X130.693 Y140.358 E177.85378
G1 X130.440 Y140.357 E177.89173
G1 X129.940 Y140.519 E177.97056
G1 X129.527 Y140.822 E178.04740
G1 X129.220 Y141.243 E178.12556
G1 X129.057 Y141.746 E178.20487
G1 X129.061 Y141.915 E178.23023
G1 X129.060 Y142.255 E178.28123
G1 X129.221 Y142.753 E178.35973
G1 X129.528 Y143.169 E178.43728
G1 X129.945 Y143.476 E178.51496
G1 X130.449 Y143.639 E178.59441
G1 X130.615 Y143.635 E178.61932
G1 X130.957 Y143.636 E178.67062
G1 X131.454 Y143.477 E178.74889
G1 X131.873 Y143.170 E178.82681
G1 X132.179 Y142.751 E178.90463
G1 X132.342 Y142.248 E178.98395
G1 X132.338 Y142.079 E179.00930
G1 X132.339 Y141.766 E179.05625
G1 X161.713 Y171.141 E185.28753
G1 X161.908 Y171.284 E185.32380
G1 X162.184 Y171.390 E185.36815
G1 X162.487 Y171.414 E185.41374
G1 X162.765 Y171.355 E185.45637
G1 X163.770 Y170.876 E185.62336
G1 X164.466 Y170.534 E185.73969
G1 X164.830 Y170.343 E185.80135
G1 X165.292 Y170.028 E185.88522
G1 X166.940 Y168.845 E186.18952
G1 X167.365 Y168.489 E186.27268
G1 X168.085 Y167.830 E186.41909
G1 X169.337 Y166.665 E186.67562
G1 X169.792 Y166.209 E186.77224
G1 X170.956 Y164.955 E187.02889
G1 X171.634 Y164.218 E187.17910
G1 X171.989 Y163.794 E187.26205
G1 X172.325 Y163.332 E187.34774
G1 X173.065 Y162.311 E187.53688
G1 X173.382 Y161.845 E187.62142
G1 X174.001 Y160.663 E187.82156
G1 X174.263 Y160.152 E187.90770
G1 X174.486 Y159.623 E187.99382
G1 X174.527 Y159.437 E188.02238
G1 X174.538 Y159.314 E188.04091
G1 X174.515 Y159.039 E188.08230
G1 X174.403 Y158.765 E188.12670
G1 X174.269 Y158.584 E188.16048
G1 X144.898 Y129.210 E194.39133
G1 X145.233 Y129.211 E194.44158
G1 X145.392 Y129.207 E194.46544
G1 X145.875 Y129.052 E194.54153
G1 X146.300 Y128.746 E194.62008
G1 X146.602 Y128.324 E194.69792
G1 X146.767 Y127.824 E194.77690
G1 X146.763 Y127.654 E194.80241
G1 X146.764 Y127.314 E194.85341
G1 X146.603 Y126.817 E194.93177
G1 X146.298 Y126.400 E195.00927
G1 X145.879 Y126.092 E195.08727
G1 X145.383 Y125.933 E195.16540
G1 X145.017 Y125.932 E195.22030
G1 X144.857 Y125.936 E195.24431
G1 X144.374 Y126.093 E195.32049
G1 X143.951 Y126.398 E195.39871
G1 X143.647 Y126.819 E195.47661
G1 X143.482 Y127.320 E195.55573
G1 X143.486 Y127.565 E195.59248
G1 X70.755 Y54.834 E211.02106
G1 X71.016 Y54.830 E211.06021
G1 X71.500 Y54.672 E211.13658
G1 X71.920 Y54.367 E211.21444
G1 X72.225 Y53.947 E211.29230
G1 X72.386 Y53.456 E211.36981
G1 X72.387 Y53.086 E211.42531
G1 X72.383 Y52.926 E211.44932
G1 X72.225 Y52.440 E211.52597
G1 X71.920 Y52.023 E211.60347
G1 X71.502 Y51.715 E211.68135
G1 X71.007 Y51.556 E211.75934
G1 X70.639 Y51.555 E211.81454
G1 X70.479 Y51.559 E211.83855
G1 X69.993 Y51.717 E211.91520
G1 X69.575 Y52.023 E211.99291
G1 X69.270 Y52.442 E212.07064
G1 X69.109 Y52.933 E212.14815
G1 X69.108 Y53.303 E212.20365
G1 X69.111 Y53.428 E212.22241
G1 X66.614 Y50.931 E212.75210
G1 X66.403 Y50.773 E212.79164
G1 X66.141 Y50.677 E212.83350
G1 X65.930 Y50.652 E212.86537
G1 X65.911 Y50.654 E212.86823
G1 X65.837 Y50.647 E212.87938
G1 X65.555 Y50.704 E212.92254
G1 X64.550 Y51.184 E213.08960
G1 X63.638 Y51.642 E213.24268
G1 X63.497 Y51.713 E213.26636
G1 X63.031 Y52.030 E213.35090
G1 X61.382 Y53.212 E213.65523
G1 X60.959 Y53.565 E213.73787
G1 X60.256 Y54.209 E213.88088
G1 X59.880 Y54.568 E213.95886
G1 X58.741 Y55.613 E214.19072
G1 X57.705 Y56.743 E214.42068
G1 X57.342 Y57.126 E214.49983
G1 X56.676 Y57.852 E214.64761
G1 X56.325 Y58.273 E214.72983
G1 X55.978 Y58.749 E214.81819
G1 X55.248 Y59.756 E215.00476
G1 X54.933 Y60.219 E215.08876
G0 F9000 X55.658 Y60.043
;TYPE:WALL-OUTER
G1 F1800 X55.363 Y60.476 E215.16735
G1 X54.880 Y61.411 E215.32520
G1 X54.507 Y62.120 E215.44537
G1 X54.308 Y62.594 E215.52249
G1 X54.281 Y62.735 E215.54402
G1 X54.294 Y62.902 E215.56915
G1 X54.353 Y63.051 E215.59318
G1 X54.430 Y63.152 E215.61223
G1 X57.622 Y66.349 E216.28989
G1 X57.638 Y66.360 E216.29280
G1 X57.824 Y66.587 E216.33682
G1 X57.925 Y66.741 E216.36445
G1 X58.035 Y66.992 E216.40556
G1 X131.327 Y140.284 E231.95314
G1 X131.578 Y140.394 E231.99424
G1 X131.656 Y140.441 E232.00790
G1 X131.996 Y140.717 E232.07359
G1 X162.040 Y170.760 E238.44678
G1 X162.150 Y170.841 E238.46727
G1 X162.296 Y170.897 E238.49073
G1 X162.454 Y170.910 E238.51451
G1 X162.603 Y170.878 E238.53737
G1 X163.552 Y170.426 E238.69504
G1 X164.239 Y170.088 E238.80989
G1 X164.572 Y169.914 E238.86624
G1 X165.005 Y169.618 E238.94492
G1 X166.633 Y168.450 E239.24547
G1 X167.036 Y168.113 E239.32427
G1 X167.746 Y167.463 E239.46866
G1 X168.990 Y166.305 E239.72359
G1 X169.432 Y165.862 E239.81746
G1 X170.589 Y164.616 E240.07251
G1 X171.258 Y163.888 E240.22082
G1 X171.594 Y163.486 E240.29941
G1 X172.655 Y162.024 E240.57037
G1 X172.952 Y161.588 E240.64950
G1 X173.557 Y160.432 E240.84521
G1 X173.810 Y159.941 E240.92807
G1 X174.007 Y159.471 E241.00451
G1 X174.036 Y159.312 E241.02875
G1 X174.023 Y159.157 E241.05208
G1 X173.964 Y159.012 E241.07556
G1 X173.889 Y158.911 E241.09443
G1 X143.827 Y128.845 E247.47197
G1 X143.811 Y128.833 E247.47497
G1 X143.623 Y128.604 E247.51942
G1 X143.522 Y128.450 E247.54704
G1 X143.412 Y128.199 E247.58815
G1 X70.120 Y54.907 E263.13573
G1 X69.869 Y54.797 E263.17683
G1 X69.791 Y54.750 E263.19049
G1 X69.451 Y54.474 E263.25618
G1 X66.281 Y51.305 E263.92854
G1 X66.166 Y51.218 E263.95017
G1 X66.024 Y51.166 E263.97285
G1 X65.925 Y51.155 E263.98779
G1 X65.912 Y51.156 E263.98975
G1 X65.865 Y51.152 E263.99682
G1 X65.715 Y51.182 E264.01977
G1 X64.770 Y51.633 E264.17683
G1 X63.751 Y52.145 E264.34789
G1 X63.317 Y52.440 E264.42661
G1 X61.689 Y53.607 E264.72707
G1 X61.288 Y53.942 E264.80545
G1 X60.597 Y54.574 E264.94591
G1 X60.214 Y54.940 E265.02537
G1 X59.095 Y55.967 E265.25320
G1 X58.068 Y57.087 E265.48114
G1 X57.708 Y57.467 E265.55966
G1 X57.053 Y58.181 E265.70499
G1 X56.720 Y58.581 E265.78307
G1 X55.658 Y60.043 E266.05412
G0 F9000 X55.366 Y59.851
G0 X53.830 Y62.710
G0 X54.089 Y63.447
G0 X56.227 Y66.131
G0 X56.219 Y66.480
G1 F1800 X56.139 Y66.482 E266.06612
G1 X55.799 Y66.593 E266.11977
G1 X55.508 Y66.805 E266.17377
G1 X55.296 Y67.097 E266.22790
G1 X55.184 Y67.439 E266.28188
G1 X55.183 Y67.723 E266.32448
G1 X55.185 Y67.803 E266.33649
G1 X55.295 Y68.142 E266.38995
G1 X55.506 Y68.433 E266.44386
G1 X55.798 Y68.648 E266.49826
G1 X56.143 Y68.758 E266.55257
G1 X56.426 Y68.759 E266.59502
G1 X56.506 Y68.757 E266.60703
G1 X56.845 Y68.646 E266.66053
G1 X57.137 Y68.434 E266.71466
G1 X57.349 Y68.142 E266.76879
G1 X57.461 Y67.800 E266.82277
G1 X57.462 Y67.516 E266.86537
G1 X57.460 Y67.436 E266.87737
G1 X57.349 Y67.096 E266.93102
G1 X57.137 Y66.805 E266.98502
G1 X56.845 Y66.593 E267.03915
G1 X56.503 Y66.481 E267.09313
G1 X56.219 Y66.480 E267.13573
G10
G0 F9000 X69.932 Y54.009
G11
G1 F1800 X70.224 Y54.222 E267.18995
G1 X70.567 Y54.333 E267.24402
G1 X70.851 Y54.334 E267.28662
G1 X70.931 Y54.332 E267.29863
G1 X71.270 Y54.221 E267.35213
G1 X71.562 Y54.009 E267.40626
G1 X71.774 Y53.717 E267.46039
G1 X71.886 Y53.375 E267.51437
G1 X71.887 Y53.091 E267.55697
G1 X71.885 Y53.011 E267.56897
G1 X71.774 Y52.671 E267.62262
G1 X71.562 Y52.380 E267.67663
G1 X71.271 Y52.166 E267.73081
G1 X70.928 Y52.056 E267.78484
G1 X70.644 Y52.055 E267.82744
G1 X70.564 Y52.057 E267.83944
G1 X70.224 Y52.168 E267.89309
G1 X69.933 Y52.380 E267.94710
G1 X69.721 Y52.672 E268.00122
G1 X69.609 Y53.014 E268.05521
G1 X69.608 Y53.298 E268.09781
G1 X69.610 Y53.378 E268.10981
G1 X69.720 Y53.717 E268.16327
G1 X69.932 Y54.009 E268.21740
G0 F9000 X69.725 Y54.290
G0 X47.751 Y21.713
G0 X47.991 Y21.460
G1 F1800 X207.653 Y181.123 E302.08693
G1 X184.256 Y204.520 E307.05018
G1 X23.142 Y43.416 E341.22656
G1 X46.539 Y20.019 E346.18981
G1 X47.991 Y21.460 E346.49666
G10
G0 F9000 X130.174 Y140.969
G11
G1 F1800 X129.884 Y141.181 E346.55055
G1 X129.671 Y141.473 E346.60476
G1 X129.559 Y141.819 E346.65931
G1 X129.561 Y141.895 E346.67072
G1 X129.560 Y142.177 E346.71302
G1 X129.672 Y142.522 E346.76743
G1 X129.885 Y142.812 E346.82140
G1 X130.176 Y143.025 E346.87549
G1 X130.522 Y143.137 E346.93005
G1 X130.603 Y143.135 E346.94220
G1 X130.880 Y143.136 E346.98375
G1 X131.224 Y143.026 E347.03792
G1 X131.515 Y142.813 E347.09202
G1 X131.728 Y142.521 E347.14623
G1 X131.840 Y142.175 E347.20078
G1 X131.838 Y142.099 E347.21219
G1 X131.839 Y141.817 E347.25449
G1 X131.728 Y141.473 E347.30871
G1 X131.516 Y141.181 E347.36283
G1 X131.224 Y140.968 E347.41705
G1 X130.878 Y140.856 E347.47160
G1 X130.796 Y140.858 E347.48390
G1 X130.519 Y140.857 E347.52545
G1 X130.174 Y140.969 E347.57986
G10
G0 F9000 X144.309 Y128.388
G11
G1 F1800 X144.603 Y128.600 E347.63423
G1 X144.944 Y128.710 E347.68798
G1 X145.228 Y128.711 E347.73058
G1 X145.307 Y128.709 E347.74243
G1 X145.647 Y128.600 E347.79599
G1 X145.941 Y128.388 E347.85036
G1 X146.151 Y128.095 E347.90443
G1 X146.265 Y127.750 E347.95893
G1 X146.263 Y127.674 E347.97034
G1 X146.264 Y127.392 E348.01264
G1 X146.152 Y127.048 E348.06690
G1 X145.940 Y126.757 E348.12091
G1 X145.649 Y126.543 E348.17509
G1 X145.304 Y126.433 E348.22941
G1 X145.022 Y126.432 E348.27171
G1 X144.942 Y126.434 E348.28371
G1 X144.603 Y126.544 E348.33717
G1 X144.309 Y126.756 E348.39154
G1 X144.098 Y127.049 E348.44570
G1 X143.984 Y127.394 E348.50020
G1 X143.986 Y127.470 E348.51161
G1 X143.985 Y127.752 E348.55391
G1 X144.097 Y128.098 E348.60846
G1 X144.309 Y128.388 E348.66234
G0 F9000 X144.024 Y128.591
G0 X143.985 Y128.473
G0 X143.538 Y127.821
G0 X143.456 Y126.839
;TYPE:SKIN
G1 F1800 X71.479 Y54.862 E363.93097
G0 F9000 X71.912 Y54.588
G1 F1800 X143.730 Y126.405 E379.16576
G0 F9000 X144.103 Y126.072
G1 F1800 X72.245 Y54.213 E394.40925
G0 F9000 X72.476 Y53.737
G1 F1800 X144.579 Y125.840 E409.70461
G0 F9000 X145.202 Y125.756
G1 F1800 X72.560 Y53.115 E425.11420
G0 F9000 X70.825 Y51.379
G1 F1800 X43.478 Y24.033 E430.91527
G0 F9000 X43.125 Y24.386
G1 F1800 X70.202 Y51.464 E436.65927
G0 F9000 X69.726 Y51.695
G1 F1800 X42.771 Y24.740 E442.37729
G0 F9000 X42.417 Y25.093
G1 F1800 X69.353 Y52.029 E448.09128
G0 F9000 X69.079 Y52.462
G1 F1800 X42.064 Y25.447 E453.82203
G0 F9000 X41.710 Y25.800
G1 F1800 X66.649 Y50.739 E459.11239
G0 F9000 X65.699 Y50.496
G1 F1800 X41.357 Y26.154 E464.27610
G0 F9000 X41.003 Y26.508
G1 F1800 X65.182 Y50.686 E469.40514
G0 F9000 X64.703 Y50.915
G1 F1800 X40.650 Y26.861 E474.50766
G0 F9000 X40.296 Y27.215
G1 F1800 X64.229 Y51.147 E479.58451
G0 F9000 X63.759 Y51.384
G1 F1800 X39.943 Y27.568 E484.63664
G0 F9000 X39.589 Y27.922
G1 F1800 X63.300 Y51.633 E489.66651
G0 F9000 X62.881 Y51.921
G1 F1800 X39.235 Y28.275 E494.68258
G0 F9000 X38.882 Y28.629
G1 F1800 X62.469 Y52.216 E499.68614
G0 F9000 X62.057 Y52.511
G1 F1800 X38.528 Y28.982 E504.67739
G0 F9000 X38.175 Y29.336
G1 F1800 X61.645 Y52.806 E509.65613
G0 F9000 X61.236 Y53.104
G1 F1800 X37.821 Y29.689 E514.62320
G0 F9000 X37.468 Y30.043
G1 F1800 X60.851 Y53.426 E519.58349
G0 F9000 X60.481 Y53.764
G1 F1800 X37.114 Y30.397 E524.54038
G0 F9000 X36.761 Y30.750
G1 F1800 X60.112 Y54.102 E529.49398
G0 F9000 X59.750 Y54.447
G1 F1800 X36.407 Y31.104 E534.44578
G0 F9000 X36.053 Y31.457
G1 F1800 X59.382 Y54.785 E539.39450
G0 F9000 X59.013 Y55.124
G1 F1800 X35.700 Y31.811 E544.33993
G0 F9000 X35.346 Y32.164
G1 F1800 X58.644 Y55.462 E549.28218
G0 F9000 X58.305 Y55.830
G1 F1800 X34.993 Y32.518 E554.22741
G0 F9000 X34.639 Y32.871
G1 F1800 X57.966 Y56.198 E559.17581
G0 F9000 X57.628 Y56.567
G1 F1800 X34.286 Y33.225 E564.12740
G0 F9000 X33.932 Y33.579
G1 F1800 X57.285 Y56.931 E569.08121
G0 F9000 X56.945 Y57.298
G1 F1800 X33.579 Y33.932 E574.03789
G0 F9000 X33.225 Y34.286
G1 F1800 X56.607 Y57.668 E578.99796
G0 F9000 X56.282 Y58.050
G1 F1800 X32.871 Y34.639 E583.96418
G0 F9000 X32.518 Y34.993
G1 F1800 X55.978 Y58.452 E588.94069
G0 F9000 X55.681 Y58.863
G1 F1800 X32.164 Y35.346 E593.92940
G0 F9000 X31.811 Y35.700
G1 F1800 X55.383 Y59.272 E598.92978
G0 F9000 X55.087 Y59.683
G1 F1800 X31.457 Y36.053 E603.94246
G0 F9000 X31.104 Y36.407
G1 F1800 X54.800 Y60.103 E608.96914
G0 F9000 X54.555 Y60.565
G1 F1800 X30.750 Y36.761 E614.01883
G0 F9000 X30.397 Y37.114
G1 F1800 X54.313 Y61.031 E619.09229
G0 F9000 X54.071 Y61.495
G1 F1800 X30.043 Y37.468 E624.18929
G0 F9000 X29.689 Y37.821
G1 F1800 X53.838 Y61.970 E629.31207
G0 F9000 X53.642 Y62.481
G1 F1800 X29.336 Y38.175 E634.46815
G0 F9000 X28.982 Y38.528
G1 F1800 X53.709 Y63.254 E639.71343
G0 F9000 X55.219 Y66.179
G1 F1800 X28.275 Y39.235 E645.42912
G0 F9000 X27.922 Y39.589
G1 F1800 X54.869 Y66.536 E651.14544
G0 F9000 X54.619 Y66.993
G1 F1800 X27.568 Y39.943 E656.88372
G0 F9000 X28.629 Y38.882
G1 F1800 X55.670 Y65.923 E662.61998
G0 F9000 X54.508 Y67.590
G1 F1800 X27.215 Y40.296 E668.40981
G0 F9000 X26.861 Y40.650
G1 F1800 X54.749 Y68.537 E674.32564
G0 F9000 X55.413 Y69.201
G1 F1800 X129.110 Y142.899 E689.95924
G0 F9000 X128.885 Y141.967
G1 F1800 X56.351 Y69.432 E705.34613
G0 F9000 X56.947 Y69.321
G1 F1800 X128.994 Y141.369 E720.62971
G0 F9000 X129.244 Y140.912
G1 F1800 X57.405 Y69.073 E735.86907
G0 F9000 X57.761 Y68.721
G1 F1800 X129.594 Y140.554 E751.10715
G0 F9000 X130.046 Y140.299
G1 F1800 X58.017 Y68.270 E766.38680
G10
G0 F9000 X26.508 Y41.003
G11
G1 F1800 X186.662 Y201.158 E800.36070
G0 F9000 X186.309 Y201.511
G1 F1800 X26.154 Y41.357 E834.33460
G0 F9000 X25.800 Y41.710
G1 F1800 X185.955 Y201.865 E868.30861
G0 F9000 X185.602 Y202.219
G1 F1800 X25.447 Y42.064 E902.28262
G0 F9000 X25.093 Y42.417
G1 F1800 X185.248 Y202.572 E936.25662
G0 F9000 X184.894 Y202.926
G1 F1800 X24.740 Y42.771 E970.23052
G0 F9000 X24.386 Y43.125
G1 F1800 X184.541 Y203.279 E1004.20442
G0 F9000 X187.016 Y200.804
G1 F1800 X129.789 Y143.578 E1016.34400
G0 F9000 X130.728 Y143.809
G1 F1800 X187.369 Y200.451 E1028.35947
G0 F9000 X187.723 Y200.097
G1 F1800 X131.326 Y143.701 E1040.32298
G0 F9000 X131.784 Y143.452
G1 F1800 X188.076 Y199.744 E1052.26431
G0 F9000 X188.430 Y199.390
G1 F1800 X132.139 Y143.100 E1064.20533
G0 F9000 X132.395 Y142.648
G1 F1800 X188.784 Y199.037 E1076.16725
G0 F9000 X189.137 Y198.683
G1 F1800 X161.935 Y171.481 E1081.93766
G0 F9000 X162.706 Y171.545
G1 F1800 X189.491 Y198.330 E1087.61962
G0 F9000 X189.844 Y197.976
G1 F1800 X163.204 Y171.336 E1093.27081
G0 F9000 X163.681 Y171.106
G1 F1800 X190.198 Y197.622 E1098.89581
G0 F9000 X190.551 Y197.269
G1 F1800 X164.158 Y170.875 E1104.49472
G0 F9000 X164.633 Y170.643
G1 F1800 X190.905 Y196.915 E1110.06785
G0 F9000 X191.258 Y196.562
G1 F1800 X165.080 Y170.383 E1115.62115
G0 F9000 X165.498 Y170.094
G1 F1800 X191.612 Y196.208 E1121.16077
G0 F9000 X191.966 Y195.855
G1 F1800 X165.909 Y169.798 E1126.68829
G0 F9000 X166.321 Y169.503
G1 F1800 X192.319 Y195.501 E1132.20330
G0 F9000 X192.673 Y195.148
G1 F1800 X166.732 Y169.207 E1137.70622
