;FLAVOR:UltiGCode
;TIME:2981
;MATERIAL:2967
;MATERIAL2:0

;Layer count: 123
;LAYER:0
M107
G0 F9000 X116.362 Y102.091 Z0.300
G0 X116.689 Y101.742
;TYPE:SKIRT
G1 F1200 X117.031 Y101.425 E0.05596
G1 X117.411 Y101.153 E0.11204
G1 X117.784 Y100.927 E0.16437
G1 X118.217 Y100.723 E0.22181
G1 X118.718 Y100.547 E0.28553
G1 X119.537 Y100.381 E0.38581
G1 X134.651 Y100.375 E2.19949
G1 X135.009 Y100.374 E2.24245
G1 X135.387 Y100.392 E2.28786
G1 X135.852 Y100.459 E2.34424
G1 X136.301 Y100.574 E2.39986
G1 X136.725 Y100.724 E2.45383
G1 X137.129 Y100.914 E2.50740
G1 X137.553 Y101.162 E2.56634
G1 X137.913 Y101.437 E2.62071
G1 X138.253 Y101.736 E2.67504
G1 X138.560 Y102.081 E2.73046
G1 X138.835 Y102.441 E2.78482
G1 X139.088 Y102.865 E2.84407
G1 X139.274 Y103.267 E2.89722
G1 X139.454 Y103.756 E2.95975
G1 X139.615 Y104.548 E3.05674
G1 X139.630 Y105.021 E3.11352
G1 X139.629 Y119.770 E4.88340
G1 X139.616 Y120.415 E4.96082
G1 X139.541 Y120.915 E5.02149
G1 X139.430 Y121.360 E5.07653
G1 X139.278 Y121.785 E5.13069
G1 X139.086 Y122.201 E5.18567
G1 X138.846 Y122.600 E5.24155
G1 X138.577 Y122.967 E5.29615
G1 X138.265 Y123.314 E5.35215
G1 X137.908 Y123.639 E5.41008
G1 X137.538 Y123.908 E5.46497
G1 X137.176 Y124.126 E5.51568
G1 X136.747 Y124.338 E5.57310
G1 X136.278 Y124.502 E5.63273
G1 X135.865 Y124.602 E5.68372
G1 X135.407 Y124.677 E5.73941
G1 X135.142 Y124.688 E5.77124
G1 X134.922 Y124.706 E5.79773
G1 X134.818 Y124.698 E5.81024
G1 X134.742 Y124.705 E5.81940
G1 X134.658 Y124.700 E5.82950
G1 X134.576 Y124.704 E5.83935
G1 X134.488 Y124.695 E5.84997
G1 X119.847 Y124.694 E7.60689
G1 X119.157 Y124.625 E7.69010
G1 X118.654 Y124.497 E7.75238
G1 X118.210 Y124.344 E7.80874
G1 X117.717 Y124.104 E7.87453
G1 X117.084 Y123.687 E7.96550
G1 X116.692 Y123.327 E8.02936
G1 X116.323 Y122.928 E8.09458
G1 X115.904 Y122.292 E8.18597
G1 X115.664 Y121.800 E8.25166
G1 X115.481 Y121.270 E8.31895
G1 X115.328 Y120.502 E8.41292
G1 X115.309 Y119.778 E8.49983
G1 X115.310 Y104.982 E10.27535
G1 X115.331 Y104.594 E10.32198
G1 X115.400 Y104.139 E10.37720
G1 X115.506 Y103.722 E10.42883
G1 X115.656 Y103.283 E10.48450
G1 X115.869 Y102.840 E10.54349
G1 X116.084 Y102.484 E10.59339
G1 X116.362 Y102.091 E10.65116
G1 X116.689 Y101.742 E10.70855
G0 F9000 X114.140 Y102.852
G1 F1200 X114.370 Y103.338 E10.77307
G1 X114.592 Y104.065 E10.86429
G1 X114.676 Y104.616 E10.93117
G1 X114.691 Y105.010 E10.97849
G1 X114.690 Y119.774 E12.75017
G1 X114.676 Y120.408 E12.82627
G1 X114.603 Y120.915 E12.88773
G1 X114.487 Y121.371 E12.94420
G1 X114.338 Y121.785 E12.99700
G1 X114.146 Y122.201 E13.05198
G1 X113.901 Y122.608 E13.10898
G1 X113.635 Y122.967 E13.16260
G1 X113.331 Y123.309 E13.21751
G1 X112.968 Y123.639 E13.27638
G1 X112.603 Y123.905 E13.33058
G1 X112.238 Y124.126 E13.38178
G1 X111.802 Y124.340 E13.44006
G1 X111.338 Y124.502 E13.49904
G1 X110.908 Y124.607 E13.55215
G1 X110.472 Y124.673 E13.60507
G1 X110.225 Y124.686 E13.63475
G1 X109.983 Y124.706 E13.66389
G1 X109.879 Y124.698 E13.67641
G1 X109.803 Y124.705 E13.68557
G1 X109.719 Y124.700 E13.69566
G1 X109.637 Y124.704 E13.70552
G1 X109.549 Y124.695 E13.71613
G1 X94.909 Y124.694 E15.47293
G1 X94.222 Y124.626 E15.55577
G1 X93.710 Y124.496 E15.61916
G1 X93.275 Y124.344 E15.67446
G1 X92.779 Y124.107 E15.74042
G1 X92.154 Y123.691 E15.83052
G1 X91.691 Y123.274 E15.90529
G1 X91.192 Y122.666 E15.99968
G1 X90.920 Y122.204 E16.06401
G1 X90.728 Y121.800 E16.11769
G1 X90.545 Y121.290 E16.18271
G1 X90.387 Y120.494 E16.28009
G1 X90.371 Y119.770 E16.36699
G1 X90.372 Y105.004 E18.13891
G1 X90.388 Y104.615 E18.18563
G1 X90.460 Y104.139 E18.24340
G1 X90.572 Y103.702 E18.29754
G1 X90.720 Y103.283 E18.35086
G1 X90.919 Y102.857 E18.40728
G1 X91.200 Y102.392 E18.47248
G1 X91.734 Y101.737 E18.57389
G1 X92.384 Y101.206 E18.67461
G1 X92.852 Y100.922 E18.74030
G1 X93.281 Y100.723 E18.79705
G1 X93.771 Y100.548 E18.85949
G1 X94.597 Y100.381 E18.96061
G1 X109.712 Y100.375 E20.77441
G1 X110.070 Y100.374 E20.81737
G1 X110.450 Y100.392 E20.86303
G1 X110.914 Y100.459 E20.91928
G1 X111.361 Y100.574 E20.97467
G1 X111.780 Y100.722 E21.02799
G1 X112.191 Y100.914 E21.08243
G1 X112.611 Y101.162 E21.14096
G1 X112.975 Y101.437 E21.19571
G1 X113.324 Y101.747 E21.25172
G1 X113.619 Y102.081 E21.30520
G1 X113.890 Y102.434 E21.35860
G1 X114.140 Y102.852 E21.41705
G10
G0 F9000 X110.600 Y119.085
;TYPE:FILL
G11
G1 F1200 X110.749 Y119.235 E21.44242
G0 F9000 X109.014 Y120.484
G0 X95.296 Y120.752
G1 F1200 X94.311 Y119.767 E21.60958
G0 F9000 X94.782 Y105.534
G0 X95.992 Y104.477
G1 F1200 X95.834 Y104.320 E21.63631
G0 F9000 X96.373 Y104.579
;TYPE:WALL-INNER
G1 F1200 X96.036 Y104.613 E21.67695
G1 X95.695 Y104.715 E21.71966
G1 X95.517 Y104.800 E21.74333
G1 X95.244 Y104.980 E21.78257
G1 X94.969 Y105.253 E21.82907
G1 X94.780 Y105.533 E21.86961
G1 X94.695 Y105.721 E21.89437
G1 X94.599 Y106.032 E21.93343
G1 X94.569 Y106.226 E21.95698
G1 X94.561 Y106.391 E21.97681
G1 X94.562 Y118.322 E23.40853
G1 X94.572 Y118.854 E23.47238
G1 X94.643 Y119.218 E23.51688
G1 X94.779 Y119.550 E23.55994
G1 X94.881 Y119.716 E23.58332
G1 X95.086 Y119.968 E23.62230
G1 X95.231 Y120.101 E23.64591
G1 X95.377 Y120.208 E23.66763
G1 X95.526 Y120.298 E23.68852
G1 X95.705 Y120.385 E23.71240
G1 X96.015 Y120.478 E23.75124
G1 X96.213 Y120.510 E23.77531
G1 X108.362 Y120.517 E25.23319
G1 X108.419 Y120.518 E25.24003
G1 X108.477 Y120.517 E25.24699
G1 X108.601 Y120.518 E25.26187
G1 X108.637 Y120.517 E25.26619
G1 X108.673 Y120.521 E25.27054
G1 X109.015 Y120.485 E25.31181
G1 X109.201 Y120.437 E25.33486
G1 X109.366 Y120.378 E25.35588
G1 X109.544 Y120.295 E25.37945
G1 X109.816 Y120.113 E25.41873
G1 X109.962 Y119.982 E25.44226
G1 X110.093 Y119.836 E25.46580
G1 X110.274 Y119.565 E25.50491
G1 X110.365 Y119.377 E25.52997
G1 X110.463 Y119.057 E25.57013
G1 X110.491 Y118.856 E25.59449
G1 X110.501 Y118.432 E25.64538
G1 X110.500 Y106.398 E27.08946
G1 X110.465 Y106.046 E27.13191
G1 X110.363 Y105.710 E27.17405
G1 X110.285 Y105.545 E27.19595
G1 X110.186 Y105.379 E27.21914
G1 X109.976 Y105.123 E27.25887
G1 X109.829 Y104.988 E27.28282
G1 X109.535 Y104.793 E27.32516
G1 X109.186 Y104.651 E27.37037
G1 X108.855 Y104.586 E27.41085
G1 X108.403 Y104.578 E27.46510
G1 X96.373 Y104.579 E28.90870
G0 F9000 X94.978 Y104.181
G1 F1200 X109.725 Y104.175 E30.67834
G1 X109.990 Y104.174 E30.71014
G1 X110.079 Y104.178 E30.72083
G1 X110.332 Y104.240 E30.75209
G1 X110.498 Y104.327 E30.77458
G1 X110.625 Y104.432 E30.79435
G1 X110.783 Y104.641 E30.82579
G1 X110.816 Y104.712 E30.83519
G1 X110.877 Y104.910 E30.86005
G1 X110.891 Y105.097 E30.88255
G1 X110.890 Y119.725 E32.63791
G1 X110.870 Y120.177 E32.69221
G1 X110.818 Y120.341 E32.71285
G1 X110.779 Y120.427 E32.72418
G1 X110.739 Y120.493 E32.73344
G1 X110.566 Y120.687 E32.76464
G1 X110.410 Y120.790 E32.78707
G1 X110.330 Y120.829 E32.79775
G1 X110.085 Y120.888 E32.82799
G1 X109.923 Y120.896 E32.84745
G1 X109.897 Y120.895 E32.85058
G1 X109.862 Y120.896 E32.85478
G1 X109.809 Y120.895 E32.86114
G1 X109.793 Y120.896 E32.86306
G1 X109.746 Y120.894 E32.86871
G1 X109.728 Y120.895 E32.87087
G1 X95.097 Y120.894 E34.62659
G1 X94.882 Y120.873 E34.65251
G1 X94.727 Y120.826 E34.67195
G1 X94.662 Y120.795 E34.68059
G1 X94.488 Y120.679 E34.70569
G1 X94.449 Y120.644 E34.71197
G1 X94.314 Y120.480 E34.73746
G1 X94.281 Y120.424 E34.74526
G1 X94.217 Y120.272 E34.76506
G1 X94.179 Y120.077 E34.78890
G1 X94.171 Y119.735 E34.82995
G1 X94.172 Y105.093 E36.58699
G1 X94.190 Y104.887 E36.61180
G1 X94.278 Y104.646 E36.64259
G1 X94.316 Y104.582 E36.65152
G1 X94.434 Y104.437 E36.67395
G1 X94.643 Y104.281 E36.70525
G1 X94.793 Y104.218 E36.72477
G1 X94.978 Y104.181 E36.74741
G0 F9000 X94.682 Y103.833
;TYPE:WALL-OUTER
G1 F1200 X94.938 Y103.781 E36.77876
G1 X109.988 Y103.774 E38.58476
G1 X110.124 Y103.781 E38.60110
G1 X110.375 Y103.831 E38.63181
G1 X110.606 Y103.926 E38.66179
G1 X110.718 Y103.992 E38.67739
G1 X110.910 Y104.150 E38.70722
G1 X111.073 Y104.347 E38.73791
G1 X111.193 Y104.573 E38.76861
G1 X111.267 Y104.815 E38.79898
G1 X111.285 Y104.940 E38.81414
G1 X111.291 Y105.073 E38.83011
G1 X111.290 Y119.734 E40.58943
G1 X111.281 Y120.128 E40.63672
G1 X111.264 Y120.250 E40.65151
G1 X111.192 Y120.486 E40.68111
G1 X111.132 Y120.615 E40.69819
G1 X110.990 Y120.825 E40.72861
G1 X110.823 Y120.994 E40.75712
G1 X110.607 Y121.139 E40.78834
G1 X110.367 Y121.240 E40.81958
G1 X110.124 Y121.286 E40.84926
G1 X109.926 Y121.296 E40.87305
G1 X109.897 Y121.295 E40.87653
G1 X109.868 Y121.296 E40.88002
G1 X109.814 Y121.295 E40.88650
G1 X109.792 Y121.296 E40.88914
G1 X109.764 Y121.295 E40.89250
G1 X109.726 Y121.296 E40.89706
G1 X95.078 Y121.294 E42.65482
G1 X94.811 Y121.268 E42.68701
G1 X94.566 Y121.193 E42.71776
G1 X94.244 Y120.997 E42.76300
G1 X94.156 Y120.918 E42.77719
G1 X93.984 Y120.708 E42.80976
G1 X93.870 Y120.490 E42.83928
G1 X93.780 Y120.124 E42.88451
G1 X93.771 Y119.735 E42.93120
G1 X93.772 Y105.077 E44.69016
G1 X93.778 Y104.941 E44.70650
G1 X93.797 Y104.814 E44.72191
G1 X93.869 Y104.577 E44.75163
G1 X93.986 Y104.354 E44.78185
G1 X94.150 Y104.153 E44.81298
G1 X94.348 Y103.991 E44.84368
G1 X94.578 Y103.870 E44.87487
G1 X94.682 Y103.833 E44.88811
G0 F9000 X94.766 Y104.122
G0 X95.162 Y105.191
G0 X95.383 Y105.393
G1 F1200 X95.284 Y105.501 E44.90569
G1 X95.131 Y105.729 E44.93864
G1 X95.070 Y105.864 E44.95642
G1 X94.990 Y106.122 E44.98884
G1 X94.961 Y106.401 E45.02250
G1 X94.962 Y118.318 E46.45254
G1 X94.971 Y118.822 E46.51303
G1 X95.026 Y119.101 E46.54715
G1 X95.132 Y119.361 E46.58084
G1 X95.208 Y119.485 E46.59830
G1 X95.377 Y119.693 E46.63046
G1 X95.599 Y119.875 E46.66490
G1 X95.851 Y120.011 E46.69927
G1 X96.106 Y120.087 E46.73120
G1 X96.252 Y120.111 E46.74895
G1 X108.371 Y120.117 E48.20323
G1 X108.420 Y120.118 E48.20911
G1 X108.474 Y120.117 E48.21559
G1 X108.559 Y120.118 E48.22580
G1 X108.653 Y120.117 E48.23708
G1 X108.672 Y120.119 E48.23937
G1 X108.944 Y120.090 E48.27219
G1 X109.213 Y120.008 E48.30594
G1 X109.347 Y119.946 E48.32366
G1 X109.570 Y119.796 E48.35591
G1 X109.776 Y119.590 E48.39087
G1 X109.926 Y119.366 E48.42322
G1 X109.992 Y119.230 E48.44136
G1 X110.071 Y118.970 E48.47397
G1 X110.092 Y118.823 E48.49179
G1 X110.101 Y118.427 E48.53932
G1 X110.100 Y106.407 E49.98172
G1 X110.072 Y106.126 E50.01560
G1 X109.992 Y105.861 E50.04882
G1 X109.857 Y105.609 E50.08313
G1 X109.685 Y105.399 E50.11570
G1 X109.577 Y105.300 E50.13328
G1 X109.345 Y105.146 E50.16670
G1 X109.218 Y105.087 E50.18350
G1 X109.080 Y105.038 E50.20108
G1 X108.813 Y104.985 E50.23374
G1 X108.400 Y104.978 E50.28331
G1 X96.384 Y104.979 E51.72523
G1 X96.114 Y105.006 E51.75779
G1 X95.846 Y105.086 E51.79135
G1 X95.714 Y105.149 E51.80890
G1 X95.489 Y105.297 E51.84122
G1 X95.383 Y105.393 E51.85838
G0 F9000 X95.062 Y104.961
;TYPE:SKIN
G1 F900 X94.476 Y104.658 E51.93794
G1 X94.691 Y105.439 E52.01158
G1 X94.311 Y105.625 E52.05841
G1 X94.454 Y106.051 E52.11233
G0 F9000 X95.383 Y104.717
G1 F900 X95.269 Y104.320 E52.17949
G1 X95.945 Y104.431 E52.21690
G1 X96.247 Y104.449 E52.25320
G0 F9000 X94.782 Y105.534
G0 X94.561 Y106.391
G0 X94.311 Y118.918
G1 F900 X94.473 Y119.080 E52.28070
G0 F9000 X94.311 Y119.484
G1 F900 X95.579 Y120.752 E52.49588
G0 F9000 X96.010 Y120.618
G1 F900 X96.145 Y120.752 E52.51871
G0 F9000 X95.004 Y120.742
G1 F900 X94.318 Y120.056 E52.63513
G0 F9000 X96.381 Y120.516
G0 X109.026 Y120.623
G1 F900 X109.308 Y120.621 E52.65729
G1 X109.769 Y120.517 E52.70209
G1 X110.405 Y120.588 E52.77428
G1 X110.237 Y119.853 E52.85118
G1 X110.742 Y119.793 E52.91511
G1 X110.641 Y119.127 E52.95148
G1 X110.633 Y118.836 E52.98642
G0 F9000 X110.750 Y105.942
G1 F900 X110.504 Y105.696 E53.02816
G0 F9000 X110.750 Y105.376
G1 F900 X109.808 Y104.434 E53.18803
G0 F9000 X109.392 Y104.584
G1 F900 X109.244 Y104.436 E53.21314
G0 F9000 X110.344 Y104.405
G1 F900 X110.670 Y104.730 E53.26838
G10
G0 F9000 X101.141 Y110.990
;TYPE:FILL
G11
G1 F1200 X101.072 Y111.059 E53.28009
G0 F9000 X99.791 Y111.259
G0 X99.791 Y113.741
G0 X100.016 Y114.158
G1 F1200 X100.366 Y114.508 E53.33949
G0 F9000 X99.876 Y114.650
;TYPE:WALL-INNER
G1 F1200 X99.876 Y113.800 E53.44149
G1 X101.282 Y113.800 E53.61021
G1 X101.282 Y114.650 E53.71221
G1 X99.876 Y114.650 E53.88093
G0 F9000 X99.876 Y111.200
G1 F1200 X99.876 Y110.350 E53.98293
G1 X101.282 Y110.350 E54.15165
G1 X101.282 Y111.200 E54.25365
G1 X99.876 Y111.200 E54.42237
G0 F9000 X100.132 Y111.600
;TYPE:WALL-OUTER
G1 F1200 X100.132 Y113.400 E54.63837
G1 X101.682 Y113.400 E54.82437
G1 X101.682 Y115.050 E55.02237
G1 X99.476 Y115.050 E55.28709
G1 X99.476 Y109.950 E55.89909
G1 X101.682 Y109.950 E56.16381
G1 X101.682 Y111.600 E56.36181
G1 X100.132 Y111.600 E56.54781
G0 F9000 X100.594 Y111.059
;TYPE:SKIN
G1 F900 X100.024 Y110.489 E56.64454
G0 F9000 X100.590 Y110.489
G1 F900 X101.141 Y111.041 E56.73813
G0 F9000 X99.791 Y111.259
G0 X99.791 Y113.741
G0 X100.645 Y113.938
G1 F900 X101.141 Y114.435 E56.82239
G0 F9000 X100.649 Y114.508
G1 F900 X100.079 Y113.938 E56.91912
G0 F9000 X100.016 Y114.440
G1 F900 X100.083 Y114.508 E56.93058
G10
G0 F9000 X103.780 Y114.650
;TYPE:WALL-INNER
G11
G1 F1200 X103.780 Y113.800 E57.03258
G1 X105.185 Y113.800 E57.20118
G1 X105.185 Y114.650 E57.30318
G1 X103.780 Y114.650 E57.47178
G0 F9000 X105.271 Y113.741
G0 X105.271 Y111.259
G0 X103.780 Y111.200
G1 F1200 X103.780 Y110.350 E57.57378
G1 X105.186 Y110.350 E57.74250
G1 X105.186 Y111.200 E57.84450
G1 X103.780 Y111.200 E58.01322
G0 F9000 X104.930 Y111.600
;TYPE:WALL-OUTER
G1 F1200 X103.380 Y111.600 E58.19922
G1 X103.380 Y109.950 E58.39722
G1 X105.586 Y109.950 E58.66194
G1 X105.585 Y115.050 E59.27394
G1 X103.380 Y115.050 E59.53854
G1 X103.380 Y113.400 E59.73654
G1 X104.930 Y113.400 E59.92254
G1 X104.930 Y111.600 E60.13854
G0 F9000 X105.046 Y110.986
;TYPE:SKIN
G1 F900 X104.549 Y110.488 E60.22297
G0 F9000 X103.983 Y110.488
G1 F900 X104.553 Y111.058 E60.31970
G0 F9000 X103.987 Y111.058
G1 F900 X103.919 Y110.991 E60.33116
G0 F9000 X105.271 Y111.259
G0 X105.271 Y113.741
G0 X104.040 Y113.939
G1 F900 X104.609 Y114.508 E60.42772
G0 F9000 X105.044 Y114.378
G1 F900 X104.324 Y114.223 E60.50196
G1 X103.919 Y114.385 E60.55430
G10
G0 F9000 X119.249 Y105.107
;TYPE:FILL
G11
G1 F1200 X119.601 Y105.459 E60.61404
G0 F9000 X119.642 Y119.382
G0 X120.157 Y120.258
G1 F1200 X119.726 Y120.689 E60.68718
G0 F9000 X134.556 Y120.414
G1 F1200 X134.896 Y120.754 E60.74488
G0 F9000 X135.431 Y118.854
G0 X135.403 Y106.046
G0 X135.186 Y105.230
G1 F1200 X135.628 Y104.788 E60.81989
G0 F9000 X135.830 Y105.093
;TYPE:WALL-INNER
G1 F1200 X135.829 Y119.726 E62.57585
G1 X135.810 Y120.171 E62.62930
G1 X135.719 Y120.427 E62.66190
G1 X135.621 Y120.572 E62.68290
G1 X135.506 Y120.687 E62.70242
G1 X135.347 Y120.792 E62.72528
G1 X135.203 Y120.853 E62.74405
G1 X135.019 Y120.890 E62.76657
G1 X134.862 Y120.896 E62.78543
G1 X134.836 Y120.895 E62.78855
G1 X134.801 Y120.896 E62.79275
G1 X134.748 Y120.895 E62.79911
G1 X134.732 Y120.896 E62.80104
G1 X134.685 Y120.894 E62.80668
G1 X134.667 Y120.895 E62.80884
G1 X120.035 Y120.894 E64.56468
G1 X119.817 Y120.872 E64.59098
G1 X119.599 Y120.793 E64.61880
G1 X119.427 Y120.680 E64.64350
G1 X119.325 Y120.577 E64.66089
G1 X119.212 Y120.405 E64.68559
G1 X119.159 Y120.279 E64.70199
G1 X119.119 Y120.076 E64.72682
G1 X119.109 Y119.735 E64.76776
G1 X119.110 Y105.083 E66.52600
G1 X119.116 Y104.978 E66.53862
G1 X119.178 Y104.727 E66.56964
G1 X119.316 Y104.495 E66.60204
G1 X119.500 Y104.331 E66.63161
G1 X119.659 Y104.244 E66.65336
G1 X119.731 Y104.219 E66.66251
G1 X119.918 Y104.181 E66.68541
G1 X134.664 Y104.175 E68.45493
G1 X134.929 Y104.174 E68.48673
G1 X135.020 Y104.178 E68.49766
G1 X135.192 Y104.212 E68.51870
G1 X135.276 Y104.242 E68.52940
