;FLAVOR:UltiGCode
;TIME:2212
;MATERIAL:696
;MATERIAL2:0

;Layer count: 323
;LAYER:0
M107
G0 F9000 X105.388 Y106.542 Z0.300
G0 X105.388 Y106.743
;TYPE:SKIRT
G1 F1200 X105.388 Y106.542 E0.02412
G1 X108.106 Y103.825 E0.48530
G1 X108.505 Y103.625 E0.53885
G1 X109.353 Y102.779 E0.68259
G1 X112.923 Y101.588 E1.13421
G1 X117.353 Y101.588 E1.66581
G1 X119.592 Y102.336 E1.94908
G1 X120.970 Y103.025 E2.13396
G1 X123.334 Y105.388 E2.53506
G1 X125.488 Y105.388 E2.79354
G1 X125.488 Y108.541 E3.17190
G1 X125.688 Y108.741 E3.20584
G1 X125.688 Y109.741 E3.32584
G1 X125.888 Y109.941 E3.35978
G1 X125.888 Y114.835 E3.94706
G1 X125.688 Y115.035 E3.98100
G1 X125.688 Y116.035 E4.10100
G1 X125.488 Y116.235 E4.13494
G1 X125.488 Y119.388 E4.51330
G1 X123.334 Y119.388 E4.77178
G1 X120.972 Y121.750 E5.17263
G1 X119.594 Y122.440 E5.35756
G1 X117.724 Y123.062 E5.59405
G1 X115.777 Y123.388 E5.83094
G1 X114.499 Y123.388 E5.98430
G1 X112.552 Y123.062 E6.22119
G1 X109.352 Y121.998 E6.62586
G1 X108.502 Y121.150 E6.76994
G1 X108.106 Y120.951 E6.82313
G1 X104.988 Y117.834 E7.35218
G1 X104.988 Y117.631 E7.37654
G1 X104.588 Y117.230 E7.44451
G1 X104.588 Y116.835 E7.49191
G1 X104.388 Y116.635 E7.52585
G1 X104.388 Y116.235 E7.57385
G1 X104.188 Y116.035 E7.60779
G1 X104.188 Y115.635 E7.65579
G1 X103.988 Y115.435 E7.68973
G1 X103.988 Y109.341 E8.42101
G1 X104.188 Y109.141 E8.45496
G1 X104.188 Y108.741 E8.50296
G1 X104.388 Y108.541 E8.53690
G1 X104.388 Y108.141 E8.58490
G1 X104.588 Y107.941 E8.61884
G1 X104.588 Y107.544 E8.66648
G1 X105.388 Y106.743 E8.80233
G0 F9000 X105.788 Y106.908
G1 F1200 X105.788 Y106.708 E8.82633
G1 X108.343 Y104.153 E9.25993
G1 X108.741 Y103.954 E9.31332
G1 X109.569 Y103.128 E9.45367
G1 X112.988 Y101.988 E9.88615
G1 X117.288 Y101.988 E10.40215
G1 X119.439 Y102.706 E10.67428
G1 X120.733 Y103.353 E10.84788
G1 X123.168 Y105.788 E11.26112
G1 X125.088 Y105.788 E11.49152
G1 X125.088 Y108.707 E11.84180
G1 X125.288 Y108.907 E11.87574
G1 X125.288 Y109.907 E11.99574
G1 X125.488 Y110.107 E12.02968
G1 X125.488 Y114.669 E12.57712
G1 X125.288 Y114.869 E12.61106
G1 X125.288 Y115.869 E12.73106
G1 X125.088 Y116.069 E12.76500
G1 X125.088 Y118.988 E13.11528
G1 X123.168 Y118.988 E13.34568
G1 X120.734 Y121.422 E13.75874
G1 X119.441 Y122.070 E13.93230
G1 X117.627 Y122.672 E14.16165
G1 X115.744 Y122.988 E14.39077
G1 X114.532 Y122.988 E14.53621
G1 X112.648 Y122.672 E14.76545
G1 X109.568 Y121.648 E15.15494
G1 X108.739 Y120.821 E15.29546
G1 X108.343 Y120.623 E15.34859
G1 X105.388 Y117.668 E15.85007
G1 X105.388 Y117.466 E15.87431
G1 X104.988 Y117.065 E15.94228
G1 X104.988 Y116.669 E15.98980
G1 X104.788 Y116.469 E16.02374
G1 X104.788 Y116.069 E16.07174
G1 X104.588 Y115.869 E16.10568
G1 X104.588 Y115.469 E16.15368
G1 X104.388 Y115.269 E16.18762
G1 X104.388 Y109.507 E16.87906
G1 X104.588 Y109.307 E16.91300
G1 X104.588 Y108.907 E16.96100
G1 X104.788 Y108.707 E16.99494
G1 X104.788 Y108.307 E17.04294
G1 X104.988 Y108.107 E17.07688
G1 X104.988 Y107.709 E17.12464
G1 X105.788 Y106.908 E17.26049
G0 F9000 X106.188 Y107.074
G1 F1200 X106.188 Y106.874 E17.28449
G1 X108.579 Y104.482 E17.69034
G1 X108.978 Y104.283 E17.74385
G1 X109.784 Y103.478 E17.88054
G1 X113.052 Y102.388 E18.29394
G1 X117.223 Y102.388 E18.79446
G1 X119.285 Y103.076 E19.05531
G1 X120.497 Y103.682 E19.21792
G1 X123.002 Y106.188 E19.64312
G1 X124.688 Y106.188 E19.84544
G1 X124.688 Y108.873 E20.16764
G1 X124.888 Y109.073 E20.20158
G1 X124.888 Y110.073 E20.32158
G1 X125.088 Y110.273 E20.35552
G1 X125.088 Y114.503 E20.86312
G1 X124.888 Y114.703 E20.89706
G1 X124.888 Y115.703 E21.01706
G1 X124.688 Y115.903 E21.05100
G1 X124.688 Y118.588 E21.37320
G1 X123.002 Y118.588 E21.57552
G1 X120.497 Y121.093 E22.00063
G1 X119.287 Y121.699 E22.16303
G1 X117.531 Y122.283 E22.38509
G1 X115.710 Y122.588 E22.60666
G1 X114.566 Y122.588 E22.74394
G1 X112.745 Y122.283 E22.96550
G1 X109.784 Y121.298 E23.33997
G1 X108.976 Y120.492 E23.47692
G1 X108.579 Y120.294 E23.53016
G1 X105.788 Y117.502 E24.00389
G1 X105.788 Y117.300 E24.02813
G1 X105.388 Y116.899 E24.09610
G1 X105.388 Y116.503 E24.14362
G1 X105.188 Y116.303 E24.17756
G1 X105.188 Y115.903 E24.22556
G1 X104.988 Y115.703 E24.25950
G1 X104.988 Y115.303 E24.30750
G1 X104.788 Y115.103 E24.34144
G1 X104.788 Y109.673 E24.99304
G1 X104.988 Y109.473 E25.02698
G1 X104.988 Y109.073 E25.07498
G1 X105.188 Y108.873 E25.10892
G1 X105.188 Y108.473 E25.15692
G1 X105.388 Y108.273 E25.19086
G1 X105.388 Y107.875 E25.23862
G1 X106.188 Y107.074 E25.37447
G10
G0 F9000 X114.839 Y112.010
;TYPE:FILL
G11
G1 F1200 X115.164 Y112.335 E25.42866
G1 X115.488 Y112.659 E25.48365
G0 F9000 X116.442 Y112.660
G1 F1200 X116.761 Y112.340 E25.53787
G0 F9000 X116.761 Y112.501
G0 X114.959 Y112.459
G0 X115.000 Y113.943
G0 X115.159 Y113.943
G1 F1200 X114.839 Y114.263 E25.59217
G0 F9000 X114.700 Y112.800
;TYPE:WALL-OUTER
G1 F1200 X112.801 Y112.800 E25.82005
G1 X112.801 Y112.201 E25.89193
G1 X114.700 Y112.201 E26.11981
G1 X114.700 Y110.301 E26.34781
G1 X115.300 Y110.301 E26.41981
G1 X115.300 Y112.201 E26.64781
G1 X117.199 Y112.201 E26.87569
G1 X117.199 Y112.800 E26.94757
G1 X115.300 Y112.800 E27.17545
G1 X115.300 Y114.700 E27.40345
G1 X114.700 Y114.700 E27.47545
G1 X114.700 Y112.800 E27.70345
G0 F9000 X114.839 Y112.859
;TYPE:SKIN
G1 F900 X114.999 Y113.301 E27.75760
G1 X114.999 Y113.867 E27.81194
G1 X115.159 Y114.310 E27.86846
G0 F9000 X115.000 Y114.310
G0 X114.959 Y112.459
G0 X115.205 Y112.500
G0 X115.205 Y112.659
G1 F900 X114.999 Y112.170 E27.93054
G1 X114.999 Y111.604 E27.98488
G1 X114.999 Y111.039 E28.03912
G1 X114.839 Y110.596 E28.09564
G0 F9000 X115.000 Y110.596
G0 X115.041 Y112.542
G0 X114.320 Y112.501
G0 X114.320 Y112.340
G1 F900 X114.356 Y112.659 E28.14967
G1 X113.631 Y112.499 E28.20379
G1 X113.189 Y112.340 E28.26016
G0 F9000 X113.189 Y112.501
G0 X115.452 Y112.501
G0 X115.452 Y112.340
G1 F900 X115.894 Y112.499 E28.31427
G1 X116.459 Y112.499 E28.36834
G1 X116.902 Y112.659 E28.42487
G0 F9000 X115.971 Y113.040
;TYPE:SUPPORT
G1 F1200 X115.971 Y119.969 E29.25635
G0 F9000 X115.847 Y119.219
G0 X113.541 Y119.071
G0 X113.305 Y119.792
G1 F1200 X113.305 Y113.040 E30.06659
G0 F9000 X113.305 Y111.961
G1 F1200 X113.305 Y104.981 E30.90419
G0 F9000 X112.325 Y105.307
G1 F1200 X117.947 Y105.307 E31.57883
G0 F9000 X118.637 Y105.593
G1 F1200 X118.637 Y119.184 E33.20975
G0 F9000 X119.359 Y118.637
G1 F1200 X110.713 Y118.637 E34.24727
G0 F9000 X110.639 Y118.562
G1 F1200 X110.639 Y106.214 E35.72903
G0 F9000 X111.175 Y106.751
G0 X109.488 Y108.209
G0 X108.727 Y107.973
G1 F1200 X121.195 Y107.973 E37.22519
G0 F9000 X121.303 Y108.081
G1 F1200 X121.303 Y116.695 E38.25887
G0 F9000 X122.147 Y115.971
G1 F1200 X108.049 Y115.971 E39.95063
G0 F9000 X107.973 Y115.894
G1 F1200 X107.973 Y108.880 E40.79231
G0 F9000 X108.665 Y109.262
G0 X108.572 Y110.274
G0 X108.065 Y111.061
G0 X107.412 Y110.639
G1 F1200 X114.459 Y110.639 E41.63795
G0 F9000 X115.539 Y110.639
G1 F1200 X122.347 Y110.639 E42.45491
G0 F9000 X121.588 Y110.639
G0 X121.788 Y113.168
G0 X122.547 Y113.305
G1 F1200 X115.539 Y113.305 E43.29587
G0 F9000 X114.459 Y113.305
G1 F1200 X107.327 Y113.305 E44.15171
G0 F9000 X108.088 Y113.305
G0 X111.760 Y111.160
G0 X113.659 Y109.260
G0 X116.341 Y109.260
G0 X116.210 Y111.201
G0 X115.971 Y111.961
G1 F1200 X115.971 Y104.928 E44.99567
;LAYER:1
M106 S51
G10
G0 F9000 X114.839 Y112.010 Z0.340
;TYPE:FILL
G11
G1 F1440 X115.164 Y112.335 E45.00289
G1 X115.488 Y112.659 E45.01022
G0 F9000 X116.442 Y112.660
G1 F1440 X116.761 Y112.340 E45.01745
G0 F9000 X116.761 Y112.501
G0 X114.959 Y112.459
G0 X115.000 Y113.943
G0 X115.159 Y113.943
G1 F1440 X114.839 Y114.263 E45.02469
G0 F9000 X114.700 Y112.800
;TYPE:WALL-OUTER
G1 F900 X112.801 Y112.800 E45.05508
G1 X112.801 Y112.201 E45.06466
G1 X114.700 Y112.201 E45.09504
G1 X114.700 Y110.301 E45.12544
G1 X115.300 Y110.301 E45.13504
G1 X115.300 Y112.201 E45.16544
G1 X117.199 Y112.201 E45.19583
G1 X117.199 Y112.800 E45.20541
G1 X115.300 Y112.800 E45.23580
G1 X115.300 Y114.700 E45.26620
G1 X114.700 Y114.700 E45.27580
G1 X114.700 Y112.800 E45.30620
G0 F9000 X114.839 Y112.849
;TYPE:SKIN
G1 F600 X115.470 Y112.500 E45.31768
G1 X116.036 Y112.500 E45.32490
G1 X116.601 Y112.500 E45.33211
G1 X117.044 Y112.340 E45.33964
G0 F9000 X116.989 Y112.501
G0 X114.959 Y112.542
G0 X115.000 Y111.963
G0 X115.158 Y111.963
G1 F600 X114.810 Y112.311 E45.34685
G1 X114.339 Y112.499 E45.35405
G1 X113.773 Y112.499 E45.36125
G1 X113.207 Y112.499 E45.36845
G1 X112.940 Y112.485 E45.37273
G0 F9000 X113.101 Y112.485
G0 X115.041 Y112.542
G0 X115.000 Y111.717
G0 X114.839 Y111.717
G1 F600 X114.998 Y111.274 E45.37994
G1 X114.998 Y110.708 E45.38714
G1 X114.984 Y110.440 E45.39143
G0 F9000 X114.984 Y110.601
G0 X115.000 Y113.094
G0 X115.159 Y113.094
G1 F600 X114.999 Y113.537 E45.39865
G1 X114.999 Y114.103 E45.40587
G1 X114.839 Y114.546 E45.41341
G10
G0 F9000 X115.971 Y115.540
;TYPE:SUPPORT
G11
G1 F1080 X115.971 Y119.361 E45.47454
G0 F9000 X115.945 Y119.203
G0 X113.356 Y119.010
G0 X113.305 Y119.159
G1 F1080 X113.305 Y113.640 E45.56285
G0 F9000 X113.305 Y113.800
G0 X111.760 Y113.841
G0 X111.760 Y111.160
G0 X113.305 Y111.201
G0 X113.305 Y111.361
G1 F1080 X113.305 Y105.613 E45.65481
G0 F9000 X113.355 Y105.765
G0 X115.971 Y105.688
G0 X115.971 Y105.528
G1 F1080 X115.971 Y109.461 E45.71774
G0 F9000 X115.971 Y109.301
G0 X118.548 Y106.396
G0 X118.637 Y106.263
G1 F1080 X118.637 Y118.513 E45.91374
G0 F9000 X118.549 Y118.379
G0 X110.710 Y117.671
G0 X110.639 Y117.813
G1 F1080 X110.639 Y106.962 E46.08736
G0 F9000 X110.710 Y107.106
G0 X108.085 Y111.041
G0 X107.973 Y110.928
G1 F1080 X107.973 Y113.847 E46.13406
G0 F9000 X108.085 Y113.735
G0 X113.659 Y115.741
G0 X116.341 Y115.741
G0 X121.191 Y115.535
G0 X121.303 Y115.648
G1 F1080 X121.303 Y109.130 E46.23835
;LAYER:2
M106 S102
G10
G0 F9000 X116.761 Y112.340 Z0.380
;TYPE:FILL
G11
G1 F1980 X116.442 Y112.660 E46.24558
G0 F9000 X115.488 Y112.659
G1 F1980 X115.164 Y112.335 E46.25278
G1 X114.839 Y112.010 E46.26014
G0 F9000 X115.000 Y112.010
G0 X115.000 Y113.943
G0 X115.159 Y113.943
G1 F1980 X114.839 Y114.263 E46.26738
G0 F9000 X114.700 Y112.800
;TYPE:WALL-OUTER
G1 F960 X112.801 Y112.800 E46.29776
G1 X112.801 Y112.201 E46.30734
G1 X114.700 Y112.201 E46.33773
G1 X114.700 Y110.301 E46.36813
G1 X115.300 Y110.301 E46.37773
G1 X115.300 Y112.201 E46.40813
G1 X117.199 Y112.201 E46.43851
G1 X117.199 Y112.800 E46.44810
G1 X115.300 Y112.800 E46.47848
G1 X115.300 Y114.700 E46.50888
G1 X114.700 Y114.700 E46.51848
G1 X114.700 Y112.800 E46.54888
G0 F9000 X114.839 Y112.859
;TYPE:SKIN
G1 F540 X114.999 Y113.301 E46.55610
G1 X114.999 Y113.867 E46.56335
G1 X115.159 Y114.310 E46.57088
G0 F9000 X115.000 Y114.310
G0 X114.959 Y112.459
G0 X115.205 Y112.500
G0 X115.205 Y112.659
G1 F540 X114.999 Y112.170 E46.57916
G1 X114.999 Y111.604 E46.58640
G1 X114.999 Y111.039 E46.59364
G1 X114.839 Y110.596 E46.60117
G0 F9000 X115.000 Y110.596
G0 X115.041 Y112.542
G0 X114.320 Y112.501
G0 X114.320 Y112.340
G1 F540 X114.356 Y112.659 E46.60838
G1 X113.631 Y112.499 E46.61559
G1 X113.189 Y112.340 E46.62311
G0 F9000 X113.189 Y112.501
G0 X115.452 Y112.501
G0 X115.452 Y112.340
G1 F540 X115.894 Y112.499 E46.63032
G1 X116.459 Y112.499 E46.63753
G1 X116.902 Y112.659 E46.64507
G10
G0 F9000 X115.971 Y115.540
;TYPE:SUPPORT
G11
G1 F1380 X115.971 Y119.361 E46.70620
G0 F9000 X115.945 Y119.203
G0 X113.356 Y119.010
G0 X113.305 Y119.159
G1 F1380 X113.305 Y113.640 E46.79451
G0 F9000 X113.305 Y113.800
G0 X111.760 Y113.841
G0 X111.760 Y111.160
G0 X113.305 Y111.201
G0 X113.305 Y111.361
G1 F1380 X113.305 Y105.613 E46.88648
G0 F9000 X113.355 Y105.765
G0 X115.971 Y105.688
G0 X115.971 Y105.528
G1 F1380 X115.971 Y109.461 E46.94940
G0 F9000 X115.971 Y109.301
G0 X118.548 Y106.396
G0 X118.637 Y106.263
G1 F1380 X118.637 Y118.513 E47.14540
G0 F9000 X118.549 Y118.379
G0 X110.710 Y117.671
G0 X110.639 Y117.813
G1 F1380 X110.639 Y106.962 E47.31902
G0 F9000 X110.710 Y107.106
G0 X108.085 Y111.041
G0 X107.973 Y110.928
G1 F1380 X107.973 Y113.847 E47.36572
G0 F9000 X108.085 Y113.735
G0 X113.659 Y115.741
G0 X116.341 Y115.741
G0 X121.191 Y115.535
G0 X121.303 Y115.648
G1 F1380 X121.303 Y109.130 E47.47001
;LAYER:3
M106 S153
G10
G0 F9000 X116.761 Y112.340 Z0.420
;TYPE:FILL
G11
G1 F2520 X116.442 Y112.660 E47.47724
G0 F9000 X115.488 Y112.659
G1 F2520 X115.164 Y112.335 E47.48445
G1 X114.839 Y112.010 E47.49180
G0 F9000 X115.000 Y112.010
G0 X115.000 Y113.943
G0 X115.159 Y113.943
G1 F2520 X114.839 Y114.263 E47.49904
G0 F9000 X114.700 Y112.800
;TYPE:WALL-OUTER
G1 F1020 X112.801 Y112.800 E47.52942
G1 X112.801 Y112.201 E47.53901
G1 X114.700 Y112.201 E47.56939
G1 X114.700 Y110.301 E47.59979
G1 X115.300 Y110.301 E47.60939
G1 X115.300 Y112.201 E47.63979
G1 X117.199 Y112.201 E47.67018
G1 X117.199 Y112.800 E47.67976
G1 X115.300 Y112.800 E47.71014
G1 X115.300 Y114.700 E47.74054
G1 X114.700 Y114.700 E47.75014
G1 X114.700 Y112.800 E47.78054
G0 F9000 X114.839 Y112.849
;TYPE:SKIN
G1 F540 X115.470 Y112.500 E47.79202
G1 X116.036 Y112.500 E47.79925
G1 X116.601 Y112.500 E47.80645
G1 X117.044 Y112.340 E47.81399
G0 F9000 X116.989 Y112.501
G0 X114.959 Y112.542
G0 X115.000 Y111.963
G0 X115.158 Y111.963
G1 F540 X114.810 Y112.311 E47.82120
G1 X114.339 Y112.499 E47.82840
G1 X113.773 Y112.499 E47.83560
G1 X113.207 Y112.499 E47.84280
G1 X112.940 Y112.485 E47.84707
G0 F9000 X113.101 Y112.485
G0 X115.041 Y112.542
G0 X115.000 Y111.717
G0 X114.839 Y111.717
G1 F540 X114.998 Y111.274 E47.85428
G1 X114.998 Y110.708 E47.86148
G1 X114.984 Y110.440 E47.86578
G0 F9000 X114.984 Y110.601
G0 X115.000 Y113.094
G0 X115.159 Y113.094
G1 F540 X114.999 Y113.537 E47.87299
G1 X114.999 Y114.103 E47.88022
G1 X114.839 Y114.546 E47.88775
G10
G0 F9000 X115.971 Y115.540
;TYPE:SUPPORT
G11
G1 F1620 X115.971 Y119.361 E47.94889
G0 F9000 X115.945 Y119.203
G0 X113.356 Y119.010
G0 X113.305 Y119.159
G1 F1620 X113.305 Y113.640 E48.03719
G0 F9000 X113.305 Y113.800
G0 X111.760 Y113.841
G0 X111.760 Y111.160
G0 X113.305 Y111.201
G0 X113.305 Y111.361
G1 F1620 X113.305 Y105.613 E48.12916
G0 F9000 X113.355 Y105.765
G0 X115.971 Y105.688
G0 X115.971 Y105.528
G1 F1620 X115.971 Y109.461 E48.19209
G0 F9000 X115.971 Y109.301
G0 X118.548 Y106.396
G0 X118.637 Y106.263
G1 F1620 X118.637 Y118.513 E48.38809
G0 F9000 X118.549 Y118.379
G0 X110.710 Y117.671
G0 X110.639 Y117.813
G1 F1620 X110.639 Y106.962 E48.56170
G0 F9000 X110.710 Y107.106
G0 X108.085 Y111.041
G0 X107.973 Y110.928
G1 F1620 X107.973 Y113.847 E48.60841
G0 F9000 X108.085 Y113.735
G0 X113.659 Y115.741
G0 X116.341 Y115.741
G0 X121.191 Y115.535
G0 X121.303 Y115.648
G1 F1620 X121.303 Y109.130 E48.71270
;LAYER:4
M106 S204
G10
G0 F9000 X116.761 Y112.340 Z0.460
;TYPE:FILL
G11
G1 F3120 X116.442 Y112.660 E48.71993
G0 F9000 X115.488 Y112.659
G1 F3120 X115.164 Y112.335 E48.72713
G1 X114.839 Y112.010 E48.73448
G0 F9000 X115.000 Y112.010
G0 X115.000 Y113.943
G0 X115.159 Y113.943
G1 F3120 X114.839 Y114.263 E48.74172
G0 F9000 X114.700 Y112.800
;TYPE:WALL-OUTER
G1 F1140 X112.801 Y112.800 E48.77211
G1 X112.801 Y112.201 E48.78169
G1 X114.700 Y112.201 E48.81208
G1 X114.700 Y110.301 E48.84248
G1 X115.300 Y110.301 E48.85208
G1 X115.300 Y112.201 E48.88248
G1 X117.199 Y112.201 E48.91286
G1 X117.199 Y112.800 E48.92244
G1 X115.300 Y112.800 E48.95283
G1 X115.300 Y114.700 E48.98323
G1 X114.700 Y114.700 E48.99283
G1 X114.700 Y112.800 E49.02323
G0 F9000 X114.839 Y112.859
;TYPE:SKIN
G1 F540 X114.999 Y113.301 E49.03045
G1 X114.999 Y113.867 E49.03769
G1 X115.159 Y114.310 E49.04523
G0 F9000 X115.000 Y114.310
G0 X114.959 Y112.459
G0 X115.205 Y112.500
G0 X115.205 Y112.659
G1 F540 X114.999 Y112.170 E49.05351
