;FLAVOR:UltiGCode
;TIME:1683
;MATERIAL:3691
;MATERIAL2:0

;Layer count: 75
;LAYER:0
M107
G0 F9000 X86.647 Y88.965 Z0.300
;TYPE:SKIRT
G1 F1800 X143.847 Y88.965 E8.58000
G1 X143.847 Y114.430 E12.39975
G1 X128.647 Y114.568 E14.67984
G1 X128.647 Y115.551 E14.82729
G1 X128.447 Y115.751 E14.86972
G1 X128.447 Y116.151 E14.92972
G1 X128.247 Y116.351 E14.97215
G1 X128.247 Y116.751 E15.03215
G1 X128.047 Y116.951 E15.07457
G1 X128.047 Y117.151 E15.10457
G1 X127.647 Y117.551 E15.18943
G1 X127.647 Y118.151 E15.27943
G1 X127.447 Y118.351 E15.32185
G1 X127.447 Y118.374 E15.32530
G1 X128.012 Y118.656 E15.42002
G1 X128.610 Y118.857 E15.51465
G1 X130.213 Y119.657 E15.78338
G1 X130.811 Y119.857 E15.87797
G1 X132.833 Y120.868 E16.21707
G1 X133.033 Y121.067 E16.25939
G1 X133.836 Y121.468 E16.39402
G1 X134.437 Y122.069 E16.52151
G1 X135.637 Y122.669 E16.72276
G1 X135.836 Y122.868 E16.76497
G1 X136.238 Y123.069 E16.83239
G1 X138.647 Y125.481 E17.34374
G1 X138.647 Y125.825 E17.39534
G1 X151.647 Y126.026 E19.34557
G1 X151.647 Y136.065 E20.85142
G1 X120.247 Y136.065 E25.56142
G1 X120.247 Y135.635 E25.62592
G1 X117.655 Y135.635 E26.01472
G1 X117.652 Y130.252 E26.82217
G1 X117.657 Y128.415 E27.09772
G1 X117.615 Y128.411 E27.10405
G1 X112.887 Y128.464 E27.81329
G1 X112.322 Y128.511 E27.89834
G1 X112.322 Y131.274 E28.31279
G1 X112.326 Y135.635 E28.96694
G1 X109.647 Y135.635 E29.36879
G1 X109.647 Y136.065 E29.43329
G1 X77.847 Y136.065 E34.20329
G1 X77.847 Y126.026 E35.70914
G1 X90.847 Y125.825 E37.65937
G1 X90.847 Y124.854 E37.80502
G1 X92.868 Y123.859 E38.14292
G1 X93.062 Y123.666 E38.18397
G1 X93.457 Y123.469 E38.25018
G1 X93.857 Y123.069 E38.33503
G1 X94.257 Y122.869 E38.40211
G1 X94.457 Y122.669 E38.44454
G1 X94.857 Y122.469 E38.51162
G1 X95.057 Y122.269 E38.55405
G1 X96.257 Y121.669 E38.75529
G1 X96.457 Y121.469 E38.79772
G1 X97.660 Y120.868 E38.99943
G1 X98.265 Y120.263 E39.12777
G1 X99.480 Y119.857 E39.31993
G1 X101.084 Y119.057 E39.58879
G1 X101.682 Y118.856 E39.68343
G1 X102.447 Y118.475 E39.81162
G1 X102.447 Y118.351 E39.83022
G1 X102.247 Y118.151 E39.87265
G1 X102.247 Y117.751 E39.93265
G1 X102.047 Y117.551 E39.97507
G1 X102.047 Y117.351 E40.00507
G1 X101.847 Y117.151 E40.04750
G1 X101.847 Y116.951 E40.07750
G1 X101.647 Y116.751 E40.11992
G1 X101.647 Y116.351 E40.17992
G1 X101.447 Y116.151 E40.22235
G1 X101.447 Y115.951 E40.25235
G1 X101.047 Y115.551 E40.33720
G1 X101.047 Y114.563 E40.48540
G1 X86.647 Y114.428 E42.64550
G1 X86.647 Y88.965 E46.46495
G10
G0 F9000 X107.304 Y130.635
;TYPE:WALL-INNER
G11
G1 F1800 X108.322 Y130.635 E46.61765
G1 X108.323 Y131.635 E46.76765
G1 X107.304 Y131.635 E46.92050
G1 X107.304 Y130.635 E47.07050
G0 F9000 X106.804 Y130.135
;TYPE:WALL-OUTER
G1 F1800 X108.822 Y130.135 E47.37320
G1 X108.823 Y132.135 E47.67320
G1 X106.804 Y132.135 E47.97605
G1 X106.804 Y130.135 E48.27605
G0 F9000 X107.154 Y130.395
G0 X108.054 Y131.385
G10
G0 X121.653 Y131.635
;TYPE:WALL-INNER
G11
G1 F1800 X121.652 Y130.635 E48.42605
G1 X122.464 Y130.635 E48.54785
G1 X122.464 Y131.635 E48.69785
G1 X121.653 Y131.635 E48.81950
G0 F9000 X121.153 Y132.135
;TYPE:WALL-OUTER
G1 F1800 X121.153 Y130.135 E49.11950
G1 X122.964 Y130.135 E49.39115
G1 X122.964 Y132.135 E49.69115
G1 X121.153 Y132.135 E49.96280
G0 F9000 X121.413 Y131.785
G0 X122.403 Y130.886
G0 X123.088 Y131.654
;TYPE:SUPPORT
G1 F1800 X149.221 Y131.654 E53.88275
G0 F9000 X148.297 Y131.654
G0 X148.318 Y132.715
G0 X148.318 Y133.640
G1 F1800 X148.318 Y128.401 E54.66860
G0 F9000 X148.305 Y129.323
G0 X144.971 Y129.272
G0 X144.985 Y128.349
G1 F1800 X144.985 Y133.640 E55.46225
G0 F9000 X144.985 Y132.715
G0 X141.652 Y132.715
G0 X141.652 Y133.640
G1 F1800 X141.652 Y128.298 E56.26355
G0 F9000 X141.638 Y129.221
G0 X143.227 Y129.245
G0 X143.241 Y128.321
G1 F1800 X127.753 Y128.321 E58.58675
G0 F9000 X128.320 Y128.311
G1 F1800 X128.320 Y133.640 E59.38610
G0 F9000 X128.320 Y132.715
G0 X124.987 Y132.715
G0 X124.987 Y133.640
G1 F1800 X124.987 Y128.375 E60.17585
G0 F9000 X124.987 Y127.185
G1 F1800 X124.987 Y120.057 E61.24505
G0 F9000 X124.575 Y120.883
G0 X127.907 Y122.249
G0 X128.320 Y121.423
G1 F1800 X128.320 Y128.282 E62.27390
G0 F9000 X128.734 Y127.456
G0 X131.240 Y123.915
G0 X131.653 Y123.089
G1 F1800 X131.653 Y133.640 E63.85655
G0 F9000 X131.653 Y132.715
G0 X134.986 Y132.715
G0 X134.986 Y133.640
G1 F1800 X134.986 Y125.248 E65.11535
G0 F9000 X134.655 Y124.988
G1 F1800 X95.438 Y124.988 E70.99790
G0 F9000 X94.990 Y125.365
G1 F1800 X94.990 Y133.640 E72.23915
G0 F9000 X94.990 Y132.715
G0 X91.657 Y132.715
G0 X91.657 Y133.640
G1 F1800 X91.657 Y128.238 E73.04945
G0 F9000 X91.671 Y129.163
G0 X88.337 Y129.214
G0 X88.324 Y128.290
G1 F1800 X88.324 Y133.640 E73.85195
G0 F9000 X88.324 Y132.715
G0 X84.991 Y132.715
G0 X84.991 Y133.640
G1 F1800 X84.991 Y128.341 E74.64680
G0 F9000 X86.251 Y128.321
G1 F1800 X102.162 Y128.321 E77.03345
G0 F9000 X102.145 Y129.245
G0 X104.972 Y129.300
G0 X104.989 Y128.377
G1 F1800 X104.989 Y133.640 E77.82290
G0 F9000 X104.989 Y132.715
G0 X105.754 Y131.654
G0 X106.678 Y131.654
G1 F1800 X80.271 Y131.654 E81.78395
G0 F9000 X81.197 Y131.654
G0 X81.658 Y132.715
G0 X81.658 Y133.640
G1 F1800 X81.658 Y128.392 E82.57115
G0 F9000 X81.670 Y129.317
G0 X94.239 Y129.166
G0 X98.735 Y124.075
G0 X98.323 Y123.247
G1 F1800 X98.323 Y133.640 E84.13010
G0 F9000 X98.323 Y132.715
G0 X101.656 Y132.715
G0 X101.656 Y133.640
G1 F1800 X101.656 Y121.481 E85.95395
G0 F9000 X101.306 Y121.655
G1 F1800 X128.788 Y121.655 E90.07625
G0 F9000 X128.375 Y122.482
G0 X121.805 Y125.559
G0 X121.654 Y126.471
G1 F1800 X121.654 Y91.390 E95.33840
G0 F9000 X121.654 Y92.315
G0 X124.987 Y92.315
G0 X124.987 Y91.390
G1 F1800 X124.987 Y117.582 E99.26720
G0 F9000 X124.621 Y118.322
G1 F1800 X118.671 Y118.322 E100.15970
G0 F9000 X118.321 Y118.532
G1 F1800 X118.321 Y126.040 E101.28590
G0 F9000 X118.405 Y125.120
G0 X114.978 Y125.089
G0 X114.988 Y126.016
G1 F1800 X114.988 Y91.390 E106.47980
G0 F9000 X114.988 Y92.315
G0 X111.655 Y92.315
G0 X111.655 Y91.390
G1 F1800 X111.655 Y116.914 E110.30840
G0 F9000 X111.221 Y118.322
G1 F1800 X105.271 Y118.322 E111.20090
G0 F9000 X104.989 Y117.863
G1 F1800 X104.989 Y91.390 E115.17185
G0 F9000 X104.989 Y92.315
G0 X101.656 Y92.315
G0 X101.656 Y91.390
G1 F1800 X101.656 Y112.142 E118.28465
G0 F9000 X101.663 Y111.219
G0 X111.039 Y111.265
G0 X111.040 Y111.563
G0 X104.797 Y114.795
G0 X103.871 Y114.989
G1 F1800 X126.021 Y114.989 E121.60715
G0 F9000 X125.097 Y114.795
G0 X118.654 Y111.563
G0 X118.655 Y111.267
G0 X128.312 Y111.220
G0 X128.320 Y112.146
G1 F1800 X128.320 Y91.390 E124.72055
G0 F9000 X128.320 Y92.315
G0 X131.653 Y92.315
G0 X131.653 Y91.390
G1 F1800 X131.653 Y112.116 E127.82945
G0 F9000 X131.645 Y111.190
G0 X134.979 Y111.160
G0 X134.986 Y112.086
G1 F1800 X134.986 Y91.390 E130.93385
G0 F9000 X134.986 Y92.315
G0 X138.319 Y92.315
G0 X138.319 Y91.390
G1 F1800 X138.319 Y112.056 E134.03375
G0 F9000 X138.312 Y111.129
G0 X140.497 Y111.199
G0 X141.421 Y111.656
G1 F1800 X89.071 Y111.656 E141.88625
G0 F9000 X89.997 Y111.198
G0 X91.664 Y111.125
G0 X91.657 Y112.049
G1 F1800 X91.657 Y91.390 E144.98510
G0 F9000 X91.657 Y92.315
G0 X89.997 Y92.225
G0 X89.071 Y91.658
G1 F1800 X141.421 Y91.658 E152.83760
G0 F9000 X140.497 Y92.225
G0 X140.497 Y94.991
G0 X141.421 Y94.991
G1 F1800 X89.071 Y94.991 E160.69010
G0 F9000 X89.997 Y94.991
G0 X89.997 Y98.324
G0 X89.071 Y98.324
G1 F1800 X141.421 Y98.324 E168.54260
G0 F9000 X140.497 Y98.324
G0 X140.497 Y101.657
G0 X141.421 Y101.657
G1 F1800 X89.096 Y101.657 E176.39135
G0 F9000 X89.974 Y102.088
G0 X89.997 Y104.990
G0 X89.071 Y104.990
G1 F1800 X141.421 Y104.990 E184.24385
G0 F9000 X140.497 Y104.990
G0 X140.497 Y108.323
G0 X141.421 Y108.323
G1 F1800 X89.071 Y108.323 E192.09635
G0 F9000 X89.997 Y108.323
G0 X94.997 Y111.156
G0 X94.990 Y112.080
G1 F1800 X94.990 Y91.390 E195.19985
G0 F9000 X94.990 Y92.315
G0 X98.323 Y92.315
G0 X98.323 Y91.390
G1 F1800 X98.323 Y112.111 E198.30800
G0 F9000 X98.330 Y111.188
G0 X111.039 Y111.265
G0 X111.040 Y111.563
G0 X107.407 Y119.715
G0 X106.221 Y120.843
G0 X105.391 Y120.949
G0 X104.989 Y120.116
G1 F1800 X104.989 Y127.359 E199.39445
G0 F9000 X104.698 Y126.481
G0 X105.062 Y126.193
G0 X108.141 Y125.717
G0 X108.322 Y126.625
G1 F1800 X108.322 Y91.390 E204.67970
G0 F9000 X108.322 Y92.315
G0 X118.321 Y92.315
G0 X118.321 Y91.390
G1 F1800 X118.321 Y117.596 E208.61060
G0 F9000 X119.175 Y117.143
G0 X118.281 Y114.529
G0 X117.648 Y114.024
G0 X117.013 Y114.729
G0 X115.212 Y117.469
G0 X115.564 Y118.322
G1 F1800 X113.847 Y118.322 E208.86815
G0 F9000 X114.501 Y117.669
G0 X112.247 Y114.023
G0 X111.413 Y114.929
G0 X109.395 Y119.497
G0 X111.738 Y119.463
G0 X111.655 Y118.541
G1 F1800 X111.655 Y126.133 E210.00695
G0 F9000 X111.579 Y125.211
G0 X117.752 Y124.960
G0 X124.665 Y125.998
G0 X131.297 Y128.327
G0 X132.225 Y129.092
G0 X138.304 Y129.169
G0 X138.319 Y128.247
G1 F1800 X138.319 Y133.640 E210.81590
;LAYER:1
M106 S127
G10
G0 F9000 X108.581 Y131.635 Z0.450
;TYPE:WALL-INNER
G11
G1 F2520 X106.702 Y131.635 E210.95682
G1 X106.702 Y130.635 E211.03182
G1 X108.581 Y130.635 E211.17275
G1 X108.581 Y131.635 E211.24775
G0 F9000 X109.081 Y132.135
;TYPE:WALL-OUTER
G1 F1920 X106.202 Y132.135 E211.46367
G1 X106.201 Y130.135 E211.61367
G1 X109.081 Y130.135 E211.82967
G1 X109.081 Y132.135 E211.97967
G0 F9000 X107.896 Y131.458
;TYPE:SKIN
G1 F1740 X108.121 Y130.879 E212.03353
G1 X107.033 Y131.261 E212.10220
G1 X107.131 Y130.809 E212.13689
G10
G0 F9000 X121.465 Y130.763
;TYPE:WALL-INNER
G11
G1 F2520 X121.465 Y130.635 E212.14649
G1 X123.110 Y130.635 E212.26986
G1 X123.110 Y131.635 E212.34486
G1 X121.466 Y131.635 E212.46816
G1 X121.465 Y130.763 E212.53356
G0 F9000 X120.966 Y130.135
;TYPE:WALL-OUTER
G1 F1920 X123.610 Y130.135 E212.73186
G1 X123.611 Y132.135 E212.88186
G1 X120.966 Y132.135 E213.08024
G1 X120.966 Y130.135 E213.23024
G0 F9000 X121.640 Y131.149
;TYPE:SKIN
G1 F1740 X122.009 Y131.134 E213.26630
G1 X122.811 Y131.039 E213.33523
G1 X122.745 Y131.459 E213.36711
G10
G0 F9000 X124.987 Y132.890
;TYPE:SUPPORT
G11
G1 F2040 X124.987 Y129.136 E213.64866
G0 F9000 X124.989 Y129.311
G0 X132.237 Y129.095
G0 X130.604 Y127.979
G0 X125.042 Y126.230
G0 X124.987 Y126.394
G1 F2040 X124.987 Y120.894 E214.06116
G0 F9000 X124.909 Y121.049
G0 X128.242 Y122.416
G0 X128.320 Y122.261
G1 F2040 X128.320 Y127.443 E214.44981
G0 F9000 X128.398 Y127.287
G0 X131.298 Y128.328
G0 X132.237 Y129.095
G0 X128.323 Y129.243
G0 X128.320 Y129.068
G1 F2040 X128.320 Y132.890 E214.73646
G0 F9000 X128.320 Y132.715
G0 X131.653 Y132.715
G0 X131.653 Y132.890
G1 F2040 X131.653 Y123.927 E215.40869
G0 F9000 X131.576 Y124.083
G0 X134.862 Y126.431
G0 X134.986 Y126.309
G1 F2040 X134.986 Y132.890 E215.90226
G0 F9000 X134.986 Y132.715
G0 X138.319 Y132.715
G0 X138.319 Y132.890
G1 F2040 X138.319 Y128.996 E216.19431
G0 F9000 X138.316 Y129.169
G0 X135.255 Y129.166
G0 X135.200 Y128.488
G0 X121.683 Y125.539
G0 X121.654 Y125.710
G1 F2040 X121.654 Y92.140 E218.71206
G0 F9000 X121.654 Y92.315
G0 X124.987 Y92.315
G0 X124.987 Y92.140
G1 F2040 X124.987 Y111.426 E220.15851
G0 F9000 X124.987 Y111.944
G1 F2040 X124.987 Y115.521 E220.42679
G0 F9000 X124.864 Y115.398
G0 X118.654 Y111.563
G0 X118.655 Y111.267
G0 X128.319 Y111.220
G0 X128.320 Y111.396
G1 F2040 X128.320 Y92.140 E221.87099
G0 F9000 X128.320 Y92.315
G0 X131.653 Y92.315
G0 X131.653 Y92.140
G1 F2040 X131.653 Y111.365 E223.31286
G0 F9000 X131.652 Y111.190
G0 X134.985 Y111.159
G0 X134.986 Y111.335
G1 F2040 X134.986 Y92.140 E224.75249
G0 F9000 X134.986 Y92.315
G0 X138.319 Y92.315
G0 X138.319 Y92.140
G1 F2040 X138.319 Y111.305 E226.18986
G0 F9000 X138.319 Y111.129
G0 X118.655 Y111.267
G0 X118.654 Y111.563
G0 X122.998 Y120.303
G0 X135.255 Y129.166
G0 X141.649 Y129.221
G0 X141.652 Y129.048
G1 F2040 X141.652 Y132.890 E226.47801
G0 F9000 X141.652 Y132.715
G0 X144.985 Y132.715
G0 X144.985 Y132.890
G1 F2040 X144.985 Y129.099 E226.76234
G0 F9000 X144.983 Y129.272
G0 X148.316 Y129.323
G0 X148.318 Y129.150
G1 F2040 X148.318 Y132.890 E227.04284
G0 F9000 X148.318 Y132.715
G0 X122.712 Y125.608
G0 X118.337 Y125.113
G0 X118.321 Y125.286
G1 F2040 X118.321 Y119.285 E227.49291
G0 F9000 X118.305 Y119.457
G0 X114.988 Y119.315
G0 X114.988 Y119.140
G1 F2040 X114.988 Y125.265 E227.95229
G0 F9000 X114.986 Y125.089
G0 X111.641 Y125.206
G0 X111.655 Y125.381
G1 F2040 X111.655 Y119.295 E228.40874
G0 F9000 X111.670 Y119.469
G0 X109.395 Y119.497
G0 X111.827 Y114.243
G0 X112.466 Y114.142
G0 X114.922 Y117.589
G0 X114.988 Y117.751
G1 F2040 X114.988 Y92.140 E230.32956
G0 F9000 X114.988 Y92.315
G0 X111.655 Y92.315
G0 X111.655 Y92.140
G1 F2040 X111.655 Y115.453 E232.07804
G0 F9000 X111.520 Y115.342
G0 X111.613 Y114.529
G0 X112.247 Y114.023
G0 X113.081 Y115.329
G0 X117.648 Y114.024
G0 X118.481 Y114.929
G0 X118.444 Y115.212
G0 X118.321 Y115.335
G1 F2040 X118.321 Y92.140 E233.81766
G0 F9000 X118.321 Y92.315
G0 X108.322 Y92.315
G0 X108.322 Y92.140
G1 F2040 X108.322 Y125.863 E236.34689
G0 F9000 X108.294 Y125.690
G0 X104.911 Y126.379
G0 X104.989 Y126.535
G1 F2040 X104.989 Y120.954 E236.76546
G0 F9000 X105.066 Y121.111
G0 X101.733 Y122.476
G0 X101.656 Y122.319
G1 F2040 X101.656 Y127.602 E237.16169
G0 F9000 X101.656 Y129.070
G1 F2040 X101.656 Y132.890 E237.44819
G0 F9000 X101.656 Y132.715
G0 X104.989 Y132.715
G0 X104.989 Y132.890
G1 F2040 X104.989 Y129.139 E237.72951
G0 F9000 X104.986 Y129.311
G0 X98.318 Y129.175
G0 X98.323 Y129.002
G1 F2040 X98.323 Y132.890 E238.02111
G0 F9000 X98.323 Y132.715
G0 X94.990 Y132.715
G0 X94.990 Y132.890
G1 F2040 X94.990 Y126.252 E238.51896
G0 F9000 X95.067 Y126.409
G0 X98.444 Y124.218
G0 X98.323 Y124.093
G1 F2040 X98.323 Y128.968 E238.88459
G0 F9000 X98.246 Y128.811
G0 X91.659 Y129.163
G0 X91.657 Y128.988
G1 F2040 X91.657 Y132.890 E239.17724
G0 F9000 X91.657 Y132.715
G0 X88.324 Y132.715
G0 X88.324 Y132.890
G1 F2040 X88.324 Y129.039 E239.46606
G0 F9000 X88.326 Y129.214
G0 X84.992 Y129.266
G0 X84.991 Y129.090
G1 F2040 X84.991 Y132.890 E239.75106
G0 F9000 X84.991 Y132.715
G0 X81.658 Y132.715
G0 X81.658 Y132.890
G1 F2040 X81.658 Y129.142 E240.03216
G0 F9000 X81.659 Y129.317
G0 X94.239 Y129.166
G0 X106.497 Y120.703
G0 X107.407 Y119.715
G0 X111.039 Y111.265
G0 X91.657 Y111.125
G0 X91.657 Y111.299
G1 F2040 X91.657 Y92.140 E241.46909
G0 F9000 X91.657 Y92.315
G0 X94.990 Y92.315
G0 X94.990 Y92.140
G1 F2040 X94.990 Y111.330 E242.90834
G0 F9000 X94.990 Y111.156
G0 X98.323 Y111.188
G0 X98.323 Y111.361
G1 F2040 X98.323 Y92.140 E244.34991
G0 F9000 X98.323 Y92.315
G0 X101.656 Y92.315
G0 X101.656 Y92.140
G1 F2040 X101.656 Y111.393 E245.79389
G0 F9000 X101.656 Y111.219
G0 X104.990 Y111.250
G0 X104.989 Y111.424
G1 F2040 X104.989 Y92.140 E247.24019
G0 F9000 X104.989 Y92.315
G0 X111.040 Y111.563
G0 X105.086 Y111.901
G0 X104.989 Y111.755
G1 F2040 X104.989 Y115.603 E247.52879
;LAYER:2
M106 S255
G10
G0 F9000 X106.164 Y130.635 Z0.600
;TYPE:WALL-INNER
G11
G1 F3300 X108.577 Y130.635 E247.70976
G1 X108.576 Y131.635 E247.78476
G1 X106.165 Y131.635 E247.96559
G1 X106.164 Y130.635 E248.04059
G0 F9000 X105.664 Y130.135
;TYPE:WALL-OUTER
G1 F2100 X109.077 Y130.135 E248.29656
G1 X109.076 Y132.135 E248.44656
G1 X105.665 Y132.135 E248.70239
G1 X105.664 Y130.135 E248.85239
G0 F9000 X106.413 Y130.809
;TYPE:SKIN
G1 F1800 X107.092 Y131.133 E248.92123
G1 X108.085 Y131.420 E248.98991
G1 X107.828 Y130.809 E249.03963
G10
G0 F9000 X121.339 Y131.065
;TYPE:WALL-INNER
G11
G1 F3300 X121.339 Y130.635 E249.07188
G1 X123.666 Y130.635 E249.24640
G1 X123.667 Y131.635 E249.32140
G1 X121.340 Y131.635 E249.49593
G1 X121.339 Y131.065 E249.53868
G0 F9000 X120.840 Y131.206
;TYPE:WALL-OUTER
