;FLAVOR:UltiGCode
;TIME:1094
;MATERIAL:2452
;MATERIAL2:0

;Layer count: 27
;LAYER:0
M107
G0 F9000 X119.791 Y90.022 Z0.300
;TYPE:SKIRT
G1 F1800 X143.372 Y90.022 E3.53715
G1 X143.372 Y94.403 E4.19430
G1 X143.371 Y97.977 E4.73040
G1 X143.372 Y98.286 E4.77675
G1 X143.371 Y101.865 E5.31360
G1 X143.384 Y105.930 E5.92335
G1 X143.371 Y105.930 E5.92530
G1 X143.371 Y107.390 E6.14430
G1 X143.372 Y107.700 E6.19080
G1 X143.371 Y111.280 E6.72780
G1 X143.378 Y115.660 E7.38480
G1 X119.954 Y115.660 E10.89840
G1 X119.784 Y111.252 E11.56010
G1 X119.785 Y110.529 E11.66855
G1 X119.784 Y110.135 E11.72765
G1 X119.785 Y109.157 E11.87435
G1 X119.784 Y108.759 E11.93405
G1 X119.785 Y108.103 E12.03245
G1 X119.784 Y107.708 E12.09170
G1 X119.785 Y106.407 E12.28685
G1 X119.784 Y105.930 E12.35840
G1 X119.678 Y105.930 E12.37430
G1 X119.750 Y102.629 E12.86956
G1 X119.717 Y99.751 E13.30129
G1 X119.784 Y99.751 E13.31134
G1 X119.784 Y99.272 E13.38319
G1 X119.785 Y97.973 E13.57804
G1 X119.785 Y97.329 E13.67464
G1 X119.784 Y95.875 E13.89274
G1 X119.784 Y94.417 E14.11144
G1 X119.791 Y90.022 E14.77069
G0 F9000 X120.290 Y90.522
G1 F1800 X142.872 Y90.522 E18.15799
G1 X142.871 Y97.976 E19.27609
G1 X142.872 Y98.286 E19.32259
G1 X142.871 Y101.865 E19.85944
G1 X142.882 Y105.430 E20.39420
G1 X142.872 Y105.430 E20.39570
G1 X142.871 Y107.390 E20.68970
G1 X142.872 Y107.700 E20.73620
G1 X142.871 Y111.280 E21.27320
G1 X142.877 Y115.160 E21.85520
G1 X120.435 Y115.160 E25.22150
G1 X120.284 Y111.243 E25.80948
G1 X120.285 Y110.530 E25.91643
G1 X120.284 Y110.134 E25.97583
G1 X120.285 Y109.158 E26.12223
G1 X120.284 Y108.759 E26.18209
G1 X120.285 Y108.104 E26.28034
G1 X120.284 Y107.708 E26.33974
G1 X120.285 Y106.407 E26.53489
G1 X120.284 Y105.603 E26.65549
G1 X120.284 Y105.430 E26.68144
G1 X120.189 Y105.430 E26.69569
G1 X120.250 Y102.631 E27.11564
G1 X120.223 Y100.251 E27.47266
G1 X120.285 Y100.251 E27.48196
G1 X120.284 Y99.272 E27.62881
G1 X120.285 Y97.973 E27.82366
G1 X120.285 Y97.329 E27.92026
G1 X120.284 Y95.875 E28.13836
G1 X120.284 Y94.417 E28.35706
G1 X120.290 Y90.522 E28.94131
G10
G0 F9000 X124.284 Y94.522
;TYPE:WALL-INNER
G11
G1 F1800 X138.872 Y94.522 E31.12951
G1 X138.871 Y97.977 E31.64776
G1 X138.872 Y98.291 E31.69486
G1 X138.871 Y101.430 E32.16571
G1 X124.278 Y101.430 E34.35466
G1 X124.285 Y100.482 E34.49686
G1 X124.284 Y99.273 E34.67821
G1 X124.285 Y97.329 E34.96981
G1 X124.284 Y94.522 E35.39086
G0 F9000 X123.785 Y94.022
;TYPE:WALL-OUTER
G1 F1800 X139.372 Y94.022 E37.72891
G1 X139.372 Y101.930 E38.91511
G1 X123.767 Y101.930 E41.25586
G1 X123.784 Y101.132 E41.37559
G1 X123.785 Y94.022 E42.44209
G0 F9000 X124.749 Y94.697
;TYPE:SKIN
G1 F1800 X131.306 Y101.254 E43.83304
G0 F9000 X130.599 Y101.254
G1 F1800 X124.458 Y95.113 E45.13574
G0 F9000 X124.457 Y95.820
G1 F1800 X129.892 Y101.254 E46.28857
G0 F9000 X129.185 Y101.254
G1 F1800 X124.457 Y96.526 E47.29153
G0 F9000 X124.456 Y97.232
G1 F1800 X128.478 Y101.254 E48.14473
G0 F9000 X127.771 Y101.254
G1 F1800 X124.456 Y97.939 E48.84795
G0 F9000 X124.455 Y98.646
G1 F1800 X127.064 Y101.254 E49.40129
G0 F9000 X126.357 Y101.254
G1 F1800 X124.455 Y99.352 E49.80477
G0 F9000 X125.456 Y94.697
G1 F1800 X132.014 Y101.254 E51.19582
G0 F9000 X132.721 Y101.254
G1 F1800 X126.163 Y94.697 E52.58688
G0 F9000 X126.870 Y94.697
G1 F1800 X133.428 Y101.254 E53.97794
G0 F9000 X134.135 Y101.254
G1 F1800 X127.577 Y94.697 E55.36899
G0 F9000 X128.284 Y94.697
G1 F1800 X134.842 Y101.254 E56.76005
G0 F9000 X135.549 Y101.254
G1 F1800 X128.991 Y94.697 E58.15110
G0 F9000 X129.698 Y94.697
G1 F1800 X136.256 Y101.254 E59.54216
G0 F9000 X136.963 Y101.254
G1 F1800 X130.406 Y94.697 E60.93311
G0 F9000 X131.113 Y94.697
G1 F1800 X137.670 Y101.254 E62.32406
G0 F9000 X138.377 Y101.254
G1 F1800 X131.820 Y94.697 E63.71501
G0 F9000 X132.527 Y94.697
G1 F1800 X138.695 Y100.865 E65.02344
G0 F9000 X138.695 Y100.158
G1 F1800 X133.234 Y94.697 E66.18189
G0 F9000 X133.941 Y94.697
G1 F1800 X138.695 Y99.451 E67.19037
G0 F9000 X138.695 Y98.743
G1 F1800 X134.648 Y94.697 E68.04876
G0 F9000 X135.355 Y94.697
G1 F1800 X138.695 Y98.036 E68.75718
G0 F9000 X138.696 Y97.330
G1 F1800 X136.062 Y94.697 E69.31583
G0 F9000 X136.770 Y94.697
G1 F1800 X138.696 Y96.623 E69.72439
G0 F9000 X138.696 Y95.916
G1 F1800 X137.477 Y94.697 E69.98298
G0 F9000 X138.184 Y94.697
G1 F1800 X138.696 Y95.209 E70.09159
G0 F9000 X125.650 Y101.254
G1 F1800 X124.454 Y100.059 E70.34520
G0 F9000 X124.453 Y100.765
G1 F1800 X124.942 Y101.254 E70.44893
G10
G0 F9000 X124.285 Y104.950
;TYPE:WALL-INNER
G11
G1 F1800 X124.272 Y104.251 E70.55380
G1 X138.872 Y104.251 E72.74380
G1 X138.871 Y107.390 E73.21465
G1 X138.872 Y107.705 E73.26190
G1 X138.871 Y111.160 E73.78015
G1 X124.284 Y111.160 E75.96820
G1 X124.285 Y110.535 E76.06195
G1 X124.284 Y110.133 E76.12225
G1 X124.285 Y109.160 E76.26820
G1 X124.284 Y108.758 E76.32850
G1 X124.285 Y108.109 E76.42585
G1 X124.284 Y107.706 E76.48630
G1 X124.285 Y106.410 E76.68070
G1 X124.284 Y105.604 E76.80160
G1 X124.285 Y104.950 E76.89970
G0 F9000 X123.785 Y104.954
;TYPE:WALL-OUTER
G1 F1800 X123.765 Y103.841 E77.06667
G1 X123.764 Y103.751 E77.08018
G1 X139.371 Y103.751 E79.42123
G1 X139.372 Y111.660 E80.60758
G1 X123.803 Y111.660 E82.94293
G1 X123.784 Y111.183 E83.01453
G1 X123.785 Y110.535 E83.11173
G1 X123.784 Y108.757 E83.37843
G1 X123.785 Y108.109 E83.47563
G1 X123.784 Y105.603 E83.85153
G1 X123.785 Y104.954 E83.94888
G0 F9000 X124.458 Y105.013
;TYPE:SKIN
G1 F1800 X130.430 Y110.985 E85.21574
G0 F9000 X129.723 Y110.985
G1 F1800 X124.458 Y105.720 E86.33261
G0 F9000 X124.458 Y106.427
G1 F1800 X129.016 Y110.985 E87.29951
G0 F9000 X128.309 Y110.985
G1 F1800 X124.458 Y107.134 E88.11643
G0 F9000 X124.458 Y107.841
G1 F1800 X127.602 Y110.985 E88.78337
G0 F9000 X126.895 Y110.985
G1 F1800 X124.458 Y108.548 E89.30034
G0 F9000 X124.458 Y109.255
G1 F1800 X126.188 Y110.985 E89.66733
G0 F9000 X125.481 Y110.985
G1 F1800 X124.458 Y109.962 E89.88434
G0 F9000 X124.458 Y110.669
G1 F1800 X124.773 Y110.985 E89.95127
G0 F9000 X131.137 Y110.985
G1 F1800 X124.578 Y104.426 E91.34264
G0 F9000 X125.285 Y104.426
G1 F1800 X131.845 Y110.985 E92.73412
G0 F9000 X132.552 Y110.985
G1 F1800 X125.992 Y104.426 E94.12560
G0 F9000 X126.700 Y104.426
G1 F1800 X133.259 Y110.985 E95.51697
G0 F9000 X133.966 Y110.985
G1 F1800 X127.407 Y104.426 E96.90835
G0 F9000 X128.114 Y104.426
G1 F1800 X134.673 Y110.985 E98.29972
G0 F9000 X135.380 Y110.985
G1 F1800 X128.821 Y104.426 E99.69110
G0 F9000 X129.528 Y104.426
G1 F1800 X136.087 Y110.985 E101.08247
G0 F9000 X136.794 Y110.985
G1 F1800 X130.235 Y104.426 E102.47384
G0 F9000 X130.942 Y104.426
G1 F1800 X137.501 Y110.985 E103.86522
G0 F9000 X138.208 Y110.985
G1 F1800 X131.649 Y104.426 E105.25659
G0 F9000 X132.356 Y104.426
G1 F1800 X138.696 Y110.765 E106.60140
G0 F9000 X138.696 Y110.058
G1 F1800 X133.064 Y104.426 E107.79613
G0 F9000 X133.771 Y104.426
G1 F1800 X138.696 Y109.351 E108.84088
G0 F9000 X138.696 Y108.644
G1 F1800 X134.478 Y104.426 E109.73565
G0 F9000 X135.185 Y104.426
G1 F1800 X138.696 Y107.937 E110.48045
G0 F9000 X138.696 Y107.229
G1 F1800 X135.892 Y104.426 E111.07516
G0 F9000 X136.599 Y104.426
G1 F1800 X138.696 Y106.522 E111.51990
G0 F9000 X138.696 Y105.815
G1 F1800 X137.306 Y104.426 E111.81465
G0 F9000 X138.013 Y104.426
G1 F1800 X138.696 Y105.108 E111.95943
;LAYER:1
M106 S127
G10
G0 F9000 X138.868 Y101.430 Z0.450
;TYPE:WALL-INNER
G11
G1 F2520 X113.579 Y101.430 E113.85611
G1 X113.585 Y100.755 E113.90674
G1 X113.584 Y100.078 E113.95751
G1 X113.584 Y98.719 E114.05944
G1 X113.572 Y97.976 E114.11517
G1 X113.571 Y95.876 E114.27267
G1 X113.572 Y95.499 E114.30094
G1 X113.571 Y94.522 E114.37422
G1 X138.869 Y94.522 E116.27157
G1 X138.868 Y97.977 E116.53069
G1 X138.869 Y98.501 E116.56999
G1 X138.868 Y101.430 E116.78967
G0 F9000 X139.369 Y101.930
;TYPE:WALL-OUTER
G1 F1920 X113.071 Y101.930 E118.76202
G1 X113.084 Y101.131 E118.82195
G1 X113.085 Y100.755 E118.85015
G1 X113.084 Y98.723 E119.00255
G1 X113.072 Y97.976 E119.05858
G1 X113.071 Y94.022 E119.35513
G1 X139.369 Y94.022 E121.32748
G1 X139.369 Y101.930 E121.92058
G0 F9000 X138.691 Y100.663
;TYPE:SKIN
G1 F1740 X138.100 Y101.255 E121.98332
G0 F9000 X137.392 Y101.255
G1 F1740 X138.691 Y99.956 E122.12110
G0 F9000 X138.691 Y99.249
G1 F1740 X136.685 Y101.255 E122.33387
G0 F9000 X135.978 Y101.255
G1 F1740 X138.691 Y98.542 E122.62163
G0 F9000 X138.692 Y97.834
G1 F1740 X135.271 Y101.255 E122.98448
G0 F9000 X134.564 Y101.255
G1 F1740 X138.692 Y97.127 E123.42232
G0 F9000 X138.692 Y96.420
G1 F1740 X133.857 Y101.255 E123.93515
G0 F9000 X133.150 Y101.255
G1 F1740 X138.692 Y95.713 E124.52297
G0 F9000 X138.692 Y95.006
G1 F1740 X132.443 Y101.255 E125.18577
G0 F9000 X131.736 Y101.255
G1 F1740 X138.294 Y94.697 E125.88135
G0 F9000 X137.587 Y94.697
G1 F1740 X131.029 Y101.255 E126.57693
G0 F9000 X130.321 Y101.255
G1 F1740 X136.880 Y94.697 E127.27257
G0 F9000 X136.173 Y94.697
G1 F1740 X129.614 Y101.255 E127.96820
G0 F9000 X128.907 Y101.255
G1 F1740 X135.466 Y94.697 E128.66384
G0 F9000 X134.758 Y94.697
G1 F1740 X128.200 Y101.255 E129.35942
G0 F9000 X127.493 Y101.255
G1 F1740 X134.051 Y94.697 E130.05500
G0 F9000 X133.344 Y94.697
G1 F1740 X126.786 Y101.255 E130.75058
G0 F9000 X126.079 Y101.255
G1 F1740 X132.637 Y94.697 E131.44616
G0 F9000 X131.930 Y94.697
G1 F1740 X125.372 Y101.255 E132.14174
G0 F9000 X124.665 Y101.255
G1 F1740 X131.223 Y94.697 E132.83732
G0 F9000 X130.516 Y94.697
G1 F1740 X123.957 Y101.255 E133.53296
G0 F9000 X123.250 Y101.255
G1 F1740 X129.809 Y94.697 E134.22859
G0 F9000 X129.102 Y94.697
G1 F1740 X122.543 Y101.255 E134.92422
G0 F9000 X121.836 Y101.255
G1 F1740 X128.395 Y94.697 E135.61986
G0 F9000 X127.687 Y94.697
G1 F1740 X121.129 Y101.255 E136.31544
G0 F9000 X120.422 Y101.255
G1 F1740 X126.980 Y94.697 E137.01102
G0 F9000 X126.273 Y94.697
G1 F1740 X119.715 Y101.255 E137.70660
G0 F9000 X119.008 Y101.255
G1 F1740 X125.566 Y94.697 E138.40218
G0 F9000 X124.859 Y94.697
G1 F1740 X118.301 Y101.255 E139.09776
G0 F9000 X117.593 Y101.255
G1 F1740 X124.152 Y94.697 E139.79340
G0 F9000 X123.445 Y94.697
G1 F1740 X116.886 Y101.255 E140.48903
G0 F9000 X116.179 Y101.255
G1 F1740 X122.738 Y94.697 E141.18466
G0 F9000 X122.031 Y94.697
G1 F1740 X115.472 Y101.255 E141.88030
G0 F9000 X114.765 Y101.255
G1 F1740 X121.323 Y94.697 E142.57588
G0 F9000 X120.616 Y94.697
G1 F1740 X114.058 Y101.255 E143.27146
G0 F9000 X113.755 Y100.851
G1 F1740 X119.909 Y94.697 E143.92419
G0 F9000 X119.202 Y94.697
G1 F1740 X113.756 Y100.143 E144.50183
G0 F9000 X113.757 Y99.434
G1 F1740 X118.495 Y94.697 E145.00431
G0 F9000 X117.788 Y94.697
G1 F1740 X113.758 Y98.726 E145.43171
G0 F9000 X113.748 Y98.030
G1 F1740 X117.081 Y94.697 E145.78522
G0 F9000 X116.374 Y94.697
G1 F1740 X113.746 Y97.324 E146.06391
G0 F9000 X113.746 Y96.617
G1 F1740 X115.667 Y94.697 E146.26761
G0 F9000 X114.960 Y94.697
G1 F1740 X113.745 Y95.911 E146.39643
G0 F9000 X113.745 Y95.204
G1 F1740 X114.252 Y94.697 E146.45021
G10
G0 F9000 X113.584 Y104.542
;TYPE:WALL-INNER
G11
G1 F2520 X113.577 Y104.251 E146.47204
G1 X138.869 Y104.251 E148.36894
G1 X138.868 Y107.180 E148.58861
G1 X138.869 Y107.705 E148.62799
G1 X138.869 Y111.160 E148.88711
G1 X117.523 Y111.160 E150.48806
G1 X117.099 Y111.952 E150.55544
G1 X117.466 Y112.502 E150.60503
G1 X117.507 Y112.612 E150.61383
G1 X117.561 Y112.860 E150.63287
G1 X117.676 Y113.197 E150.65958
G1 X117.787 Y113.414 E150.67786
G1 X118.032 Y113.735 E150.70814
G1 X118.232 Y113.909 E150.72802
G1 X118.458 Y114.051 E150.74804
G1 X118.847 Y114.195 E150.77915
G1 X119.110 Y114.233 E150.79908
G1 X119.279 Y114.234 E150.81176
G1 X119.940 Y114.233 E150.86133
G1 X123.681 Y114.233 E151.14191
G1 X124.066 Y114.277 E151.17097
G1 X124.137 Y114.306 E151.17672
G1 X124.177 Y114.340 E151.18066
G1 X124.199 Y114.387 E151.18455
G1 X124.211 Y114.441 E151.18870
G1 X124.216 Y114.515 E151.19426
G1 X124.214 Y114.603 E151.20086
G1 X124.155 Y114.920 E151.22505
G1 X123.872 Y115.584 E151.27918
G1 X123.580 Y116.239 E151.33297
G1 X123.305 Y116.859 E151.38384
G1 X122.446 Y118.807 E151.54351
G1 X122.167 Y119.448 E151.59594
G1 X121.885 Y120.106 E151.64963
G1 X121.749 Y120.476 E151.67920
G1 X121.664 Y120.166 E151.70331
G1 X121.340 Y119.400 E151.76568
G1 X121.120 Y118.917 E151.80549
G1 X120.905 Y118.446 E151.84432
G1 X120.679 Y117.955 E151.88486
G1 X120.460 Y117.484 E151.92382
G1 X120.239 Y117.011 E151.96297
G1 X119.792 Y116.056 E152.04206
G1 X119.556 Y115.556 E152.08352
G1 X119.328 Y115.074 E152.12351
G1 X119.045 Y114.666 E152.16075
G1 X118.853 Y114.463 E152.18171
G1 X118.606 Y114.261 E152.20564
G1 X118.294 Y114.094 E152.23218
G1 X117.922 Y114.000 E152.26096
G1 X117.508 Y114.018 E152.29204
G1 X117.159 Y114.121 E152.31933
G1 X116.836 Y114.321 E152.34782
G1 X116.595 Y114.564 E152.37349
G1 X116.407 Y114.850 E152.39916
G1 X116.164 Y115.368 E152.44207
G1 X115.845 Y116.055 E152.49888
G1 X115.197 Y117.443 E152.61377
G1 X115.026 Y117.811 E152.64420
G1 X114.161 Y115.957 E152.79764
G1 X113.817 Y115.213 E152.85912
G1 X113.597 Y114.767 E152.89642
G1 X113.400 Y114.494 E152.92167
G1 X113.089 Y114.228 E152.95236
G1 X112.737 Y114.061 E152.98158
G1 X112.312 Y113.993 E153.01386
G1 X111.881 Y114.048 E153.04645
G1 X111.524 Y114.211 E153.07588
G1 X111.233 Y114.432 E153.10329
G1 X111.015 Y114.657 E153.12678
G1 X110.722 Y115.076 E153.16513
G1 X110.465 Y115.620 E153.21025
G1 X110.225 Y116.128 E153.25239
G1 X109.752 Y117.138 E153.33604
G1 X109.273 Y118.171 E153.42143
G1 X109.039 Y118.680 E153.46345
G1 X108.799 Y119.209 E153.50702
G1 X108.558 Y119.742 E153.55089
G1 X108.345 Y120.298 E153.59554
G1 X108.307 Y120.502 E153.61111
G1 X108.165 Y120.101 E153.64301
G1 X107.883 Y119.446 E153.69650
G1 X107.604 Y118.805 E153.74893
G1 X107.325 Y118.169 E153.80102
G1 X106.764 Y116.898 E153.90521
G1 X106.478 Y116.255 E153.95799
G1 X106.186 Y115.597 E154.01199
G1 X105.943 Y115.054 E154.05660
G1 X105.877 Y114.843 E154.07318
G1 X105.840 Y114.626 E154.08969
G1 X105.835 Y114.535 E154.09653
G1 X105.846 Y114.410 E154.10594
G1 X105.878 Y114.335 E154.11206
G1 X105.898 Y114.318 E154.11402
G1 X106.028 Y114.267 E154.12450
G1 X106.194 Y114.241 E154.13710
G1 X107.015 Y114.233 E154.19868
G1 X110.759 Y114.233 E154.47948
G1 X110.899 Y114.234 E154.48998
G1 X111.006 Y114.228 E154.49801
G1 X111.395 Y114.138 E154.52796
G1 X111.649 Y114.021 E154.54893
G1 X111.925 Y113.818 E154.57463
G1 X112.021 Y113.733 E154.58425
G1 X112.255 Y113.430 E154.61296
G1 X112.384 Y113.181 E154.63399
G1 X112.536 Y112.636 E154.67643
G1 X112.600 Y112.475 E154.68942
G1 X112.686 Y112.363 E154.70001
G1 X112.746 Y112.319 E154.70559
G1 X112.905 Y112.238 E154.71898
G1 X113.554 Y112.051 E154.76963
G1 X113.647 Y111.228 E154.83175
G1 X113.610 Y111.175 E154.83660
G1 X113.609 Y111.076 E154.84402
G1 X113.610 Y110.644 E154.87642
G1 X113.609 Y110.335 E154.89960
G1 X113.610 Y109.957 E154.92795
G1 X113.585 Y108.741 E155.01917
G1 X113.584 Y107.706 E155.09679
G1 X113.585 Y106.957 E155.15297
G1 X113.584 Y105.605 E155.25437
G1 X113.585 Y105.229 E155.28257
G1 X113.584 Y104.542 E155.33409
G0 F9000 X113.362 Y114.529
G0 X112.310 Y114.046
G0 X111.054 Y114.690
G0 X108.305 Y120.797
G0 X108.839 Y121.993
G0 X109.962 Y122.252
G0 X113.658 Y121.912
G1 F2520 X115.039 Y121.874 E155.43771
G1 X115.904 Y121.892 E155.50260
G1 X116.805 Y121.931 E155.57023
G1 X117.724 Y121.993 E155.63932
G1 X118.651 Y122.084 E155.70917
G1 X119.569 Y122.210 E155.77867
G1 X120.077 Y122.301 E155.81738
G1 X120.347 Y122.312 E155.83764
G1 X120.650 Y122.277 E155.86052
G1 X120.932 Y122.200 E155.88244
G1 X121.154 Y122.091 E155.90099
G1 X121.374 Y121.931 E155.92139
G1 X121.574 Y121.698 E155.94442
G1 X121.683 Y121.476 E155.96297
G1 X121.788 Y122.016 E156.00423
