;FLAVOR:UltiGCode
;TIME:1989
;MATERIAL:4490
;MATERIAL2:0

;Layer count: 36
;LAYER:0
M107
G0 F9000 X125.593 Y80.527 Z0.300
;TYPE:SKIRT
G1 F1800 X172.093 Y80.527 E6.97500
G1 X172.093 Y89.027 E8.25000
G1 X161.995 Y89.027 E9.76470
G1 X161.974 Y89.264 E9.80039
G1 X161.718 Y90.240 E9.95174
G1 X161.379 Y91.001 E10.07671
G1 X161.066 Y91.706 E10.19241
G1 X160.790 Y92.326 E10.29421
G1 X160.492 Y92.999 E10.40461
G1 X160.217 Y93.625 E10.50717
G1 X160.120 Y93.846 E10.54338
G1 X160.862 Y94.129 E10.66250
G1 X161.676 Y94.458 E10.79419
G1 X162.480 Y94.802 E10.92537
G1 X163.301 Y95.171 E11.06038
G1 X164.090 Y95.546 E11.19142
G1 X164.810 Y95.906 E11.31217
G1 X165.621 Y96.332 E11.44958
G1 X166.409 Y96.768 E11.58467
G1 X167.187 Y97.224 E11.71993
G1 X167.961 Y97.702 E11.85639
G1 X168.730 Y98.207 E11.99439
G1 X169.503 Y98.745 E12.13566
G1 X170.260 Y99.312 E12.27753
G1 X172.093 Y100.815 E12.63309
G1 X172.093 Y107.029 E13.56519
G1 X168.706 Y108.877 E14.14394
G1 X166.321 Y107.342 E14.56939
G1 X165.455 Y106.840 E14.71953
G1 X164.581 Y106.383 E14.86747
G1 X163.643 Y105.936 E15.02333
G1 X162.744 Y105.542 E15.17056
G1 X161.718 Y105.133 E15.33624
G1 X160.781 Y104.794 E15.48571
G1 X159.817 Y104.476 E15.63797
G1 X158.785 Y104.170 E15.79943
G1 X157.860 Y103.924 E15.94301
G1 X156.801 Y103.675 E16.10619
G1 X155.691 Y103.450 E16.27607
G1 X154.839 Y103.303 E16.40576
G1 X154.849 Y103.441 E16.42652
G1 X154.750 Y104.472 E16.58188
G1 X154.574 Y105.194 E16.69335
G1 X154.172 Y106.182 E16.85335
G1 X153.513 Y107.188 E17.03374
G1 X152.737 Y107.973 E17.19931
G1 X152.063 Y108.466 E17.32457
G1 X151.435 Y108.817 E17.43249
G1 X150.418 Y109.201 E17.59555
G1 X149.429 Y109.376 E17.74620
G1 X148.754 Y109.405 E17.84755
G1 X147.745 Y109.306 E17.99962
G1 X147.038 Y109.124 E18.10913
G1 X146.509 Y108.930 E18.19365
G1 X145.904 Y108.634 E18.29468
G1 X145.392 Y108.309 E18.38564
G1 X144.947 Y107.967 E18.46983
G1 X144.403 Y107.446 E18.58282
G1 X143.748 Y106.593 E18.74414
G1 X143.280 Y105.658 E18.90098
G1 X143.050 Y104.971 E19.00965
G1 X142.921 Y104.371 E19.10170
G1 X142.855 Y103.756 E19.19448
G1 X142.845 Y103.304 E19.26230
G1 X141.976 Y103.452 E19.39453
G1 X141.104 Y103.627 E19.52794
G1 X140.054 Y103.867 E19.68950
G1 X139.029 Y104.133 E19.84834
G1 X138.040 Y104.422 E20.00289
G1 X137.037 Y104.747 E20.16105
G1 X136.073 Y105.094 E20.31473
G1 X135.115 Y105.470 E20.46910
G1 X134.174 Y105.875 E20.62277
G1 X133.209 Y106.330 E20.78280
G1 X132.308 Y106.796 E20.93496
G1 X131.449 Y107.287 E21.08337
G1 X128.980 Y108.877 E21.52387
G1 X125.593 Y107.029 E22.10262
G1 X125.593 Y100.816 E23.03457
G1 X127.366 Y99.361 E23.37861
G1 X128.080 Y98.820 E23.51298
G1 X128.165 Y98.757 E23.52886
G1 X128.867 Y98.266 E23.65736
G1 X129.605 Y97.779 E23.78999
G1 X130.356 Y97.311 E23.92272
G1 X131.108 Y96.865 E24.05387
G1 X131.882 Y96.431 E24.18697
G1 X132.746 Y95.971 E24.33380
G1 X133.530 Y95.578 E24.46534
G1 X134.312 Y95.205 E24.59530
G1 X135.105 Y94.845 E24.72594
G1 X135.912 Y94.499 E24.85764
G1 X136.694 Y94.181 E24.98427
G1 X137.502 Y93.869 E25.11419
G1 X137.566 Y93.846 E25.12439
G1 X137.495 Y93.684 E25.15093
G1 X137.216 Y93.052 E25.25455
G1 X136.651 Y91.776 E25.46388
G1 X135.979 Y90.269 E25.71138
G1 X135.734 Y89.341 E25.85535
G1 X135.690 Y89.027 E25.90291
G1 X125.593 Y89.027 E27.41746
G1 X125.593 Y80.527 E28.69246
G0 F9000 X100.565 Y80.527
G1 F1800 X100.565 Y89.027 E29.96746
G1 X90.467 Y89.027 E31.48216
G1 X90.446 Y89.264 E31.51785
G1 X90.190 Y90.240 E31.66920
G1 X89.851 Y91.001 E31.79417
G1 X89.538 Y91.706 E31.90987
G1 X89.263 Y92.323 E32.01120
G1 X89.264 Y92.323 E32.01135
G1 X88.964 Y92.999 E32.12228
G1 X88.963 Y92.999 E32.12243
G1 X88.591 Y93.846 E32.26120
G1 X89.334 Y94.129 E32.38046
G1 X90.148 Y94.458 E32.51216
G1 X90.952 Y94.802 E32.64333
G1 X91.773 Y95.171 E32.77835
G1 X92.562 Y95.546 E32.90938
G1 X93.282 Y95.906 E33.03013
G1 X94.093 Y96.332 E33.16754
G1 X94.881 Y96.768 E33.30263
G1 X95.659 Y97.224 E33.43790
G1 X96.433 Y97.702 E33.57435
G1 X97.202 Y98.207 E33.71235
G1 X97.976 Y98.745 E33.85374
G1 X98.664 Y99.262 E33.98283
G1 X99.486 Y99.501 E34.11124
G1 X100.127 Y99.799 E34.21727
G1 X100.704 Y100.149 E34.31850
G1 X101.213 Y100.533 E34.41414
G1 X101.935 Y101.263 E34.56815
G1 X102.414 Y101.939 E34.69243
G1 X102.729 Y102.505 E34.78959
G1 X103.089 Y103.449 E34.94114
G1 X103.249 Y104.222 E35.05955
G1 X103.303 Y104.743 E35.13811
G1 X103.314 Y105.304 E35.22228
G1 X103.184 Y106.377 E35.38441
G1 X102.950 Y107.172 E35.50872
G1 X102.524 Y108.087 E35.66011
G1 X102.104 Y108.713 E35.77319
G1 X101.698 Y109.202 E35.86852
G1 X100.953 Y109.876 E36.01922
G1 X100.247 Y110.342 E36.14611
G1 X99.297 Y110.768 E36.30228
G1 X98.443 Y110.998 E36.43494
G1 X97.473 Y111.100 E36.58125
G1 X96.856 Y111.082 E36.67384
G1 X96.123 Y110.986 E36.78473
G1 X95.122 Y110.690 E36.94130
G1 X94.436 Y110.368 E37.05497
G1 X93.604 Y109.820 E37.20441
G1 X93.026 Y109.304 E37.32064
G1 X92.363 Y108.500 E37.47695
G1 X91.906 Y107.710 E37.61385
G1 X91.538 Y106.744 E37.76891
G1 X91.390 Y106.038 E37.87711
G1 X91.339 Y105.598 E37.94355
G1 X90.646 Y105.308 E38.05624
G1 X89.694 Y104.950 E38.20880
G1 X88.721 Y104.615 E38.36316
G1 X87.753 Y104.313 E38.51526
G1 X86.742 Y104.031 E38.67270
G1 X85.670 Y103.764 E38.83841
G1 X85.663 Y103.762 E38.83950
G1 X84.670 Y103.549 E38.99184
G1 X83.668 Y103.361 E39.14476
G1 X82.657 Y103.202 E39.29828
G1 X81.639 Y103.071 E39.45224
G1 X80.564 Y102.963 E39.61430
G1 X79.446 Y102.884 E39.78242
G1 X78.407 Y102.840 E39.93841
G1 X77.126 Y102.824 E40.13057
G1 X77.077 Y102.823 E40.13792
G1 X76.131 Y102.841 E40.27985
G1 X75.004 Y102.892 E40.44907
G1 X73.928 Y102.973 E40.61093
G1 X72.914 Y103.079 E40.76386
G1 X71.838 Y103.222 E40.92668
G1 X70.742 Y103.400 E41.09323
G1 X69.700 Y103.601 E41.25241
G1 X68.722 Y103.820 E41.40275
G1 X67.702 Y104.078 E41.56056
G1 X66.693 Y104.366 E41.71796
G1 X65.671 Y104.691 E41.87882
G1 X64.686 Y105.040 E42.03557
G1 X63.682 Y105.431 E42.19719
G1 X62.690 Y105.855 E42.35901
G1 X61.726 Y106.309 E42.51885
G1 X60.771 Y106.801 E42.67999
G1 X59.922 Y107.286 E42.82665
G1 X57.455 Y108.877 E43.26698
G1 X54.065 Y107.030 E43.84606
G1 X54.065 Y100.816 E44.77816
G1 X55.838 Y99.361 E45.12220
G1 X56.552 Y98.820 E45.25657
G1 X56.637 Y98.757 E45.27244
G1 X57.339 Y98.266 E45.40094
G1 X58.077 Y97.779 E45.53357
G1 X58.828 Y97.311 E45.66631
G1 X59.580 Y96.865 E45.79745
G1 X60.354 Y96.431 E45.93056
G1 X61.218 Y95.971 E46.07738
G1 X62.002 Y95.578 E46.20893
G1 X62.784 Y95.205 E46.33889
G1 X63.577 Y94.845 E46.46952
G1 X64.384 Y94.499 E46.60123
G1 X65.166 Y94.181 E46.72786
G1 X65.974 Y93.869 E46.85778
G1 X66.038 Y93.846 E46.86798
G1 X65.967 Y93.684 E46.89451
G1 X65.688 Y93.052 E46.99814
G1 X65.123 Y91.776 E47.20746
G1 X64.451 Y90.269 E47.45497
G1 X64.206 Y89.341 E47.59894
G1 X64.162 Y89.027 E47.64650
G1 X54.065 Y89.027 E49.16105
G1 X54.065 Y80.527 E50.43605
G1 X100.565 Y80.527 E57.41105
G0 F9000 X102.537 Y113.905
G1 F1800 X102.537 Y122.405 E58.68605
G1 X92.438 Y122.405 E60.20090
G1 X92.417 Y122.650 E60.23778
G1 X92.149 Y123.651 E60.39322
G1 X91.823 Y124.381 E60.51314
G1 X91.822 Y124.381 E60.51329
G1 X91.509 Y125.085 E60.62886
G1 X90.937 Y126.376 E60.84067
G1 X90.662 Y127.002 E60.94323
G1 X90.661 Y127.002 E60.94338
G1 X90.564 Y127.223 E60.97958
G1 X91.306 Y127.507 E61.09875
G1 X92.120 Y127.835 E61.23039
G1 X92.925 Y128.180 E61.36177
G1 X93.747 Y128.549 E61.49692
G1 X94.534 Y128.924 E61.62769
G1 X95.252 Y129.282 E61.74803
G1 X96.065 Y129.708 E61.88571
G1 X96.853 Y130.145 E62.02087
G1 X97.633 Y130.602 E62.15647
G1 X98.405 Y131.079 E62.29259
G1 X99.175 Y131.584 E62.43072
G1 X99.948 Y132.122 E62.57199
G1 X100.635 Y132.638 E62.70087
G1 X101.113 Y132.756 E62.77472
G1 X102.025 Y133.133 E62.92275
G1 X102.619 Y133.486 E63.02639
G1 X103.120 Y133.860 E63.12017
G1 X103.594 Y134.296 E63.21678
G1 X104.058 Y134.837 E63.32369
G1 X104.451 Y135.417 E63.42878
G1 X104.920 Y136.378 E63.58918
G1 X105.190 Y137.391 E63.74643
G1 X105.275 Y138.090 E63.85205
G1 X105.287 Y138.684 E63.94117
G1 X105.147 Y139.823 E64.11331
G1 X104.763 Y140.956 E64.29275
G1 X104.223 Y141.896 E64.45536
G1 X103.692 Y142.562 E64.58313
G1 X102.921 Y143.256 E64.73873
G1 X102.267 Y143.687 E64.85622
G1 X101.624 Y144.003 E64.96369
G1 X101.031 Y144.218 E65.05830
G1 X100.384 Y144.378 E65.15827
G1 X99.450 Y144.478 E65.29918
G1 X98.760 Y144.458 E65.40272
G1 X97.693 Y144.273 E65.56516
G1 X96.633 Y143.870 E65.73526
G1 X95.658 Y143.262 E65.90762
G1 X95.000 Y142.684 E66.03899
G1 X94.257 Y141.771 E66.21556
G1 X93.744 Y140.785 E66.38228
G1 X93.482 Y139.997 E66.50684
G1 X93.362 Y139.405 E66.59745
G1 X93.311 Y138.975 E66.66240
G1 X92.465 Y138.627 E66.79961
G1 X91.475 Y138.258 E66.95809
G1 X90.430 Y137.907 E67.12345
G1 X89.339 Y137.578 E67.29438
G1 X89.328 Y137.575 E67.29609
G1 X88.318 Y137.306 E67.45287
G1 X87.261 Y137.056 E67.61579
G1 X86.175 Y136.836 E67.78200
G1 X85.058 Y136.644 E67.95201
G1 X83.997 Y136.494 E68.11274
G1 X82.887 Y136.372 E68.28025
G1 X81.769 Y136.282 E68.44849
G1 X80.615 Y136.224 E68.62181
G1 X79.294 Y136.200 E68.81999
G1 X79.281 Y136.200 E68.82194
G1 X78.219 Y136.214 E68.98125
G1 X77.052 Y136.265 E69.15647
G1 X75.906 Y136.350 E69.32884
G1 X74.796 Y136.467 E69.49627
G1 X73.687 Y136.617 E69.66413
G1 X72.607 Y136.796 E69.82834
G1 X71.505 Y137.014 E69.99684
G1 X70.413 Y137.265 E70.16491
G1 X69.347 Y137.546 E70.33028
G1 X68.245 Y137.874 E70.50274
G1 X67.220 Y138.215 E70.66478
G1 X66.153 Y138.609 E70.83539
G1 X65.257 Y138.975 E70.98057
G1 X65.214 Y139.409 E71.04599
G1 X65.083 Y140.040 E71.14266
G1 X64.783 Y140.898 E71.27900
G1 X64.415 Y141.590 E71.39656
G1 X64.105 Y142.052 E71.48002
G1 X63.705 Y142.540 E71.57467
G1 X63.201 Y143.024 E71.67948
G1 X62.736 Y143.383 E71.76760
G1 X62.432 Y143.582 E71.82210
G1 X62.229 Y143.705 E71.85771
G1 X61.595 Y144.020 E71.96390
G1 X60.592 Y144.345 E72.12205
G1 X59.531 Y144.475 E72.28239
G1 X58.908 Y144.465 E72.37585
G1 X58.189 Y144.381 E72.48443
G1 X57.231 Y144.116 E72.63353
G1 X56.664 Y143.874 E72.72600
G1 X56.088 Y143.552 E72.82499
G1 X55.641 Y143.241 E72.90667
G1 X55.124 Y142.805 E73.00811
G1 X54.463 Y142.051 E73.15852
G1 X54.016 Y141.356 E73.28247
G1 X53.605 Y140.419 E73.43595
G1 X53.386 Y139.583 E73.56558
G1 X53.286 Y138.633 E73.70887
G1 X53.304 Y138.022 E73.80056
G1 X53.397 Y137.305 E73.90901
G1 X53.680 Y136.331 E74.06115
G1 X53.987 Y135.655 E74.17252
G1 X54.566 Y134.753 E74.33329
G1 X55.408 Y133.884 E74.51479
G1 X56.353 Y133.232 E74.68701
G1 X57.450 Y132.753 E74.86656
G1 X57.916 Y132.653 E74.93805
G1 X58.535 Y132.190 E75.05400
G1 X58.609 Y132.134 E75.06792
G1 X59.311 Y131.643 E75.19642
G1 X60.050 Y131.156 E75.32918
G1 X60.801 Y130.688 E75.46191
G1 X61.554 Y130.241 E75.59326
G1 X62.327 Y129.809 E75.72609
G1 X63.191 Y129.350 E75.87285
G1 X63.973 Y128.957 E76.00413
G1 X64.758 Y128.582 E76.13462
G1 X65.551 Y128.223 E76.26519
G1 X66.353 Y127.878 E76.39615
G1 X67.138 Y127.558 E76.52331
G1 X67.948 Y127.246 E76.65351
G1 X68.010 Y127.223 E76.66343
G1 X67.659 Y126.425 E76.79420
G1 X67.380 Y125.795 E76.89755
G1 X67.381 Y125.795 E76.89770
G1 X67.097 Y125.156 E77.00259
G1 X66.808 Y124.508 E77.10902
G1 X66.424 Y123.648 E77.25029
G1 X66.156 Y122.636 E77.40733
G1 X66.136 Y122.405 E77.44211
G1 X56.037 Y122.405 E78.95696
G1 X56.037 Y113.905 E80.23196
G1 X102.537 Y113.905 E87.20696
G0 F9000 X122.323 Y132.648
G1 F1800 X125.945 Y132.648 E87.75026
G1 X126.810 Y132.222 E87.89489
G1 X127.602 Y131.432 E88.06268
G1 X127.999 Y131.233 E88.12930
G1 X128.201 Y131.031 E88.17215
G1 X128.601 Y130.831 E88.23923
G1 X128.801 Y130.631 E88.28166
G1 X130.001 Y130.031 E88.48290
G1 X130.201 Y129.831 E88.52533
G1 X132.202 Y128.831 E88.86087
G1 X132.404 Y128.629 E88.90372
G1 X134.166 Y127.750 E89.19909
G1 X134.587 Y127.645 E89.26417
G1 X134.603 Y127.629 E89.26756
G1 X136.273 Y126.795 E89.54757
G1 X135.991 Y126.513 E89.60739
G1 X135.991 Y126.113 E89.66739
G1 X135.791 Y125.913 E89.70981
G1 X135.791 Y125.713 E89.73981
G1 X135.391 Y125.313 E89.82467
G1 X135.391 Y124.713 E89.91467
G1 X135.191 Y124.513 E89.95709
G1 X135.191 Y124.313 E89.98709
G1 X134.791 Y123.913 E90.07195
G1 X134.791 Y119.643 E90.71245
G1 X136.800 Y117.631 E91.13894
G1 X138.542 Y116.761 E91.43101
G1 X142.623 Y116.609 E92.04359
G1 X143.600 Y115.631 E92.25095
G1 X145.411 Y114.727 E92.55456
G1 X152.674 Y114.727 E93.64401
G1 X153.573 Y115.622 E93.83429
G1 X155.591 Y116.616 E94.17172
G1 X155.591 Y116.643 E94.17577
G1 X159.152 Y116.771 E94.71027
G1 X162.391 Y118.929 E95.29407
G1 X162.391 Y124.313 E96.10167
G1 X162.191 Y124.513 E96.14410
G1 X162.191 Y124.713 E96.17410
G1 X161.991 Y124.913 E96.21653
G1 X161.991 Y125.313 E96.27653
G1 X161.791 Y125.513 E96.31895
G1 X161.791 Y125.713 E96.34895
G1 X161.391 Y126.113 E96.43381
G1 X161.391 Y126.513 E96.49381
G1 X161.191 Y126.713 E96.53623
G1 X161.191 Y126.736 E96.53968
G1 X161.755 Y127.018 E96.63427
G1 X162.355 Y127.218 E96.72914
G1 X165.181 Y128.631 E97.20307
G1 X165.381 Y128.831 E97.24550
G1 X167.378 Y129.829 E97.58037
G1 X167.580 Y130.031 E97.62322
G1 X168.781 Y130.631 E97.82460
G1 X168.981 Y130.831 E97.86703
G1 X169.381 Y131.031 E97.93411
G1 X169.781 Y131.431 E98.01896
G1 X170.181 Y131.631 E98.08604
G1 X170.381 Y131.831 E98.12847
G1 X172.014 Y132.648 E98.40237
G1 X175.045 Y132.648 E98.85702
G1 X175.049 Y136.878 E99.49152
G1 X175.048 Y137.043 E99.51627
G1 X175.053 Y141.089 E100.12317
G1 X172.591 Y141.089 E100.49247
G1 X172.591 Y144.415 E100.99137
G1 X164.029 Y140.137 E102.42706
G1 X162.814 Y139.733 E102.61912
G1 X162.403 Y139.324 E102.70609
G1 X162.031 Y139.138 E102.76848
G1 X160.718 Y138.700 E102.97610
G1 X159.452 Y138.447 E103.16975
G1 X158.834 Y138.139 E103.27333
G1 X158.782 Y138.121 E103.28158
G1 X157.306 Y137.874 E103.50606
G1 X156.626 Y137.535 E103.62003
G1 X156.520 Y137.500 E103.63678
G1 X155.847 Y137.365 E103.73974
G1 X154.844 Y137.198 E103.89226
G1 X150.374 Y136.793 E104.56551
G1 X147.643 Y136.825 E104.97519
G1 X143.538 Y137.198 E105.59347
G1 X142.550 Y137.363 E105.74372
G1 X141.554 Y137.563 E105.89611
G1 X140.352 Y137.762 E106.07886
G1 X139.934 Y137.846 E106.14281
G1 X139.760 Y137.933 E106.17199
G1 X138.655 Y138.304 E106.34684
G1 X137.658 Y138.501 E106.49928
G1 X136.956 Y138.736 E106.61032
G1 X136.552 Y138.938 E106.67808
G1 X135.952 Y139.137 E106.77290
G1 X135.554 Y139.337 E106.83971
G1 X134.954 Y139.537 E106.93458
G1 X134.553 Y139.738 E107.00186
G1 X133.949 Y139.938 E107.09730
G1 X133.583 Y140.121 E107.15868
G1 X133.381 Y140.323 E107.20153
G1 X124.791 Y144.617 E108.64205
G1 X124.791 Y141.089 E109.17125
G1 X122.331 Y141.089 E109.54025
G1 X122.327 Y136.864 E110.17400
G1 X122.328 Y136.612 E110.21180
G1 X122.323 Y132.648 E110.80640
G10
G0 F9000 X96.404 Y102.768
;TYPE:WALL-INNER
G11
G1 F1800 X96.033 Y102.950 E110.86839
G1 X95.672 Y103.221 E110.93610
G1 X94.479 Y102.630 E111.13580
G1 X93.236 Y102.054 E111.34130
G1 X92.100 Y101.582 E111.52582
G1 X91.050 Y101.186 E111.69415
G1 X89.974 Y100.815 E111.86487
G1 X88.877 Y100.474 E112.03719
G1 X87.762 Y100.163 E112.21082
G1 X86.644 Y99.884 E112.38367
G1 X85.490 Y99.634 E112.56078
G1 X84.338 Y99.418 E112.73659
G1 X83.226 Y99.243 E112.90545
G1 X82.082 Y99.095 E113.07848
G1 X80.901 Y98.977 E113.25651
G1 X79.684 Y98.890 E113.43953
G1 X78.504 Y98.840 E113.61668
G1 X77.090 Y98.823 E113.82880
G1 X75.971 Y98.843 E113.99668
G1 X74.771 Y98.898 E114.17687
G1 X73.593 Y98.987 E114.35407
G1 X72.421 Y99.109 E114.53082
G1 X71.253 Y99.264 E114.70755
G1 X70.051 Y99.459 E114.89021
G1 X68.889 Y99.684 E115.06775
G1 X67.776 Y99.933 E115.23883
G1 X66.676 Y100.212 E115.40905
G1 X65.536 Y100.537 E115.58686
G1 X64.401 Y100.898 E115.76552
G1 X63.276 Y101.296 E115.94452
G1 X62.161 Y101.730 E116.12399
G1 X61.057 Y102.203 E116.30415
