;FLAVOR:UltiGCode
;TIME:174
;MATERIAL:165
;MATERIAL2:0

;Layer count: 12
;LAYER:0
M107
G0 F9000 X83.909 Y106.725 Z0.300
G0 X84.622 Y109.004
;TYPE:SKIRT
G1 F1200 X83.909 Y106.725 E0.28655
G1 X103.672 Y103.901 E2.68220
G1 X107.101 Y103.901 E3.09368
G1 X108.786 Y104.238 E3.29989
G1 X111.725 Y105.217 E3.67162
G1 X113.017 Y105.862 E3.84490
G1 X113.224 Y106.068 E3.87995
G1 X113.290 Y106.101 E3.88880
G1 X113.654 Y106.101 E3.93248
G1 X114.067 Y106.513 E4.00249
G1 X144.269 Y106.712 E7.62681
G1 X147.177 Y109.620 E8.12031
G1 X147.177 Y112.876 E8.51103
G1 X147.219 Y113.335 E8.56634
G1 X148.185 Y116.541 E8.96814
G1 X147.540 Y116.808 E9.05191
G1 X147.628 Y117.764 E9.16712
G1 X144.201 Y118.192 E9.58155
G1 X143.707 Y118.397 E9.64573
G1 X138.540 Y119.118 E10.27178
G1 X126.208 Y120.666 E11.76324
G1 X124.754 Y120.666 E11.93772
G1 X123.934 Y120.664 E12.03612
G1 X122.042 Y120.299 E12.26734
G1 X121.179 Y120.131 E12.37285
G1 X119.298 Y119.472 E12.61202
G1 X116.544 Y118.501 E12.96244
G1 X82.877 Y118.501 E17.00248
G1 X82.877 Y115.366 E17.37868
G1 X82.162 Y114.642 E17.50078
G1 X83.842 Y109.159 E18.18894
G1 X84.622 Y109.004 E18.28437
G0 F9000 X85.136 Y109.310
G1 F1200 X84.431 Y107.054 E18.56800
G1 X103.701 Y104.301 E20.90388
G1 X107.062 Y104.301 E21.30720
G1 X108.684 Y104.625 E21.50568
G1 X111.572 Y105.588 E21.87100
G1 X112.781 Y106.191 E22.03312
G1 X112.987 Y106.396 E22.06800
G1 X113.196 Y106.501 E22.09607
G1 X113.488 Y106.501 E22.13111
G1 X113.900 Y106.912 E22.20094
G1 X144.102 Y107.111 E25.82526
G1 X146.777 Y109.786 E26.27922
G1 X146.777 Y112.901 E26.65302
G1 X146.824 Y113.410 E26.71436
G1 X147.698 Y116.310 E27.07782
G1 X147.115 Y116.552 E27.15357
G1 X147.195 Y117.415 E27.25757
G1 X144.098 Y117.802 E27.63210
G1 X143.601 Y118.008 E27.69666
G1 X138.487 Y118.721 E28.31628
G1 X126.183 Y120.266 E29.80435
G1 X124.755 Y120.266 E29.97571
G1 X123.973 Y120.264 E30.06955
G1 X122.118 Y119.906 E30.29626
G1 X121.284 Y119.744 E30.39821
G1 X119.430 Y119.095 E30.63393
G1 X116.612 Y118.101 E30.99251
G1 X83.277 Y118.101 E34.99271
G1 X83.277 Y115.201 E35.34071
G1 X82.615 Y114.531 E35.45374
G1 X84.154 Y109.505 E36.08450
G1 X85.136 Y109.310 E36.20464
G10
G0 F9000 X120.895 Y116.004
;TYPE:WALL-OUTER
G11
G1 F1200 X122.087 Y116.409 E36.35571
G1 X123.398 Y116.636 E36.51537
G1 X124.267 Y116.801 E36.62151
G1 X125.308 Y116.803 E36.74643
G1 X125.987 Y116.812 E36.82792
G1 X127.254 Y116.705 E36.98050
G1 X125.974 Y116.866 E37.13531
G1 X124.299 Y116.865 E37.33631
G1 X122.179 Y116.454 E37.59545
G1 X120.895 Y116.004 E37.75872
G0 F9000 X121.303 Y115.882
;TYPE:SUPPORT
G1 F1200 X121.303 Y109.501 E38.52444
G0 F9000 X121.299 Y110.260
G0 X123.965 Y110.278
G0 X123.969 Y109.519
G1 F1200 X123.969 Y116.499 E39.36204
G0 F9000 X124.111 Y115.754
G0 X121.808 Y115.254
G0 X121.557 Y115.971
G1 F1200 X132.615 Y115.971 E40.68900
G0 F9000 X131.967 Y116.054
G1 F1200 X131.967 Y109.572 E41.46684
G0 F9000 X131.963 Y110.330
G0 X134.629 Y110.348
G0 X134.633 Y109.589
G1 F1200 X134.633 Y115.720 E42.20256
G0 F9000 X134.538 Y114.965
G0 X137.205 Y114.632
G0 X137.299 Y115.387
G1 F1200 X137.299 Y109.607 E42.89616
G0 F9000 X137.295 Y110.365
G0 X139.961 Y110.383
G0 X139.965 Y109.624
G1 F1200 X139.965 Y115.054 E43.54776
G0 F9000 X139.871 Y114.299
G0 X129.238 Y115.534
G0 X129.301 Y116.292
G1 F1200 X129.301 Y109.554 E44.35632
G0 F9000 X129.297 Y110.313
G0 X126.631 Y110.295
G0 X126.635 Y109.536
G1 F1200 X126.635 Y116.516 E45.19392
G0 F9000 X126.571 Y115.759
G0 X118.303 Y113.867
G0 X117.979 Y114.569
G0 X118.637 Y114.949
G1 F1200 X118.637 Y109.484 E45.84972
G0 F9000 X118.632 Y110.242
G0 X115.966 Y110.225
G0 X115.971 Y109.466
G1 F1200 X115.971 Y115.561 E46.58112
G0 F9000 X115.971 Y114.801
G0 X113.305 Y114.801
G0 X113.305 Y115.561
G1 F1200 X113.305 Y109.449 E47.31456
G0 F9000 X113.300 Y110.207
G0 X112.492 Y110.287
G0 X110.324 Y108.652
G0 X110.664 Y107.973
G1 F1200 X95.950 Y107.973 E49.08024
G0 F9000 X94.643 Y108.160
G1 F1200 X94.643 Y115.561 E49.96836
G0 F9000 X94.643 Y114.801
G0 X91.977 Y114.801
G0 X91.977 Y115.561
G1 F1200 X91.977 Y108.541 E50.81076
G0 F9000 X92.083 Y109.294
G0 X89.417 Y109.675
G0 X89.311 Y108.922
G1 F1200 X89.311 Y115.561 E51.60744
G0 F9000 X89.311 Y114.801
G0 X86.645 Y114.801
G0 X86.645 Y115.561
G1 F1200 X86.645 Y111.598 E52.08300
G0 F9000 X86.792 Y112.345
G0 X89.389 Y111.681
G0 X88.939 Y110.414
G0 X88.212 Y110.639
G1 F1200 X144.038 Y110.639 E58.78212
G0 F9000 X143.499 Y111.173
G0 X142.627 Y110.401
G0 X142.631 Y109.642
G1 F1200 X142.631 Y114.721 E59.39160
G0 F9000 X142.538 Y113.965
G0 X142.753 Y113.342
G0 X143.477 Y113.305
G0 X144.236 Y113.305
G1 F1200 X85.646 Y113.305 E66.42240
G0 F9000 X86.372 Y113.528
G0 X97.309 Y114.801
G0 X97.309 Y115.561
G1 F1200 X97.309 Y107.779 E67.35624
G0 F9000 X97.417 Y108.532
G0 X100.083 Y108.151
G0 X99.975 Y107.399
G1 F1200 X99.975 Y115.561 E68.33568
G0 F9000 X99.975 Y114.801
G0 X102.641 Y114.801
G0 X102.641 Y115.561
G1 F1200 X102.641 Y107.018 E69.36084
G0 F9000 X102.749 Y107.770
G0 X105.307 Y107.601
G0 X105.307 Y106.841
G1 F1200 X105.307 Y115.561 E70.40724
G0 F9000 X105.307 Y114.801
G0 X107.973 Y114.801
G0 X107.973 Y115.561
G1 F1200 X107.973 Y107.074 E71.42568
G0 F9000 X107.824 Y107.818
G0 X110.309 Y108.645
G0 X110.639 Y107.962
G1 F1200 X110.639 Y115.561 E72.33756
;LAYER:1
M106 S127
G10
G0 F9000 X119.792 Y115.419 Z0.400
;TYPE:WALL-OUTER
G11
G1 F540 X122.084 Y116.120 E72.43343
G1 X124.267 Y116.490 E72.52200
G1 X125.990 Y116.492 E72.59092
G1 X127.317 Y116.395 E72.64414
G1 X133.762 Y115.845 E72.90287
G1 X127.405 Y116.643 E73.15915
G1 X125.976 Y116.771 E73.21654
G1 X124.498 Y116.770 E73.27566
G1 X124.299 Y116.771 E73.28362
G1 X122.434 Y116.408 E73.35962
G1 X122.175 Y116.365 E73.37012
G1 X120.207 Y115.675 E73.45354
G1 X119.926 Y115.587 E73.46532
G1 X119.700 Y115.487 E73.47520
G1 X119.261 Y115.145 E73.49746
G1 X119.792 Y115.419 E73.52136
G10
G0 F9000 X110.639 Y109.286
;TYPE:SUPPORT
G11
G1 F720 X110.639 Y108.586 E73.54936
G0 F9000 X110.589 Y108.736
G0 X107.923 Y107.849
G0 X107.973 Y107.699
G1 F720 X107.973 Y110.433 E73.65872
G0 F9000 X108.012 Y110.279
G0 X106.331 Y109.824
G0 X105.303 Y109.956
G0 X105.307 Y110.116
G1 F720 X105.307 Y107.441 E73.76572
G0 F9000 X105.307 Y107.601
G0 X102.663 Y107.783
G0 X102.641 Y107.624
G1 F720 X102.641 Y110.251 E73.87080
;LAYER:2
M106 S255
G10
G0 F9000 X90.015 Y111.305 Z0.500
;TYPE:WALL-INNER
G11
G1 F1500 X87.787 Y111.950 E73.96358
G1 X87.749 Y111.508 E73.98133
G1 X90.015 Y111.305 E74.07233
G0 F9000 X90.510 Y110.858
;TYPE:WALL-OUTER
G1 F900 X93.834 Y110.615 E74.20565
G1 X87.431 Y112.469 E74.47229
G1 X87.315 Y111.148 E74.52533
G1 X90.510 Y110.858 E74.65366
G10
G0 F9000 X115.799 Y114.033
G11
G1 F900 X117.326 Y113.955 E74.71481
G1 X117.549 Y113.946 E74.72374
G1 X119.789 Y115.151 E74.82548
G1 X121.342 Y115.575 E74.88988
G1 X122.083 Y115.805 E74.92091
G1 X123.559 Y116.031 E74.98064
G1 X124.266 Y116.151 E75.00933
G1 X125.990 Y116.153 E75.07829
G1 X132.815 Y115.651 E75.35202
G1 X138.796 Y115.119 E75.59221
G1 X131.903 Y115.983 E75.87008
G1 X125.976 Y116.514 E76.10811
G1 X124.300 Y116.514 E76.17515
G1 X123.290 Y116.317 E76.21632
G1 X122.175 Y116.127 E76.26156
G1 X121.107 Y115.752 E76.30684
G1 X119.926 Y115.383 E76.35633
G1 X118.885 Y114.923 E76.40185
G1 X118.444 Y114.580 E76.42420
G1 X117.651 Y114.063 E76.46206
G1 X116.946 Y114.067 E76.49027
G1 X115.980 Y114.094 E76.52892
G1 X115.799 Y114.033 E76.53656
G10
G0 F9000 X143.414 Y114.359
G11
G1 F900 X143.342 Y113.599 E76.56710
G1 X143.573 Y114.362 E76.59898
G1 X143.269 Y114.456 E76.61171
G1 X143.414 Y114.359 E76.61869
G10
G0 F9000 X107.973 Y110.161
;TYPE:SUPPORT
G11
G1 F1320 X107.973 Y107.698 E76.71721
;LAYER:3
G10
G0 F9000 X107.777 Y110.244 Z0.600
;TYPE:WALL-INNER
G11
G1 F3000 X109.959 Y110.859 E76.80789
G1 X111.246 Y111.541 E76.86615
G1 X112.288 Y112.174 E76.91492
G1 X113.477 Y112.119 E76.96253
G1 X114.413 Y112.074 E77.00001
G1 X114.414 Y112.713 E77.02557
G1 X115.612 Y112.713 E77.07349
G1 X115.613 Y111.541 E77.12038
G1 X142.253 Y111.542 E78.18598
G1 X130.933 Y114.771 E78.65684
G1 X131.045 Y115.401 E78.68243
G1 X125.955 Y115.857 E78.88685
G1 X125.850 Y115.856 E78.89105
G1 X124.333 Y115.857 E78.95173
G1 X122.263 Y115.497 E79.03577
G1 X120.071 Y114.806 E79.12770
G1 X118.262 Y114.007 E79.20681
G1 X117.777 Y113.669 E79.23045
G1 X116.311 Y113.678 E79.28909
G1 X115.455 Y113.702 E79.32335
G1 X87.704 Y113.703 E80.43339
G1 X87.490 Y111.280 E80.53069
G1 X95.945 Y110.518 E80.87026
G1 X104.061 Y109.924 E81.19576
G1 X104.409 Y109.925 E81.20968
G1 X105.703 Y109.923 E81.26144
G1 X107.777 Y110.244 E81.34539
G0 F9000 X107.867 Y109.853
;TYPE:WALL-OUTER
G1 F1620 X110.105 Y110.484 E81.43840
G1 X111.450 Y111.197 E81.49929
G1 X112.391 Y111.769 E81.54334
G1 X115.021 Y111.644 E81.64866
G1 X115.012 Y111.444 E81.65667
G1 X114.812 Y111.444 E81.66467
G1 X114.814 Y111.141 E81.67679
G1 X142.605 Y111.142 E82.78843
G1 X142.804 Y111.801 E82.81597
G1 X131.390 Y115.056 E83.29073
G1 X131.453 Y115.412 E83.30519
G1 X138.313 Y114.907 E83.58033
G1 X142.798 Y114.507 E83.76044
G1 X142.718 Y114.531 E83.76378
G1 X136.402 Y115.324 E84.01841
G1 X125.977 Y116.257 E84.43707
G1 X125.849 Y116.256 E84.44219
G1 X124.299 Y116.257 E84.50419
G1 X122.173 Y115.888 E84.59051
G1 X119.926 Y115.179 E84.68475
G1 X118.064 Y114.357 E84.76617
G1 X117.652 Y114.070 E84.78625
G1 X116.318 Y114.078 E84.83961
G1 X115.209 Y114.109 E84.88399
G1 X87.405 Y114.103 E85.99615
G1 X87.310 Y113.794 E86.00908
G1 X87.069 Y111.059 E86.11891
G1 X87.321 Y110.893 E86.13098
G1 X95.909 Y110.119 E86.47589
G1 X104.046 Y109.524 E86.80224
G1 X105.731 Y109.523 E86.86964
G1 X107.867 Y109.853 E86.95609
G10
G0 F9000 X142.987 Y112.407
G11
G1 F1620 X143.283 Y113.385 E86.99696
G1 X143.368 Y114.308 E87.03404
G1 X143.300 Y114.352 E87.03728
G1 X142.832 Y114.496 E87.05687
G1 X143.162 Y114.274 E87.07278
G1 X142.987 Y112.407 E87.14778
G0 F9000 X142.517 Y111.570
G0 X140.877 Y111.700
;TYPE:SKIN
G1 F900 X140.543 Y111.752 E87.15468
G1 X139.964 Y112.048 E87.18069
G0 F9000 X139.766 Y111.681
G1 F900 X139.172 Y112.275 E87.21429
G0 F9000 X139.200 Y111.681
G1 F900 X138.380 Y112.500 E87.26065
G0 F9000 X137.589 Y112.726
G1 F900 X138.634 Y111.681 E87.31976
G0 F9000 X138.068 Y111.681
G1 F900 X136.797 Y112.952 E87.39166
G0 F9000 X136.006 Y113.178
G1 F900 X137.503 Y111.681 E87.47634
G0 F9000 X136.937 Y111.681
G1 F900 X135.214 Y113.404 E87.57381
G0 F9000 X134.423 Y113.629
G1 F900 X136.371 Y111.681 E87.68401
G0 F9000 X135.806 Y111.681
G1 F900 X133.631 Y113.856 E87.80704
G0 F9000 X132.839 Y114.081
G1 F900 X135.240 Y111.681 E87.94284
G0 F9000 X134.674 Y111.681
G1 F900 X132.048 Y114.307 E88.09139
G0 F9000 X131.256 Y114.533
G1 F900 X134.109 Y111.681 E88.25275
G0 F9000 X133.543 Y111.681
G1 F900 X129.858 Y115.366 E88.46120
G0 F9000 X130.479 Y115.310
G1 F900 X130.824 Y114.965 E88.48072
G0 F9000 X129.236 Y115.422
G1 F900 X132.977 Y111.681 E88.69234
G0 F9000 X132.412 Y111.681
G1 F900 X128.614 Y115.478 E88.90716
G0 F9000 X127.993 Y115.534
G1 F900 X131.846 Y111.681 E89.12512
G0 F9000 X131.280 Y111.681
G1 F900 X127.371 Y115.590 E89.34625
G0 F9000 X126.750 Y115.645
G1 F900 X130.715 Y111.681 E89.57051
G0 F9000 X130.149 Y111.681
G1 F900 X126.128 Y115.701 E89.79795
G0 F9000 X125.547 Y115.717
G1 F900 X129.583 Y111.681 E90.02626
G0 F9000 X129.017 Y111.681
G1 F900 X124.981 Y115.717 E90.25457
G0 F9000 X124.416 Y115.717
G1 F900 X128.452 Y111.681 E90.48288
G0 F9000 X127.886 Y111.681
G1 F900 X123.923 Y115.644 E90.70706
G0 F9000 X123.441 Y115.560
G1 F900 X127.320 Y111.681 E90.92649
G0 F9000 X126.755 Y111.681
G1 F900 X122.959 Y115.476 E91.14119
G0 F9000 X122.477 Y115.392
G1 F900 X126.189 Y111.681 E91.35115
G0 F9000 X125.623 Y111.681
G1 F900 X122.028 Y115.276 E91.55451
G0 F9000 X121.598 Y115.141
G1 F900 X125.058 Y111.681 E91.75024
G0 F9000 X124.492 Y111.681
G1 F900 X121.168 Y115.005 E91.93827
G0 F9000 X120.737 Y114.870
G1 F900 X123.926 Y111.681 E92.11867
G0 F9000 X123.361 Y111.681
G1 F900 X120.307 Y114.734 E92.29140
G0 F9000 X119.899 Y114.577
G1 F900 X122.795 Y111.681 E92.45523
G0 F9000 X122.229 Y111.681
G1 F900 X119.506 Y114.404 E92.60926
G0 F9000 X119.114 Y114.230
G1 F900 X121.664 Y111.681 E92.75348
G0 F9000 X121.098 Y111.681
G1 F900 X118.721 Y114.057 E92.88792
G0 F9000 X118.329 Y113.884
G1 F900 X120.532 Y111.681 E93.01254
G0 F9000 X119.967 Y111.681
G1 F900 X117.995 Y113.652 E93.12406
G0 F9000 X117.550 Y113.531
G1 F900 X119.401 Y111.681 E93.22874
G0 F9000 X118.835 Y111.681
G1 F900 X116.982 Y113.534 E93.33356
G0 F9000 X116.413 Y113.538
G1 F900 X118.269 Y111.681 E93.43858
G0 F9000 X117.704 Y111.681
G1 F900 X115.833 Y113.551 E93.54440
G0 F9000 X115.257 Y113.562
G1 F900 X117.138 Y111.681 E93.65080
G0 F9000 X116.572 Y111.681
G1 F900 X115.751 Y112.502 E93.69724
G0 F9000 X115.430 Y112.257
G1 F900 X115.155 Y112.533 E93.71283
G0 F9000 X115.400 Y112.853
G1 F900 X114.692 Y113.562 E93.75291
G0 F9000 X114.126 Y113.562
G1 F900 X114.834 Y112.853 E93.79299
G0 F9000 X114.593 Y112.528
G1 F900 X115.431 Y111.691 E93.84036
G0 F9000 X115.752 Y111.935
G1 F900 X116.007 Y111.681 E93.85476
G0 F9000 X114.698 Y111.858
G1 F900 X114.593 Y111.963 E93.86070
G0 F9000 X114.271 Y112.285
G1 F900 X112.994 Y113.562 E93.93294
G0 F9000 X112.429 Y113.562
G1 F900 X113.745 Y112.245 E94.00741
G0 F9000 X113.152 Y112.273
G1 F900 X111.863 Y113.562 E94.08033
G0 F9000 X111.297 Y113.562
G1 F900 X112.560 Y112.299 E94.15177
G0 F9000 X112.082 Y112.211
G1 F900 X110.732 Y113.562 E94.22817
G0 F9000 X110.166 Y113.562
G1 F900 X111.730 Y111.997 E94.31667
G0 F9000 X111.378 Y111.784
G1 F900 X109.600 Y113.562 E94.41725
G0 F9000 X109.035 Y113.562
G1 F900 X111.018 Y111.578 E94.52945
G0 F9000 X110.648 Y111.382
G1 F900 X108.469 Y113.562 E94.65274
G0 F9000 X107.903 Y113.562
G1 F900 X110.279 Y111.186 E94.78715
G0 F9000 X109.909 Y110.990
G1 F900 X107.338 Y113.562 E94.93262
G0 F9000 X106.772 Y113.562
G1 F900 X109.470 Y110.864 E95.08524
G0 F9000 X109.028 Y110.739
G1 F900 X106.206 Y113.562 E95.24490
G0 F9000 X105.641 Y113.562
G1 F900 X108.587 Y110.615 E95.41158
G0 F9000 X108.146 Y110.491
G1 F900 X105.075 Y113.562 E95.58530
G0 F9000 X104.509 Y113.562
G1 F900 X107.699 Y110.372 E95.76576
G0 F9000 X107.209 Y110.296
G1 F900 X103.943 Y113.562 E95.95051
G0 F9000 X103.378 Y113.562
G1 F900 X106.719 Y110.220 E96.13953
G0 F9000 X106.229 Y110.145
G1 F900 X102.812 Y113.562 E96.33283
G0 F9000 X102.246 Y113.562
G1 F900 X105.739 Y110.069 E96.53042
G0 F9000 X105.180 Y110.062
G1 F900 X101.681 Y113.562 E96.72838
G0 F9000 X101.115 Y113.562
G1 F900 X104.615 Y110.062 E96.92637
G0 F9000 X104.047 Y110.063
G1 F900 X100.549 Y113.562 E97.12428
G0 F9000 X99.984 Y113.562
G1 F900 X103.437 Y110.108 E97.31964
G0 F9000 X102.827 Y110.153
G1 F900 X99.418 Y113.562 E97.51248
G0 F9000 X98.852 Y113.562
G1 F900 X102.217 Y110.197 E97.70283
G0 F9000 X101.607 Y110.242
G1 F900 X98.287 Y113.562 E97.89064
G0 F9000 X97.721 Y113.562
G1 F900 X100.996 Y110.286 E98.07593
G0 F9000 X100.385 Y110.331
G1 F900 X97.155 Y113.562 E98.25868
G0 F9000 X96.590 Y113.562
G1 F900 X99.775 Y110.376 E98.43888
G0 F9000 X99.165 Y110.421
G1 F900 X96.024 Y113.562 E98.61656
G0 F9000 X95.458 Y113.562
G1 F900 X98.555 Y110.465 E98.79175
G0 F9000 X97.944 Y110.510
G1 F900 X94.893 Y113.562 E98.96437
G0 F9000 X94.327 Y113.562
G1 F900 X97.334 Y110.554 E99.13450
G0 F9000 X96.724 Y110.599
G1 F900 X93.761 Y113.562 E99.30211
G0 F9000 X93.195 Y113.562
G1 F900 X96.114 Y110.643 E99.46724
G0 F9000 X95.494 Y110.697
G1 F900 X92.630 Y113.562 E99.62928
G0 F9000 X92.064 Y113.562
G1 F900 X94.873 Y110.753 E99.78818
G0 F9000 X94.251 Y110.809
G1 F900 X91.498 Y113.562 E99.94391
G0 F9000 X90.933 Y113.562
G1 F900 X93.629 Y110.865 E100.09645
