;FLAVOR:UltiGCode
;TIME:2611
;MATERIAL:2672
;MATERIAL2:0

;Layer count: 38
;LAYER:0
M107
G0 F9000 X105.276 Y101.820 Z0.300
;TYPE:SKIRT
G1 F1200 X129.350 Y101.820 E2.88888
G1 X129.946 Y103.673 E3.12246
G1 X130.531 Y101.820 E3.35564
G1 X147.828 Y101.820 E5.43128
G1 X148.801 Y101.885 E5.54830
G1 X149.107 Y101.906 E5.58510
G1 X150.390 Y102.196 E5.74295
G1 X151.751 Y102.787 E5.92100
G1 X152.583 Y103.425 E6.04682
G1 X152.934 Y103.696 E6.10003
G1 X153.844 Y104.846 E6.27601
G1 X154.291 Y105.813 E6.40385
G1 X154.444 Y106.134 E6.44652
G1 X154.690 Y107.187 E6.57628
G1 X154.764 Y107.498 E6.61464
G1 X154.841 Y108.616 E6.74912
G1 X154.840 Y108.616 E6.74924
G1 X154.860 Y108.893 E6.78257
G1 X154.696 Y111.185 E7.05831
G1 X154.257 Y112.673 E7.24448
G1 X154.205 Y112.846 E7.26616
G1 X154.693 Y114.459 E7.46838
G1 X154.835 Y116.405 E7.70252
G1 X154.860 Y116.742 E7.74307
G1 X154.785 Y117.824 E7.87322
G1 X154.763 Y118.144 E7.91172
G1 X154.443 Y119.489 E8.07762
G1 X153.877 Y120.727 E8.24097
G1 X152.953 Y121.933 E8.42328
G1 X152.109 Y122.584 E8.55119
G1 X151.777 Y122.839 E8.60143
G1 X150.477 Y123.426 E8.77259
G1 X149.124 Y123.737 E8.93919
G1 X147.849 Y123.821 E9.09252
G1 X145.097 Y123.821 E9.42276
G1 X145.097 Y123.846 E9.42576
G1 X134.792 Y123.846 E10.66236
G1 X134.792 Y122.042 E10.87884
G1 X134.227 Y123.846 E11.10569
G1 X123.581 Y123.846 E12.38321
G1 X124.627 Y120.530 E12.80046
G1 X121.993 Y112.116 E13.85845
G1 X115.582 Y112.116 E14.62777
G1 X115.582 Y123.846 E16.03537
G1 X105.276 Y123.846 E17.27209
G1 X105.276 Y101.820 E19.91521
G0 F9000 X98.720 Y104.847
G1 F1200 X99.320 Y106.152 E20.08757
G1 X99.639 Y107.505 E20.25438
G1 X99.715 Y108.616 E20.38802
G1 X99.714 Y108.616 E20.38814
G1 X99.734 Y108.893 E20.42146
G1 X99.603 Y110.735 E20.64306
G1 X99.569 Y111.189 E20.69769
G1 X99.131 Y112.673 E20.88337
G1 X99.079 Y112.846 E20.90504
G1 X99.433 Y114.017 E21.05185
G1 X99.567 Y114.446 E21.10578
G1 X99.709 Y116.405 E21.34148
G1 X99.734 Y116.744 E21.38227
G1 X99.636 Y118.140 E21.55020
G1 X99.319 Y119.487 E21.71625
G1 X98.890 Y120.423 E21.83981
G1 X98.706 Y120.809 E21.89112
G1 X98.079 Y121.605 E22.01272
G1 X97.806 Y121.949 E22.06542
G1 X96.651 Y122.840 E22.24046
G1 X95.347 Y123.427 E22.41207
G1 X94.329 Y123.661 E22.53741
G1 X94.014 Y123.736 E22.57627
G1 X92.724 Y123.821 E22.73141
G1 X89.971 Y123.821 E23.06177
G1 X89.971 Y123.846 E23.06477
G1 X79.665 Y123.846 E24.30149
G1 X79.665 Y122.046 E24.51749
G1 X79.101 Y123.846 E24.74384
G1 X50.148 Y123.846 E28.21820
G1 X50.148 Y101.820 E30.86132
G1 X60.456 Y101.820 E32.09828
G1 X60.456 Y107.669 E32.80016
G1 X65.475 Y107.669 E33.40244
G1 X63.643 Y101.820 E34.13794
G1 X74.224 Y101.820 E35.40766
G1 X74.820 Y103.673 E35.64124
G1 X75.404 Y101.820 E35.87439
G1 X92.703 Y101.820 E37.95027
G1 X93.674 Y101.885 E38.06705
G1 X93.981 Y101.907 E38.10398
G1 X95.332 Y102.213 E38.27021
G1 X96.639 Y102.799 E38.44209
G1 X97.457 Y103.425 E38.56570
G1 X97.807 Y103.695 E38.61874
G1 X98.720 Y104.847 E38.79513
G0 F9000 X161.082 Y111.155
G1 F1200 X161.226 Y110.252 E38.90486
G1 X161.544 Y109.443 E39.00917
G1 X162.124 Y108.582 E39.13375
G1 X162.371 Y108.365 E39.17320
G1 X162.377 Y107.220 E39.31060
G1 X162.387 Y106.667 E39.37697
G1 X162.508 Y105.962 E39.46281
G1 X162.774 Y105.198 E39.55989
G1 X163.249 Y104.458 E39.66541
G1 X163.989 Y103.744 E39.78880
G1 X165.095 Y103.229 E39.93521
G1 X165.918 Y103.097 E40.03523
G1 X166.691 Y103.106 E40.12800
G1 X167.730 Y103.340 E40.25580
G1 X168.999 Y103.902 E40.42234
G1 X169.282 Y103.233 E40.50951
G1 X169.856 Y102.035 E40.66892
G1 X170.264 Y101.263 E40.77370
G1 X170.744 Y100.432 E40.88886
G1 X171.371 Y99.448 E41.02888
G1 X171.899 Y98.699 E41.13884
G1 X172.473 Y97.977 E41.24953
G1 X173.486 Y96.820 E41.43406
G1 X178.556 Y96.820 E42.04246
G1 X180.373 Y100.168 E42.49958
G1 X179.058 Y102.189 E42.78892
G1 X178.678 Y102.860 E42.88145
G1 X178.365 Y103.482 E42.96501
G1 X178.127 Y104.007 E43.03418
G1 X177.831 Y104.721 E43.12693
G1 X177.571 Y105.435 E43.21812
G1 X177.292 Y106.300 E43.32718
G1 X177.041 Y107.220 E43.44162
G1 X176.872 Y107.947 E43.53118
G1 X176.680 Y108.987 E43.65809
G1 X176.606 Y109.492 E43.71934
G1 X176.507 Y110.355 E43.82358
G1 X176.441 Y111.220 E43.92768
G1 X176.410 Y111.894 E44.00864
G1 X176.407 Y112.756 E44.11209
G1 X176.437 Y113.744 E44.23070
G1 X176.501 Y114.582 E44.33155
G1 X176.601 Y115.472 E44.43903
G1 X176.766 Y116.512 E44.56539
G1 X176.880 Y117.090 E44.63608
G1 X177.028 Y117.734 E44.71538
G1 X177.220 Y118.461 E44.80561
G1 X177.702 Y119.936 E44.99182
G1 X178.062 Y120.842 E45.10881
G1 X178.373 Y121.535 E45.19996
G1 X178.658 Y122.103 E45.27622
G1 X179.071 Y122.832 E45.37676
G1 X179.306 Y123.192 E45.42835
G1 X180.375 Y124.820 E45.66206
G1 X178.561 Y128.180 E46.12027
G1 X173.400 Y128.180 E46.73959
G1 X171.925 Y126.336 E47.02295
G1 X171.419 Y125.622 E47.12797
G1 X170.778 Y124.626 E47.27010
G1 X170.243 Y123.702 E47.39822
G1 X169.904 Y123.059 E47.48545
G1 X169.440 Y122.117 E47.61146
G1 X169.002 Y121.102 E47.74412
G1 X167.815 Y121.623 E47.89967
G1 X167.168 Y121.810 E47.98049
G1 X166.489 Y121.905 E48.06276
G1 X165.657 Y121.886 E48.16263
G1 X164.408 Y121.535 E48.31832
G1 X163.240 Y120.591 E48.49853
G1 X162.653 Y119.535 E48.64351
G1 X162.401 Y118.604 E48.75925
G1 X162.387 Y116.651 E48.99362
G1 X162.129 Y116.424 E49.03486
G1 X161.598 Y115.652 E49.14729
G1 X161.167 Y114.629 E49.28050
G1 X161.141 Y114.220 E49.32968
G1 X161.082 Y113.844 E49.37536
G1 X161.082 Y111.155 E49.69804
G10
G0 F9000 X62.503 Y111.469
;TYPE:WALL-INNER
G11
G1 F1200 X62.503 Y114.174 E50.02264
G1 X56.656 Y114.174 E50.72428
G1 X56.656 Y120.046 E51.42892
G1 X53.948 Y120.046 E51.75388
G1 X53.948 Y105.620 E53.48500
G1 X56.656 Y105.620 E53.80996
G1 X56.656 Y111.469 E54.51184
G1 X62.503 Y111.469 E55.21348
G0 F9000 X62.903 Y111.069
;TYPE:WALL-OUTER
G1 F1200 X62.903 Y114.574 E55.63408
G1 X57.056 Y114.574 E56.33572
G1 X57.056 Y120.446 E57.04036
G1 X53.548 Y120.446 E57.46132
G1 X53.548 Y105.220 E59.28844
G1 X57.056 Y105.220 E59.70940
G1 X57.056 Y111.069 E60.41128
G1 X62.903 Y111.069 E61.11292
G0 F9000 X62.363 Y111.860
;TYPE:SKIN
G1 F900 X62.110 Y111.608 E61.15577
G0 F9000 X61.545 Y111.608
G1 F900 X62.363 Y112.426 E61.29459
G0 F9000 X62.363 Y112.992
G1 F900 X60.979 Y111.608 E61.52946
G0 F9000 X60.413 Y111.608
G1 F900 X62.363 Y113.557 E61.86030
G0 F9000 X62.272 Y114.032
G1 F900 X59.848 Y111.608 E62.27167
G0 F9000 X59.282 Y111.608
G1 F900 X61.707 Y114.032 E62.68312
G0 F9000 X61.141 Y114.032
G1 F900 X58.716 Y111.608 E63.09457
G0 F9000 X58.151 Y111.608
G1 F900 X60.575 Y114.032 E63.50593
G0 F9000 X60.010 Y114.032
G1 F900 X57.585 Y111.608 E63.91739
G0 F9000 X57.019 Y111.608
G1 F900 X59.444 Y114.032 E64.32884
G0 F9000 X58.878 Y114.032
G1 F900 X54.088 Y109.242 E65.14173
G0 F9000 X54.088 Y109.808
G1 F900 X58.312 Y114.032 E65.85856
G0 F9000 X57.747 Y114.032
G1 F900 X54.088 Y110.373 E66.47952
G0 F9000 X54.088 Y110.939
G1 F900 X57.181 Y114.032 E67.00442
G0 F9000 X56.615 Y114.032
G1 F900 X54.088 Y111.505 E67.43326
G0 F9000 X54.088 Y112.070
G1 F900 X56.516 Y114.498 E67.84531
G0 F9000 X56.516 Y115.064
G1 F900 X54.088 Y112.636 E68.25735
G0 F9000 X54.088 Y113.202
G1 F900 X56.516 Y115.630 E68.66940
G0 F9000 X56.516 Y116.196
G1 F900 X54.088 Y113.767 E69.08153
G0 F9000 X54.088 Y114.333
G1 F900 X56.516 Y116.761 E69.49357
G0 F9000 X56.516 Y117.327
G1 F900 X54.088 Y114.899 E69.90562
G0 F9000 X54.088 Y115.464
G1 F900 X56.516 Y117.893 E70.31775
G0 F9000 X56.516 Y118.458
G1 F900 X54.088 Y116.030 E70.72979
G0 F9000 X54.088 Y116.596
G1 F900 X56.516 Y119.024 E71.14184
G0 F9000 X56.516 Y119.590
G1 F900 X54.088 Y117.161 E71.55397
G0 F9000 X54.088 Y117.727
G1 F900 X56.265 Y119.905 E71.92350
G0 F9000 X55.700 Y119.905
G1 F900 X54.088 Y118.293 E72.19707
G0 F9000 X54.088 Y118.858
G1 F900 X55.134 Y119.905 E72.37467
G0 F9000 X54.568 Y119.905
G1 F900 X54.088 Y119.424 E72.45621
G0 F9000 X56.516 Y111.104
G1 F900 X54.088 Y108.676 E72.86826
G0 F9000 X54.088 Y108.110
G1 F900 X56.516 Y110.539 E73.28039
G0 F9000 X56.516 Y109.973
G1 F900 X54.088 Y107.545 E73.69243
G0 F9000 X54.088 Y106.979
G1 F900 X56.516 Y109.407 E74.10448
G0 F9000 X56.516 Y108.842
G1 F900 X54.088 Y106.413 E74.51661
G0 F9000 X54.088 Y105.848
G1 F900 X56.516 Y108.276 E74.92865
G0 F9000 X56.516 Y107.710
G1 F900 X54.564 Y105.759 E75.25983
G0 F9000 X55.130 Y105.759
G1 F900 X56.516 Y107.145 E75.49504
G0 F9000 X56.516 Y106.579
G1 F900 X55.695 Y105.759 E75.63429
G0 F9000 X56.261 Y105.759
G1 F900 X56.516 Y106.013 E75.67748
G10
G0 F9000 X58.831 Y117.315
;TYPE:WALL-INNER
G11
G1 F1200 X66.408 Y117.315 E76.58672
G1 X66.408 Y120.046 E76.91444
G1 X58.831 Y120.046 E77.82368
G1 X58.831 Y117.315 E78.15140
G0 F9000 X58.431 Y116.915
;TYPE:WALL-OUTER
G1 F1200 X66.808 Y116.915 E79.15664
G1 X66.808 Y120.446 E79.58036
G1 X58.431 Y120.446 E80.58560
G1 X58.431 Y116.915 E81.00932
G0 F9000 X58.971 Y117.519
;TYPE:SKIN
G1 F900 X61.356 Y119.904 E81.41407
G0 F9000 X60.790 Y119.904
G1 F900 X58.971 Y118.085 E81.72276
G0 F9000 X58.971 Y118.651
G1 F900 X60.224 Y119.904 E81.93540
G0 F9000 X61.922 Y119.904
G1 F900 X59.471 Y117.454 E82.35126
G0 F9000 X58.971 Y119.216
G1 F900 X59.659 Y119.904 E82.46802
G0 F9000 X59.093 Y119.904
G1 F900 X58.971 Y119.782 E82.48873
G0 F9000 X60.037 Y117.454
G1 F900 X62.487 Y119.904 E82.90450
G0 F9000 X63.053 Y119.904
G1 F900 X60.603 Y117.454 E83.32028
G0 F9000 X61.168 Y117.454
G1 F900 X63.619 Y119.904 E83.73615
G0 F9000 X64.184 Y119.904
G1 F900 X61.734 Y117.454 E84.15193
G0 F9000 X62.300 Y117.454
G1 F900 X64.750 Y119.904 E84.56770
G0 F9000 X65.316 Y119.904
G1 F900 X62.866 Y117.454 E84.98348
G0 F9000 X63.431 Y117.454
G1 F900 X65.881 Y119.904 E85.39926
G0 F9000 X66.267 Y119.725
G1 F900 X63.997 Y117.454 E85.78458
G0 F9000 X64.563 Y117.454
G1 F900 X66.267 Y119.159 E86.07384
G0 F9000 X66.267 Y118.593
G1 F900 X65.128 Y117.454 E86.26714
G0 F9000 X65.694 Y117.454
G1 F900 X66.267 Y118.028 E86.36446
G10
G0 F9000 X72.158 Y116.293
;TYPE:WALL-INNER
G11
G1 F1200 X68.815 Y105.620 E87.70658
G1 X71.454 Y105.620 E88.02326
G1 X72.361 Y108.444 E88.37919
G1 X72.566 Y109.076 E88.45892
G1 X74.297 Y109.076 E88.66664
G1 X72.158 Y116.293 E89.56992
G0 F9000 X72.168 Y117.664
;TYPE:WALL-OUTER
G1 F1200 X68.270 Y105.220 E91.13474
G1 X71.746 Y105.220 E91.55186
G1 X72.856 Y108.676 E91.98745
G1 X74.833 Y108.676 E92.22469
G1 X72.168 Y117.664 E93.34966
G10
G0 F9000 X72.242 Y115.517
;TYPE:SKIN
G11
G1 F900 X71.979 Y115.254 E93.39429
G0 F9000 X72.371 Y115.080
G1 F900 X71.721 Y114.431 E93.50452
G0 F9000 X72.500 Y114.643
G1 F900 X71.463 Y113.607 E93.68042
G0 F9000 X71.205 Y112.783
G1 F900 X72.629 Y114.207 E93.92208
G0 F9000 X72.759 Y113.771
G1 F900 X70.947 Y111.959 E94.22959
G0 F9000 X70.689 Y111.135
G1 F900 X72.888 Y113.335 E94.60285
G0 F9000 X73.017 Y112.898
G1 F900 X70.431 Y110.312 E95.04171
G0 F9000 X70.173 Y109.488
G1 F900 X73.147 Y112.462 E95.54642
G0 F9000 X73.276 Y112.026
G1 F900 X69.915 Y108.664 E96.11688
G0 F9000 X69.657 Y107.840
G1 F900 X73.406 Y111.589 E96.75311
G0 F9000 X73.535 Y111.153
G1 F900 X69.398 Y107.017 E97.45510
G0 F9000 X69.140 Y106.193
G1 F900 X73.664 Y110.716 E98.22276
G0 F9000 X73.793 Y110.280
G1 F900 X72.728 Y109.215 E98.40350
G0 F9000 X72.339 Y108.825
G1 F900 X69.272 Y105.759 E98.92390
G0 F9000 X69.838 Y105.759
G1 F900 X72.071 Y107.992 E99.30285
G0 F9000 X71.803 Y107.158
G1 F900 X70.403 Y105.759 E99.54035
G0 F9000 X70.969 Y105.759
G1 F900 X71.534 Y106.324 E99.63624
G0 F9000 X72.594 Y109.037
G0 X73.294 Y109.215
G1 F900 X73.923 Y109.844 E99.74298
G0 F9000 X74.052 Y109.407
G1 F900 X73.860 Y109.215 E99.77557
G10
G0 F9000 X78.190 Y105.620
;TYPE:WALL-INNER
G11
G1 F1200 X80.828 Y105.620 E100.09213
G1 X76.309 Y120.046 E101.90619
G1 X73.638 Y120.046 E102.22671
G1 X78.190 Y105.620 E104.04197
G0 F9000 X77.897 Y105.220
;TYPE:WALL-OUTER
G1 F1200 X81.373 Y105.220 E104.45909
G1 X76.603 Y120.446 E106.37377
G1 X73.093 Y120.446 E106.79497
G1 X77.897 Y105.220 E108.71088
G0 F9000 X78.324 Y105.759
;TYPE:SKIN
G1 F900 X80.086 Y107.521 E109.00990
G0 F9000 X80.221 Y107.091
G1 F900 X78.889 Y105.759 E109.23595
G0 F9000 X79.455 Y105.759
G1 F900 X80.356 Y106.660 E109.38885
G0 F9000 X80.491 Y106.230
G1 F900 X80.021 Y105.759 E109.46870
G0 F9000 X78.164 Y106.165
G1 F900 X79.951 Y107.953 E109.77205
G0 F9000 X79.816 Y108.383
G1 F900 X78.028 Y106.595 E110.07548
G0 F9000 X77.892 Y107.025
G1 F900 X79.681 Y108.814 E110.37909
G0 F9000 X79.546 Y109.245
G1 F900 X77.756 Y107.455 E110.68286
G0 F9000 X77.621 Y107.886
G1 F900 X79.411 Y109.675 E110.98655
G0 F9000 X79.276 Y110.106
G1 F900 X77.486 Y108.316 E111.29032
G0 F9000 X77.350 Y108.745
G1 F900 X79.141 Y110.537 E111.59435
G0 F9000 X79.007 Y110.968
G1 F900 X77.214 Y109.175 E111.89863
G0 F9000 X77.078 Y109.605
G1 F900 X78.872 Y111.399 E112.20308
G0 F9000 X78.737 Y111.829
G1 F900 X76.943 Y110.035 E112.50753
G0 F9000 X76.807 Y110.465
G1 F900 X78.601 Y112.260 E112.81207
G0 F9000 X78.466 Y112.690
G1 F900 X76.671 Y110.895 E113.11669
G0 F9000 X76.535 Y111.325
G1 F900 X78.331 Y113.121 E113.42148
G0 F9000 X78.197 Y113.552
G1 F900 X76.400 Y111.755 E113.72644
G0 F9000 X76.265 Y112.186
G1 F900 X78.062 Y113.983 E114.03140
G0 F9000 X77.927 Y114.414
G1 F900 X76.129 Y112.615 E114.33662
G0 F9000 X75.993 Y113.045
G1 F900 X77.792 Y114.844 E114.64192
G0 F9000 X77.657 Y115.275
G1 F900 X75.857 Y113.475 E114.94739
G0 F9000 X75.721 Y113.905
G1 F900 X77.522 Y115.706 E115.25303
G0 F9000 X77.387 Y116.136
G1 F900 X75.586 Y114.335 E115.55867
G0 F9000 X75.450 Y114.765
G1 F900 X77.252 Y116.567 E115.86448
G0 F9000 X77.117 Y116.998
G1 F900 X75.314 Y115.195 E116.17046
G0 F9000 X75.178 Y115.625
G1 F900 X76.982 Y117.429 E116.47661
G0 F9000 X76.847 Y117.859
G1 F900 X75.043 Y116.055 E116.78276
G0 F9000 X74.908 Y116.485
G1 F900 X76.712 Y118.290 E117.08899
G0 F9000 X76.577 Y118.721
G1 F900 X74.772 Y116.915 E117.39539
G0 F9000 X74.636 Y117.345
G1 F900 X76.442 Y119.151 E117.70188
G0 F9000 X76.308 Y119.583
G1 F900 X74.500 Y117.775 E118.00871
G0 F9000 X74.365 Y118.205
G1 F900 X76.064 Y119.905 E118.29713
G0 F9000 X75.499 Y119.905
G1 F900 X74.229 Y118.635 E118.51265
G0 F9000 X74.093 Y119.065
G1 F900 X74.933 Y119.905 E118.65520
G0 F9000 X74.367 Y119.905
G1 F900 X73.957 Y119.495 E118.72478
G10
G0 F9000 X83.465 Y120.046
;TYPE:WALL-INNER
G11
G1 F1200 X83.465 Y105.620 E120.45590
G1 X86.171 Y105.620 E120.78062
G1 X86.171 Y120.046 E122.51174
G1 X83.465 Y120.046 E122.83646
G0 F9000 X83.065 Y120.446
;TYPE:WALL-OUTER
G1 F1200 X83.065 Y105.220 E124.66358
G1 X86.571 Y105.220 E125.08430
G1 X86.571 Y120.446 E126.91142
G1 X83.065 Y120.446 E127.33214
G0 F9000 X83.984 Y119.905
;TYPE:SKIN
G1 F900 X83.605 Y119.526 E127.39646
G0 F9000 X83.605 Y118.960
G1 F900 X84.550 Y119.905 E127.55683
G0 F9000 X85.115 Y119.905
G1 F900 X83.605 Y118.395 E127.81309
G0 F9000 X83.605 Y117.829
G1 F900 X85.681 Y119.905 E128.16540
G0 F9000 X86.030 Y119.689
G1 F900 X83.605 Y117.263 E128.57702
G0 F9000 X83.605 Y116.698
G1 F900 X86.030 Y119.123 E128.98856
G0 F9000 X86.030 Y118.557
G1 F900 X83.605 Y116.132 E129.40009
G0 F9000 X83.605 Y115.566
G1 F900 X86.030 Y117.992 E129.81171
G0 F9000 X86.030 Y117.426
G1 F900 X83.605 Y115.001 E130.22325
G0 F9000 X83.605 Y114.435
G1 F900 X86.030 Y116.860 E130.63478
G0 F9000 X86.030 Y116.295
G1 F900 X83.605 Y113.869 E131.04641
G0 F9000 X83.605 Y113.303
G1 F900 X86.030 Y115.729 E131.45803
G0 F9000 X86.030 Y115.163
G1 F900 X83.605 Y112.738 E131.86956
G0 F9000 X83.605 Y112.172
G1 F900 X86.030 Y114.597 E132.28110
G0 F9000 X86.030 Y114.032
G1 F900 X83.605 Y111.606 E132.69272
G0 F9000 X83.605 Y111.041
G1 F900 X86.030 Y113.466 E133.10426
G0 F9000 X86.030 Y112.900
G1 F900 X83.605 Y110.475 E133.51579
G0 F9000 X83.605 Y109.909
G1 F900 X86.030 Y112.335 E133.92741
G0 F9000 X86.030 Y111.769
G1 F900 X83.605 Y109.344 E134.33895
G0 F9000 X83.605 Y108.778
G1 F900 X86.030 Y111.203 E134.75049
G0 F9000 X86.030 Y110.638
G1 F900 X83.605 Y108.212 E135.16211
G0 F9000 X83.605 Y107.647
G1 F900 X86.030 Y110.072 E135.57364
G0 F9000 X86.030 Y109.506
G1 F900 X83.605 Y107.081 E135.98518
G0 F9000 X83.605 Y106.515
G1 F900 X86.030 Y108.941 E136.39680
G0 F9000 X86.030 Y108.375
G1 F900 X83.605 Y105.950 E136.80834
G0 F9000 X83.980 Y105.759
G1 F900 X86.030 Y107.809 E137.15623
G0 F9000 X86.030 Y107.244
