;FLAVOR:UltiGCode
;TIME:13163
;MATERIAL:7564
;MATERIAL2:0

;Layer count: 296
;LAYER:0
M107
G0 F9000 X145.898 Y102.255 Z0.300
;TYPE:SKIRT
G1 F1200 X167.098 Y102.255 E2.54400
G1 X167.098 Y121.255 E4.82400
G1 X171.848 Y121.255 E5.39400
G1 X171.848 Y126.682 E6.04524
G1 X171.948 Y126.783 E6.06230
G1 X171.948 Y135.934 E7.16042
G1 X171.194 Y136.689 E7.28846
G1 X170.051 Y139.455 E7.64760
G1 X140.848 Y139.455 E11.15196
G1 X140.848 Y123.755 E13.03596
G1 X141.148 Y123.755 E13.07196
G1 X141.148 Y121.255 E13.37196
G1 X145.898 Y121.255 E13.94196
G1 X145.898 Y102.255 E16.22196
G0 F9000 X146.298 Y102.655
G1 F1200 X166.698 Y102.655 E18.66996
G1 X166.698 Y121.655 E20.94996
G1 X171.448 Y121.655 E21.51996
G1 X171.448 Y126.847 E22.14300
G1 X171.548 Y126.948 E22.16006
G1 X171.548 Y135.768 E23.21846
G1 X170.854 Y136.463 E23.33632
G1 X169.783 Y139.055 E23.67286
G1 X141.248 Y139.055 E27.09706
G1 X141.248 Y124.155 E28.88506
G1 X141.548 Y124.155 E28.92106
G1 X141.548 Y121.655 E29.22106
G1 X146.298 Y121.655 E29.79106
G1 X146.298 Y102.655 E32.07106
G10
G0 F9000 X150.098 Y106.455
;TYPE:WALL-INNER
G11
G1 F1200 X162.898 Y106.455 E33.60706
G1 X162.898 Y125.455 E35.88706
G1 X167.648 Y125.455 E36.45706
G1 X167.648 Y126.755 E36.61306
G1 X145.348 Y126.755 E39.28906
G1 X145.348 Y125.455 E39.44506
G1 X150.098 Y125.455 E40.01506
G1 X150.098 Y106.455 E42.29506
G0 F9000 X149.698 Y106.055
;TYPE:WALL-OUTER
G1 F1200 X163.298 Y106.055 E43.92706
G1 X163.298 Y125.055 E46.20706
G1 X168.048 Y125.055 E46.77706
G1 X168.048 Y127.155 E47.02906
G1 X144.948 Y127.155 E49.80106
G1 X144.948 Y125.055 E50.05306
G1 X149.698 Y125.055 E50.62306
G1 X149.698 Y106.055 E52.90306
G0 F9000 X150.435 Y106.594
;TYPE:SKIN
G1 F900 X162.757 Y118.916 E54.99418
G0 F9000 X162.757 Y118.351
G1 F900 X151.001 Y106.594 E56.98932
G0 F9000 X151.566 Y106.594
G1 F900 X162.757 Y117.785 E58.88850
G0 F9000 X162.757 Y117.219
G1 F900 X152.132 Y106.594 E60.69162
G0 F9000 X152.698 Y106.594
G1 F900 X162.757 Y116.654 E62.39877
G0 F9000 X162.757 Y116.088
G1 F900 X153.263 Y106.594 E64.00996
G0 F9000 X153.829 Y106.594
G1 F900 X162.757 Y115.522 E65.52509
G0 F9000 X162.757 Y114.957
G1 F900 X154.395 Y106.594 E66.94425
G0 F9000 X154.961 Y106.594
G1 F900 X162.757 Y114.391 E68.26736
G0 F9000 X162.757 Y113.825
G1 F900 X155.526 Y106.594 E69.49450
G0 F9000 X156.092 Y106.594
G1 F900 X162.757 Y113.260 E70.62568
G0 F9000 X162.757 Y112.694
G1 F900 X156.658 Y106.594 E71.66080
G0 F9000 X157.223 Y106.594
G1 F900 X162.757 Y112.128 E72.59995
G0 F9000 X162.757 Y111.563
G1 F900 X157.789 Y106.594 E73.44313
G0 F9000 X158.355 Y106.594
G1 F900 X162.757 Y110.997 E74.19026
G0 F9000 X162.757 Y110.431
G1 F900 X158.920 Y106.594 E74.84142
G0 F9000 X159.486 Y106.594
G1 F900 X162.757 Y109.866 E75.39661
G0 F9000 X162.757 Y109.300
G1 F900 X160.052 Y106.594 E75.85575
G0 F9000 X160.617 Y106.594
G1 F900 X162.757 Y108.734 E76.21892
G0 F9000 X162.757 Y108.168
G1 F900 X161.183 Y106.594 E76.48604
G0 F9000 X161.749 Y106.594
G1 F900 X162.757 Y107.603 E76.65718
G0 F9000 X162.757 Y107.037
G1 F900 X162.314 Y106.594 E76.73236
G0 F9000 X150.237 Y106.962
G1 F900 X162.757 Y119.482 E78.85708
G0 F9000 X162.757 Y120.048
G1 F900 X150.237 Y107.528 E80.98179
G0 F9000 X150.237 Y108.093
G1 F900 X162.757 Y120.614 E83.10659
G0 F9000 X162.757 Y121.179
G1 F900 X150.237 Y108.659 E85.23131
G0 F9000 X150.237 Y109.225
G1 F900 X162.757 Y121.745 E87.35602
G0 F9000 X162.757 Y122.311
G1 F900 X150.237 Y109.791 E89.48074
G0 F9000 X150.237 Y110.356
G1 F900 X162.757 Y122.876 E91.60545
G0 F9000 X162.757 Y123.442
G1 F900 X150.237 Y110.922 E93.73017
G0 F9000 X150.237 Y111.488
G1 F900 X162.757 Y124.008 E95.85488
G0 F9000 X162.757 Y124.573
G1 F900 X150.237 Y112.053 E97.97959
G0 F9000 X150.237 Y112.619
G1 F900 X162.757 Y125.139 E100.10431
G0 F9000 X163.213 Y125.595
G1 F900 X164.232 Y126.614 E100.27724
G0 F9000 X163.666 Y126.614
G1 F900 X150.237 Y113.185 E102.55622
G0 F9000 X150.237 Y113.750
G1 F900 X163.101 Y126.614 E104.73931
G0 F9000 X162.535 Y126.614
G1 F900 X150.237 Y114.316 E106.82635
G0 F9000 X150.237 Y114.882
G1 F900 X161.969 Y126.614 E108.81733
G0 F9000 X161.404 Y126.614
G1 F900 X150.237 Y115.447 E110.71244
G0 F9000 X150.237 Y116.013
G1 F900 X160.838 Y126.614 E112.51149
G0 F9000 X160.272 Y126.614
G1 F900 X150.237 Y116.579 E114.21448
G0 F9000 X150.237 Y117.144
G1 F900 X159.707 Y126.614 E115.82160
G0 F9000 X159.141 Y126.614
G1 F900 X150.237 Y117.710 E117.33265
G0 F9000 X150.237 Y118.276
G1 F900 X158.575 Y126.614 E118.74766
G0 F9000 X158.010 Y126.614
G1 F900 X150.237 Y118.842 E120.06670
G0 F9000 X150.237 Y119.407
G1 F900 X157.444 Y126.614 E121.28976
G0 F9000 X156.878 Y126.614
G1 F900 X150.237 Y119.973 E122.41678
G0 F9000 X150.237 Y120.539
G1 F900 X156.313 Y126.614 E123.44783
G0 F9000 X155.747 Y126.614
G1 F900 X150.237 Y121.104 E124.38290
G0 F9000 X150.237 Y121.670
G1 F900 X155.181 Y126.614 E125.22193
G0 F9000 X154.615 Y126.614
G1 F900 X150.237 Y122.236 E125.96490
G0 F9000 X150.237 Y122.801
G1 F900 X154.050 Y126.614 E126.61199
G0 F9000 X153.484 Y126.614
G1 F900 X150.237 Y123.367 E127.16302
G0 F9000 X150.237 Y123.933
G1 F900 X152.918 Y126.614 E127.61800
G0 F9000 X152.353 Y126.614
G1 F900 X150.237 Y124.498 E127.97710
G0 F9000 X150.237 Y125.064
G1 F900 X151.787 Y126.614 E128.24014
G0 F9000 X151.221 Y126.614
G1 F900 X150.202 Y125.594 E128.41316
G0 F9000 X149.636 Y125.594
G1 F900 X150.656 Y126.614 E128.58626
G0 F9000 X150.090 Y126.614
G1 F900 X149.070 Y125.594 E128.75936
G0 F9000 X148.505 Y125.594
G1 F900 X149.524 Y126.614 E128.93237
G0 F9000 X148.959 Y126.614
G1 F900 X147.939 Y125.594 E129.10547
G0 F9000 X147.373 Y125.594
G1 F900 X148.393 Y126.614 E129.27857
G0 F9000 X147.827 Y126.614
G1 F900 X146.808 Y125.594 E129.45159
G0 F9000 X146.242 Y125.594
G1 F900 X147.262 Y126.614 E129.62469
G0 F9000 X146.696 Y126.614
G1 F900 X145.676 Y125.594 E129.79779
G0 F9000 X145.487 Y125.971
G1 F900 X146.130 Y126.614 E129.90691
G0 F9000 X145.565 Y126.614
G1 F900 X145.487 Y126.536 E129.92014
G0 F9000 X163.779 Y125.595
G1 F900 X164.798 Y126.614 E130.09307
G0 F9000 X165.363 Y126.614
G1 F900 X164.345 Y125.595 E130.26592
G0 F9000 X164.910 Y125.595
G1 F900 X165.929 Y126.614 E130.43885
G0 F9000 X166.495 Y126.614
G1 F900 X165.476 Y125.595 E130.61178
G0 F9000 X166.042 Y125.595
G1 F900 X167.061 Y126.614 E130.78471
G0 F9000 X167.507 Y126.495
G1 F900 X166.607 Y125.595 E130.93745
G0 F9000 X167.173 Y125.595
G1 F900 X167.507 Y125.929 E130.99413
G10
G0 F9000 X155.961 Y127.395
;TYPE:SUPPORT
G11
G1 F1200 X155.961 Y136.515 E132.08853
G0 F9000 X155.338 Y135.755
G0 X155.248 Y134.633
G0 X156.008 Y134.633
G1 F1200 X143.788 Y134.633 E133.55493
G0 F9000 X144.548 Y134.633
G0 X145.297 Y135.755
G0 X145.297 Y136.515
G1 F1200 X145.297 Y127.395 E134.64933
G0 F9000 X145.297 Y128.155
G0 X144.548 Y129.301
G0 X143.788 Y129.301
G1 F1200 X156.008 Y129.301 E136.11573
G0 F9000 X155.248 Y129.301
G0 X155.248 Y131.967
G0 X156.008 Y131.967
G1 F1200 X143.788 Y131.967 E137.58213
G0 F9000 X144.548 Y131.967
G0 X147.963 Y135.755
G0 X147.963 Y136.515
G1 F1200 X147.963 Y127.395 E138.67653
G0 F9000 X147.963 Y128.155
G0 X150.629 Y128.155
G0 X150.629 Y127.395
G1 F1200 X150.629 Y136.515 E139.77093
G0 F9000 X150.629 Y135.755
G0 X153.295 Y135.755
G0 X153.295 Y136.515
G1 F1200 X153.295 Y127.395 E140.86533
G10
G0 F9000 X156.788 Y129.301
G11
G1 F1200 X169.008 Y129.301 E142.33173
G0 F9000 X168.248 Y129.301
G0 X168.248 Y131.967
G0 X169.008 Y131.967
G1 F1200 X156.788 Y131.967 E143.79813
G0 F9000 X157.548 Y131.967
G0 X157.548 Y134.633
G0 X156.788 Y134.633
G1 F1200 X169.008 Y134.633 E145.26453
G0 F9000 X168.248 Y134.433
G0 X166.625 Y135.755
G0 X166.625 Y136.515
G1 F1200 X166.625 Y127.395 E146.35893
G0 F9000 X166.625 Y128.155
G0 X163.959 Y128.155
G0 X163.959 Y127.395
G1 F1200 X163.959 Y136.515 E147.45333
G0 F9000 X163.959 Y135.755
G0 X161.293 Y135.755
G0 X161.293 Y136.515
G1 F1200 X161.293 Y127.395 E148.54773
G0 F9000 X161.293 Y128.155
G0 X158.627 Y128.155
G0 X158.627 Y127.395
G1 F1200 X158.627 Y136.515 E149.64213
;LAYER:1
M106 S63
G10
G0 F9000 X162.898 Y125.455 Z0.360
;TYPE:WALL-INNER
G11
G1 F1800 X167.648 Y125.455 E149.75613
G1 X167.648 Y126.755 E149.78733
G1 X145.348 Y126.755 E150.32253
G1 X145.348 Y125.455 E150.35373
G1 X150.098 Y125.455 E150.46773
G1 X150.098 Y106.455 E150.92373
G1 X162.898 Y106.455 E151.23093
G1 X162.898 Y125.455 E151.68693
G0 F9000 X163.298 Y125.055
;TYPE:WALL-OUTER
G1 F1320 X168.048 Y125.055 E151.80093
G1 X168.048 Y127.155 E151.85133
G1 X144.948 Y127.155 E152.40573
G1 X144.948 Y125.055 E152.45613
G1 X149.698 Y125.055 E152.57013
G1 X149.698 Y106.055 E153.02613
G1 X163.298 Y106.055 E153.35253
G1 X163.298 Y125.055 E153.80853
G0 F9000 X163.187 Y125.594
;TYPE:SKIN
G1 F900 X162.167 Y126.615 E153.84316
G0 F9000 X162.732 Y126.615
G1 F900 X163.753 Y125.594 E153.87782
G0 F9000 X164.318 Y125.594
G1 F900 X163.298 Y126.615 E153.91245
G0 F9000 X163.864 Y126.615
G1 F900 X164.884 Y125.594 E153.94709
G0 F9000 X165.450 Y125.594
G1 F900 X164.429 Y126.615 E153.98175
G0 F9000 X164.995 Y126.615
G1 F900 X166.015 Y125.594 E154.01638
G0 F9000 X166.581 Y125.594
G1 F900 X165.561 Y126.615 E154.05102
G0 F9000 X166.126 Y126.615
G1 F900 X167.147 Y125.594 E154.08567
G0 F9000 X167.507 Y125.800
G1 F900 X166.692 Y126.615 E154.11334
G0 F9000 X167.258 Y126.615
G1 F900 X167.507 Y126.366 E154.12179
G0 F9000 X162.757 Y125.459
G1 F900 X161.601 Y126.615 E154.16102
G0 F9000 X161.035 Y126.615
G1 F900 X162.757 Y124.893 E154.21947
G0 F9000 X162.757 Y124.327
G1 F900 X160.470 Y126.615 E154.29711
G0 F9000 X159.904 Y126.615
G1 F900 X162.757 Y123.762 E154.39394
G0 F9000 X162.757 Y123.196
G1 F900 X159.338 Y126.615 E154.50999
G0 F9000 X158.773 Y126.615
G1 F900 X162.757 Y122.630 E154.64523
G0 F9000 X162.757 Y122.065
G1 F900 X158.207 Y126.615 E154.79966
G0 F9000 X157.641 Y126.615
G1 F900 X162.757 Y121.499 E154.97330
G0 F9000 X162.757 Y120.933
G1 F900 X157.075 Y126.615 E155.16615
G0 F9000 X156.510 Y126.615
G1 F900 X162.757 Y120.367 E155.37820
G0 F9000 X162.757 Y119.802
G1 F900 X155.944 Y126.615 E155.60944
G0 F9000 X155.378 Y126.615
G1 F900 X162.757 Y119.236 E155.85989
G0 F9000 X162.757 Y118.670
G1 F900 X154.813 Y126.615 E156.12954
G0 F9000 X154.247 Y126.615
G1 F900 X162.757 Y118.105 E156.41838
G0 F9000 X162.757 Y117.539
G1 F900 X153.681 Y126.615 E156.72643
G0 F9000 X153.116 Y126.615
G1 F900 X162.757 Y116.973 E157.05367
G0 F9000 X162.757 Y116.408
G1 F900 X152.550 Y126.615 E157.40011
G0 F9000 X151.984 Y126.615
G1 F900 X162.757 Y115.842 E157.76576
G0 F9000 X162.757 Y115.276
G1 F900 X151.419 Y126.615 E158.15060
G0 F9000 X150.853 Y126.615
G1 F900 X162.757 Y114.711 E158.55463
G0 F9000 X162.757 Y114.145
G1 F900 X150.287 Y126.615 E158.97788
G0 F9000 X149.722 Y126.615
G1 F900 X162.757 Y113.579 E159.42032
G0 F9000 X162.757 Y113.014
G1 F900 X150.237 Y125.534 E159.84526
G0 F9000 X150.176 Y125.594
G1 F900 X149.156 Y126.615 E159.87990
G0 F9000 X148.590 Y126.615
G1 F900 X149.611 Y125.594 E159.91455
G0 F9000 X149.045 Y125.594
G1 F900 X148.025 Y126.615 E159.94919
G0 F9000 X147.459 Y126.615
G1 F900 X148.479 Y125.594 E159.98383
G0 F9000 X147.914 Y125.594
G1 F900 X146.893 Y126.615 E160.01848
G0 F9000 X146.327 Y126.615
G1 F900 X147.348 Y125.594 E160.05313
G0 F9000 X146.782 Y125.594
G1 F900 X145.762 Y126.615 E160.08777
G0 F9000 X145.487 Y126.324
G1 F900 X146.216 Y125.594 E160.11253
G0 F9000 X145.651 Y125.594
G1 F900 X145.487 Y125.758 E160.11810
G0 F9000 X150.039 Y125.396
G0 X150.237 Y124.968
G1 F900 X162.757 Y112.448 E160.54304
G0 F9000 X162.757 Y111.882
G1 F900 X150.237 Y124.402 E160.96798
G0 F9000 X150.237 Y123.837
G1 F900 X162.757 Y111.316 E161.39294
G0 F9000 X162.757 Y110.751
G1 F900 X150.237 Y123.271 E161.81789
G0 F9000 X150.237 Y122.705
G1 F900 X162.757 Y110.185 E162.24283
G0 F9000 X162.757 Y109.619
G1 F900 X150.237 Y122.139 E162.66777
G0 F9000 X150.237 Y121.574
G1 F900 X162.757 Y109.054 E163.09271
G0 F9000 X162.757 Y108.488
G1 F900 X150.237 Y121.008 E163.51766
G0 F9000 X150.237 Y120.442
G1 F900 X162.757 Y107.922 E163.94260
G0 F9000 X162.757 Y107.357
G1 F900 X150.237 Y119.877 E164.36754
G0 F9000 X150.237 Y119.311
G1 F900 X162.757 Y106.791 E164.79249
G0 F9000 X162.388 Y106.594
G1 F900 X150.237 Y118.745 E165.20490
G0 F9000 X150.237 Y118.180
G1 F900 X161.822 Y106.594 E165.59813
G0 F9000 X161.257 Y106.594
G1 F900 X150.237 Y117.614 E165.97216
G0 F9000 X150.237 Y117.048
G1 F900 X160.691 Y106.594 E166.32698
G0 F9000 X160.125 Y106.594
G1 F900 X150.237 Y116.483 E166.66261
G0 F9000 X150.237 Y115.917
G1 F900 X159.560 Y106.594 E166.97904
G0 F9000 X158.994 Y106.594
G1 F900 X150.237 Y115.351 E167.27626
G0 F9000 X150.237 Y114.786
G1 F900 X158.428 Y106.594 E167.55429
G0 F9000 X157.863 Y106.594
G1 F900 X150.237 Y114.220 E167.81313
G0 F9000 X150.237 Y113.654
G1 F900 X157.297 Y106.594 E168.05275
G0 F9000 X156.731 Y106.594
G1 F900 X150.237 Y113.089 E168.27318
G0 F9000 X150.237 Y112.523
G1 F900 X156.165 Y106.594 E168.47440
G0 F9000 X155.600 Y106.594
G1 F900 X150.237 Y111.957 E168.65643
G0 F9000 X150.237 Y111.391
G1 F900 X155.034 Y106.594 E168.81924
G0 F9000 X154.468 Y106.594
G1 F900 X150.237 Y110.826 E168.96287
G0 F9000 X150.237 Y110.260
G1 F900 X153.903 Y106.594 E169.08729
G0 F9000 X153.337 Y106.594
G1 F900 X150.237 Y109.694 E169.19251
G0 F9000 X150.237 Y109.129
G1 F900 X152.771 Y106.594 E169.27854
G0 F9000 X152.206 Y106.594
G1 F900 X150.237 Y108.563 E169.34537
G0 F9000 X150.237 Y107.997
G1 F900 X151.640 Y106.594 E169.39298
G0 F9000 X151.074 Y106.594
G1 F900 X150.237 Y107.432 E169.42141
G0 F9000 X150.237 Y106.866
G1 F900 X150.509 Y106.594 E169.43064
G10
G0 F9000 X158.627 Y127.995
;TYPE:SUPPORT
G11
G1 F1620 X158.627 Y135.915 E169.62072
G0 F9000 X158.627 Y135.755
G0 X161.293 Y135.755
G0 X161.293 Y135.915
G1 F1620 X161.293 Y127.995 E169.81080
G0 F9000 X161.293 Y128.155
G0 X163.959 Y128.155
G0 X163.959 Y127.995
G1 F1620 X163.959 Y135.915 E170.00088
G0 F9000 X163.959 Y135.755
G0 X166.625 Y135.755
G0 X166.625 Y135.915
G1 F1620 X166.625 Y127.995 E170.19096
G10
G0 F9000 X153.295 Y127.995
G11
G1 F1620 X153.295 Y135.915 E170.38104
G0 F9000 X153.295 Y135.755
G0 X150.629 Y135.755
G0 X150.629 Y135.915
G1 F1620 X150.629 Y127.995 E170.57112
G0 F9000 X150.629 Y128.155
G0 X147.963 Y128.155
G0 X147.963 Y127.995
G1 F1620 X147.963 Y135.915 E170.76120
G0 F9000 X147.963 Y135.755
G0 X145.297 Y135.755
G0 X145.297 Y135.915
G1 F1620 X145.297 Y127.995 E170.95128
;LAYER:2
M106 S127
G0 F9000 X145.353 Y126.755 Z0.420
;TYPE:WALL-INNER
G1 F2400 X145.350 Y125.455 E170.98248
G1 X150.098 Y125.455 E171.09643
G1 X150.098 Y106.455 E171.55243
G1 X162.898 Y106.455 E171.85963
G1 X162.898 Y125.455 E172.31563
G1 X167.648 Y125.455 E172.42963
G1 X167.648 Y126.755 E172.46083
G1 X145.353 Y126.755 E172.99591
G0 F9000 X144.954 Y127.155
;TYPE:WALL-OUTER
G1 F1500 X144.949 Y125.055 E173.04631
G1 X149.698 Y125.055 E173.16029
G1 X149.698 Y106.055 E173.61629
G1 X163.298 Y106.055 E173.94269
G1 X163.298 Y125.055 E174.39869
G1 X168.048 Y125.055 E174.51269
G1 X168.048 Y127.155 E174.56309
G1 X144.954 Y127.155 E175.11735
G0 F9000 X145.565 Y126.615
;TYPE:SKIN
G1 F900 X145.491 Y126.541 E175.11986
G0 F9000 X145.490 Y125.973
G1 F900 X146.131 Y126.615 E175.14163
G0 F9000 X146.697 Y126.615
G1 F900 X145.677 Y125.595 E175.17625
G0 F9000 X146.243 Y125.595
G1 F900 X147.262 Y126.615 E175.21085
G0 F9000 X147.828 Y126.615
G1 F900 X146.808 Y125.595 E175.24547
G0 F9000 X147.374 Y125.595
G1 F900 X148.394 Y126.615 E175.28009
G0 F9000 X148.959 Y126.615
G1 F900 X147.940 Y125.595 E175.31470
G0 F9000 X148.505 Y125.595
G1 F900 X149.525 Y126.615 E175.34932
G0 F9000 X150.091 Y126.615
G1 F900 X149.071 Y125.595 E175.38394
G0 F9000 X149.637 Y125.595
G1 F900 X150.656 Y126.615 E175.41854
G0 F9000 X151.222 Y126.615
G1 F900 X150.202 Y125.595 E175.45316
G0 F9000 X150.237 Y125.064
G1 F900 X151.788 Y126.615 E175.50580
G0 F9000 X152.353 Y126.615
G1 F900 X150.237 Y124.498 E175.57764
G0 F9000 X150.237 Y123.933
G1 F900 X152.919 Y126.615 E175.66867
G0 F9000 X153.485 Y126.615
G1 F900 X150.237 Y123.367 E175.77891
G0 F9000 X150.237 Y122.801
G1 F900 X154.050 Y126.615 E175.90834
G0 F9000 X154.616 Y126.615
G1 F900 X150.237 Y122.236 E176.05697
G0 F9000 X150.237 Y121.670
G1 F900 X155.182 Y126.615 E176.22481
