;FLAVOR:UltiGCode
;TIME:1622
;MATERIAL:263
;MATERIAL2:0

;Layer count: 617
;LAYER:0
M107
G0 F9000 X91.399 Y89.686 Z0.300
G0 X91.729 Y89.361
;TYPE:SKIRT
G1 F1200 X91.736 Y89.349 E0.00167
G1 X92.410 Y88.677 E0.11588
G1 X92.938 Y88.176 E0.20322
G1 X93.515 Y87.661 E0.29603
G1 X94.046 Y87.207 E0.37987
G1 X94.521 Y86.813 E0.45392
G1 X95.040 Y86.403 E0.53329
G1 X95.558 Y86.020 E0.61060
G1 X96.050 Y85.670 E0.68305
G1 X96.617 Y85.284 E0.76536
G1 X97.164 Y84.929 E0.84361
G1 X97.499 Y84.721 E0.89093
G1 X97.500 Y84.717 E0.89143
G1 X97.620 Y84.647 E0.90810
G1 X97.757 Y84.562 E0.92745
G1 X98.225 Y84.289 E0.99246
G1 X98.421 Y84.179 E1.01943
G1 X99.166 Y83.744 E1.12296
G1 X99.700 Y83.446 E1.19634
G1 X100.117 Y83.228 E1.25281
G1 X100.822 Y82.833 E1.34978
G1 X100.848 Y82.865 E1.35473
G1 X101.166 Y82.711 E1.39713
G1 X101.865 Y82.388 E1.48953
G1 X102.474 Y82.126 E1.56909
G1 X103.075 Y81.889 E1.64661
G1 X103.642 Y81.679 E1.71917
G1 X103.969 Y81.565 E1.76072
G1 X103.960 Y81.509 E1.76753
G1 X105.106 Y81.192 E1.91021
G1 X105.565 Y81.054 E1.96773
G1 X105.958 Y80.944 E2.01670
G1 X106.910 Y80.694 E2.13482
G1 X107.332 Y80.578 E2.18733
G1 X108.057 Y80.402 E2.27686
G1 X108.814 Y80.247 E2.36958
G1 X109.499 Y80.119 E2.45321
G1 X110.109 Y80.015 E2.52746
G1 X110.761 Y79.919 E2.60655
G1 X111.403 Y79.846 E2.68408
G1 X112.005 Y79.789 E2.75665
G1 X112.686 Y79.739 E2.83859
G1 X113.339 Y79.704 E2.91706
G1 X114.025 Y79.684 E2.99941
G1 X114.334 Y79.679 E3.03650
G1 X114.469 Y79.670 E3.05274
G1 X114.593 Y79.680 E3.06766
G1 X114.643 Y79.679 E3.07366
G1 X114.687 Y79.680 E3.07895
G1 X114.787 Y79.678 E3.09095
G1 X114.811 Y79.679 E3.09383
G1 X115.089 Y79.676 E3.12719
G1 X115.147 Y79.687 E3.13428
G1 X115.367 Y79.674 E3.16072
G1 X115.455 Y79.679 E3.17130
G1 X115.490 Y79.680 E3.17550
G1 X115.572 Y79.673 E3.18538
G1 X115.605 Y79.674 E3.18934
G1 X115.661 Y79.671 E3.19607
G1 X115.770 Y79.680 E3.20919
G1 X116.365 Y79.692 E3.28061
G1 X117.013 Y79.721 E3.35845
G1 X117.913 Y79.784 E3.46671
G1 X118.681 Y79.856 E3.55927
G1 X119.337 Y79.932 E3.63852
G1 X119.975 Y80.028 E3.71594
G1 X120.570 Y80.128 E3.78834
G1 X121.242 Y80.255 E3.87041
G1 X121.885 Y80.391 E3.94928
G1 X122.563 Y80.552 E4.03290
G1 X122.617 Y80.566 E4.03960
G1 X122.621 Y80.564 E4.04013
G1 X123.003 Y80.667 E4.08761
G1 X123.147 Y80.704 E4.10545
G1 X123.235 Y80.729 E4.11643
G1 X124.335 Y81.024 E4.25309
G1 X125.036 Y81.232 E4.34084
G1 X125.767 Y81.473 E4.43320
G1 X126.427 Y81.706 E4.51719
G1 X127.007 Y81.922 E4.59146
G1 X127.617 Y82.164 E4.67021
G1 X128.210 Y82.421 E4.74777
G1 X128.762 Y82.674 E4.82063
G1 X129.377 Y82.972 E4.90264
G1 X129.958 Y83.267 E4.98083
G1 X130.569 Y83.595 E5.06405
G1 X130.609 Y83.617 E5.06953
G1 X130.611 Y83.617 E5.06977
G1 X130.782 Y83.716 E5.09348
G1 X130.973 Y83.824 E5.11981
G1 X131.072 Y83.883 E5.13364
G1 X132.161 Y84.512 E5.28455
G1 X132.785 Y84.894 E5.37235
G1 X133.013 Y85.044 E5.40510
G1 X133.457 Y85.309 E5.46715
G1 X133.450 Y85.331 E5.46992
G1 X134.006 Y85.713 E5.55087
G1 X134.510 Y86.069 E5.62491
G1 X135.040 Y86.464 E5.70423
G1 X135.547 Y86.867 E5.78195
G1 X136.013 Y87.253 E5.85456
G1 X136.528 Y87.697 E5.93616
G1 X137.015 Y88.134 E6.01468
G1 X137.518 Y88.608 E6.09762
G1 X137.804 Y88.889 E6.14573
G1 X138.139 Y89.228 E6.20292
G1 X138.151 Y89.236 E6.20465
G1 X138.823 Y89.910 E6.31887
G1 X139.324 Y90.438 E6.40621
G1 X139.839 Y91.015 E6.49902
G1 X140.293 Y91.546 E6.58285
G1 X140.687 Y92.021 E6.65691
G1 X141.097 Y92.540 E6.73628
G1 X141.480 Y93.058 E6.81358
G1 X141.830 Y93.550 E6.88604
G1 X142.216 Y94.117 E6.96835
G1 X142.571 Y94.664 E7.04660
G1 X142.779 Y94.999 E7.09392
G1 X142.783 Y95.000 E7.09441
G1 X142.851 Y95.116 E7.11055
G1 X142.938 Y95.257 E7.13043
G1 X143.211 Y95.725 E7.19545
G1 X143.320 Y95.919 E7.22215
G1 X143.756 Y96.666 E7.32594
G1 X144.054 Y97.200 E7.39933
G1 X144.270 Y97.613 E7.45525
G1 X144.667 Y98.322 E7.55276
G1 X144.635 Y98.348 E7.55771
G1 X144.789 Y98.666 E7.60011
G1 X145.112 Y99.365 E7.69251
G1 X145.374 Y99.974 E7.77207
G1 X145.611 Y100.575 E7.84960
G1 X145.821 Y101.142 E7.92215
G1 X146.046 Y101.787 E8.00413
G1 X146.247 Y102.406 E8.08222
G1 X146.446 Y103.065 E8.16483
G1 X146.556 Y103.458 E8.21380
G1 X146.607 Y103.654 E8.23811
G1 X146.609 Y103.656 E8.23845
G1 X146.926 Y104.846 E8.38623
G1 X147.098 Y105.557 E8.47401
G1 X147.253 Y106.314 E8.56673
G1 X147.381 Y106.999 E8.65035
G1 X147.485 Y107.609 E8.72461
G1 X147.581 Y108.261 E8.80369
G1 X147.654 Y108.903 E8.88123
G1 X147.711 Y109.505 E8.95379
G1 X147.761 Y110.186 E9.03573
G1 X147.796 Y110.839 E9.11421
G1 X147.816 Y111.525 E9.19656
G1 X147.821 Y111.834 E9.23365
G1 X147.830 Y111.969 E9.24988
G1 X147.820 Y112.087 E9.26409
G1 X147.821 Y112.143 E9.27081
G1 X147.820 Y112.179 E9.27514
G1 X147.822 Y112.287 E9.28810
G1 X147.821 Y112.311 E9.29098
G1 X147.824 Y112.589 E9.32434
G1 X147.813 Y112.647 E9.33143
G1 X147.826 Y112.867 E9.35787
G1 X147.821 Y112.943 E9.36701
G1 X147.820 Y112.982 E9.37169
G1 X147.820 Y112.990 E9.37265
G1 X147.827 Y113.072 E9.38253
G1 X147.826 Y113.105 E9.38649
G1 X147.829 Y113.161 E9.39322
G1 X147.820 Y113.270 E9.40635
G1 X147.809 Y113.855 E9.47656
G1 X147.783 Y114.485 E9.55222
G1 X147.724 Y115.353 E9.65662
G1 X147.655 Y116.106 E9.74736
G1 X147.579 Y116.752 E9.82542
G1 X147.484 Y117.397 E9.90365
G1 X147.381 Y118.004 E9.97753
G1 X147.276 Y118.574 E10.04708
G1 X147.112 Y119.365 E10.14402
G1 X146.951 Y120.053 E10.22881
G1 X146.934 Y120.118 E10.23687
G1 X146.936 Y120.121 E10.23731
G1 X146.872 Y120.358 E10.26677
G1 X146.797 Y120.650 E10.30294
G1 X146.788 Y120.671 E10.30568
G1 X146.476 Y121.833 E10.45006
G1 X146.273 Y122.524 E10.53649
G1 X146.042 Y123.228 E10.62540
G1 X145.820 Y123.864 E10.70623
G1 X145.609 Y124.434 E10.77917
G1 X145.369 Y125.040 E10.85739
G1 X145.109 Y125.640 E10.93586
G1 X144.854 Y126.196 E11.00926
G1 X144.606 Y126.719 E11.07872
G1 X144.241 Y127.443 E11.17601
G1 X143.906 Y128.068 E11.26111
G1 X143.671 Y128.482 E11.31823
G1 X143.624 Y128.560 E11.32916
G1 X142.989 Y129.659 E11.48147
G1 X142.615 Y130.274 E11.56785
G1 X142.207 Y130.899 E11.65741
G1 X142.189 Y130.925 E11.66121
G1 X141.449 Y132.144 E11.83233
G1 X141.380 Y132.081 E11.84354
G1 X141.087 Y132.475 E11.90246
G1 X140.681 Y132.986 E11.98078
G1 X140.293 Y133.455 E12.05383
G1 X139.915 Y133.899 E12.12380
G1 X139.376 Y134.502 E12.22085
G1 X138.895 Y135.015 E12.30524
G1 X138.611 Y135.304 E12.35386
G1 X138.272 Y135.639 E12.41105
G1 X138.264 Y135.651 E12.41279
G1 X137.592 Y136.321 E12.52666
G1 X137.073 Y136.815 E12.61264
G1 X136.518 Y137.313 E12.70212
G1 X136.009 Y137.751 E12.78270
G1 X135.544 Y138.139 E12.85538
G1 X135.027 Y138.547 E12.93441
G1 X134.503 Y138.935 E13.01265
G1 X134.007 Y139.287 E13.08563
G1 X133.528 Y139.618 E13.15550
G1 X132.851 Y140.061 E13.25259
G1 X132.500 Y140.279 E13.30217
G1 X132.500 Y140.281 E13.30241
G1 X132.449 Y140.311 E13.30951
G1 X132.246 Y140.437 E13.33818
G1 X131.775 Y140.711 E13.40357
G1 X131.546 Y140.840 E13.43511
G1 X130.853 Y141.245 E13.53143
G1 X130.806 Y141.272 E13.53794
G1 X130.306 Y141.550 E13.60659
G1 X129.849 Y141.791 E13.66859
G1 X129.178 Y142.167 E13.76089
G1 X129.153 Y142.137 E13.76557
G1 X128.889 Y142.266 E13.80083
G1 X128.210 Y142.581 E13.89065
G1 X127.607 Y142.842 E13.96950
G1 X126.997 Y143.082 E14.04816
G1 X126.425 Y143.295 E14.12141
G1 X126.031 Y143.436 E14.17162
G1 X126.040 Y143.491 E14.17831
G1 X124.867 Y143.815 E14.32434
G1 X124.435 Y143.946 E14.37851
G1 X124.037 Y144.057 E14.42810
G1 X123.122 Y144.297 E14.54161
G1 X122.670 Y144.422 E14.59789
G1 X121.956 Y144.595 E14.68604
G1 X121.228 Y144.747 E14.77529
G1 X120.568 Y144.873 E14.85592
G1 X119.967 Y144.976 E14.92909
G1 X119.323 Y145.069 E15.00717
G1 X118.677 Y145.144 E15.08521
G1 X118.065 Y145.203 E15.15899
G1 X117.487 Y145.249 E15.22857
G1 X116.678 Y145.295 E15.32581
G1 X115.977 Y145.316 E15.40997
G1 X115.666 Y145.321 E15.44729
G1 X115.531 Y145.330 E15.46353
G1 X115.407 Y145.320 E15.47846
G1 X115.357 Y145.321 E15.48446
G1 X115.313 Y145.320 E15.48974
G1 X115.213 Y145.322 E15.50174
G1 X115.189 Y145.321 E15.50462
G1 X114.911 Y145.324 E15.53799
G1 X114.856 Y145.313 E15.54472
G1 X114.679 Y145.329 E15.56604
G1 X114.542 Y145.321 E15.58251
G1 X114.510 Y145.320 E15.58635
G1 X114.428 Y145.327 E15.59623
G1 X114.395 Y145.326 E15.60019
G1 X114.339 Y145.329 E15.60692
G1 X114.230 Y145.320 E15.62004
G1 X113.645 Y145.309 E15.69026
G1 X113.015 Y145.283 E15.76592
G1 X112.147 Y145.224 E15.87032
G1 X111.394 Y145.155 E15.96106
G1 X110.748 Y145.079 E16.03911
G1 X110.103 Y144.984 E16.11735
G1 X109.496 Y144.881 E16.19123
G1 X108.926 Y144.776 E16.26078
G1 X108.135 Y144.612 E16.35772
G1 X107.447 Y144.451 E16.44251
G1 X107.382 Y144.434 E16.45057
G1 X107.379 Y144.436 E16.45101
G1 X107.142 Y144.372 E16.48046
G1 X106.850 Y144.297 E16.51664
G1 X106.829 Y144.288 E16.51938
G1 X105.667 Y143.976 E16.66376
G1 X104.976 Y143.773 E16.75019
G1 X104.272 Y143.542 E16.83910
G1 X103.636 Y143.320 E16.91993
G1 X103.066 Y143.109 E16.99287
G1 X102.460 Y142.869 E17.07109
G1 X101.860 Y142.609 E17.14955
G1 X101.304 Y142.354 E17.22296
G1 X100.781 Y142.106 E17.29242
G1 X100.057 Y141.741 E17.38971
G1 X99.432 Y141.406 E17.47481
G1 X99.391 Y141.383 E17.48045
G1 X99.389 Y141.383 E17.48069
G1 X99.241 Y141.298 E17.50117
G1 X99.027 Y141.176 E17.53073
G1 X98.925 Y141.115 E17.54499
G1 X97.841 Y140.489 E17.69520
G1 X97.226 Y140.115 E17.78158
G1 X96.941 Y139.929 E17.82242
G1 X96.543 Y139.691 E17.87806
G1 X96.549 Y139.671 E17.88057
G1 X96.047 Y139.328 E17.95353
G1 X95.553 Y138.980 E18.02604
G1 X95.025 Y138.587 E18.10503
G1 X94.514 Y138.181 E18.18334
G1 X94.045 Y137.793 E18.25639
G1 X93.601 Y137.415 E18.32636
G1 X92.998 Y136.876 E18.42341
G1 X92.485 Y136.394 E18.50788
G1 X92.186 Y136.101 E18.55812
G1 X91.926 Y135.837 E18.60258
G1 X91.918 Y135.833 E18.60366
G1 X91.177 Y135.090 E18.72958
G1 X90.676 Y134.562 E18.81692
G1 X90.161 Y133.985 E18.90973
G1 X89.707 Y133.454 E18.99357
G1 X89.312 Y132.977 E19.06788
G1 X88.904 Y132.460 E19.14692
G1 X88.521 Y131.944 E19.22403
G1 X88.170 Y131.450 E19.29675
G1 X87.784 Y130.883 E19.37906
G1 X87.429 Y130.336 E19.45731
G1 X87.108 Y129.818 E19.53044
G1 X87.102 Y129.816 E19.53120
G1 X86.238 Y128.324 E19.73809
G1 X85.946 Y127.799 E19.81018
G1 X85.731 Y127.388 E19.86584
G1 X85.333 Y126.678 E19.96351
G1 X85.365 Y126.652 E19.96846
G1 X85.211 Y126.334 E20.01086
G1 X84.888 Y125.635 E20.10326
G1 X84.626 Y125.026 E20.18282
G1 X84.389 Y124.425 E20.26034
G1 X84.179 Y123.858 E20.33290
G1 X83.954 Y123.213 E20.41488
G1 X83.753 Y122.594 E20.49297
G1 X83.553 Y121.933 E20.57584
G1 X83.443 Y121.537 E20.62516
G1 X83.393 Y121.347 E20.64874
G1 X83.391 Y121.344 E20.64917
G1 X83.074 Y120.154 E20.79695
G1 X82.902 Y119.443 E20.88473
G1 X82.747 Y118.686 E20.97746
G1 X82.619 Y118.001 E21.06108
G1 X82.515 Y117.391 E21.13534
G1 X82.419 Y116.739 E21.21442
G1 X82.346 Y116.097 E21.29196
G1 X82.289 Y115.495 E21.36452
G1 X82.239 Y114.814 E21.44646
G1 X82.204 Y114.161 E21.52493
G1 X82.184 Y113.475 E21.60729
G1 X82.179 Y113.160 E21.64509
G1 X82.170 Y113.031 E21.66061
G1 X82.180 Y112.904 E21.67590
G1 X82.179 Y112.857 E21.68154
G1 X82.180 Y112.811 E21.68706
G1 X82.178 Y112.713 E21.69882
G1 X82.179 Y112.689 E21.70170
G1 X82.176 Y112.411 E21.73507
G1 X82.187 Y112.356 E21.74180
G1 X82.171 Y112.179 E21.76312
G1 X82.180 Y112.034 E21.78056
G1 X82.180 Y112.005 E21.78404
G1 X82.173 Y111.928 E21.79332
G1 X82.174 Y111.895 E21.79728
G1 X82.171 Y111.839 E21.80401
G1 X82.180 Y111.730 E21.81713
G1 X82.192 Y111.135 E21.88855
G1 X82.221 Y110.487 E21.96638
G1 X82.284 Y109.587 E22.07465
G1 X82.356 Y108.819 E22.16721
G1 X82.432 Y108.163 E22.24646
G1 X82.528 Y107.525 E22.32388
G1 X82.628 Y106.930 E22.39628
G1 X82.755 Y106.258 E22.47835
G1 X82.891 Y105.615 E22.55722
G1 X83.050 Y104.944 E22.63997
G1 X83.066 Y104.883 E22.64753
G1 X83.064 Y104.879 E22.64807
G1 X83.138 Y104.602 E22.68248
G1 X83.203 Y104.350 E22.71371
G1 X83.211 Y104.330 E22.71629
G1 X83.524 Y103.165 E22.86105
G1 X83.732 Y102.464 E22.94879
G1 X83.973 Y101.733 E23.04116
G1 X84.206 Y101.073 E23.12515
G1 X84.422 Y100.493 E23.19942
G1 X84.664 Y99.883 E23.27817
G1 X84.921 Y99.290 E23.35572
G1 X85.174 Y98.738 E23.42859
G1 X85.472 Y98.123 E23.51060
G1 X85.767 Y97.542 E23.58879
G1 X86.095 Y96.931 E23.67201
G1 X86.117 Y96.891 E23.67748
G1 X86.117 Y96.889 E23.67772
G1 X86.231 Y96.691 E23.70514
G1 X86.324 Y96.527 E23.72777
G1 X86.398 Y96.403 E23.74509
G1 X87.012 Y95.339 E23.89251
G1 X87.394 Y94.715 E23.98030
G1 X87.544 Y94.487 E24.01305
G1 X87.809 Y94.043 E24.07510
G1 X87.831 Y94.050 E24.07787
G1 X88.213 Y93.494 E24.15882
G1 X88.569 Y92.990 E24.23287
G1 X88.964 Y92.460 E24.31219
G1 X89.367 Y91.953 E24.38991
G1 X89.753 Y91.487 E24.46252
G1 X90.197 Y90.972 E24.54412
G1 X90.634 Y90.485 E24.62264
G1 X91.109 Y89.981 E24.70574
G1 X91.399 Y89.686 E24.75538
G1 X91.729 Y89.361 E24.81096
G10
G0 F9000 X89.838 Y97.286
;TYPE:WALL-OUTER
G11
G1 F1200 X89.814 Y97.285 E24.81385
G1 X89.843 Y97.235 E24.82078
G1 X89.838 Y97.286 E24.82693
G0 F9000 X86.743 Y104.289
G1 F1200 X86.864 Y104.294 E24.84147
G1 X86.733 Y104.324 E24.85759
G1 X86.743 Y104.289 E24.86196
G10
G0 F9000 X85.581 Y111.891
G11
G1 F1200 X85.580 Y111.872 E24.86424
G1 X85.581 Y111.859 E24.86581
G1 X85.607 Y111.904 E24.87204
G1 X85.580 Y111.918 E24.87569
G1 X85.579 Y111.906 E24.87714
G1 X85.581 Y111.891 E24.87896
G0 F9000 X86.450 Y119.534
G1 F1200 X86.432 Y119.551 E24.88193
G1 X86.417 Y119.495 E24.88888
G1 X86.450 Y119.534 E24.89501
G0 F9000 X86.720 Y120.631
G1 F1200 X86.707 Y120.583 E24.90098
G1 X86.853 Y120.617 E24.91897
G1 X86.720 Y120.631 E24.93502
G10
G0 F9000 X89.245 Y126.684
G11
G1 F1200 X89.230 Y126.707 E24.93831
G1 X89.200 Y126.655 E24.94552
G1 X89.245 Y126.684 E24.95194
G0 F9000 X99.786 Y137.662
G1 F1200 X99.785 Y137.686 E24.95482
G1 X99.735 Y137.657 E24.96176
G1 X99.786 Y137.662 E24.96791
G10
G0 F9000 X106.789 Y140.757
G11
G1 F1200 X106.794 Y140.636 E24.98244
G1 X106.824 Y140.767 E24.99857
G1 X106.789 Y140.757 E25.00294
G0 F9000 X107.876 Y141.021
G1 F1200 X107.918 Y141.059 E25.00973
G1 X107.856 Y141.042 E25.01745
G1 X107.876 Y141.021 E25.02093
G10
G0 F9000 X114.391 Y141.919
G11
G1 F1200 X114.372 Y141.920 E25.02321
G1 X114.359 Y141.919 E25.02478
G1 X114.404 Y141.893 E25.03101
G1 X114.418 Y141.920 E25.03466
G1 X114.406 Y141.921 E25.03611
G1 X114.391 Y141.919 E25.03792
G0 F9000 X122.035 Y141.050
G1 F1200 X122.050 Y141.066 E25.04055
G1 X121.999 Y141.080 E25.04690
G1 X122.035 Y141.050 E25.05252
G0 F9000 X123.131 Y140.780
G1 F1200 X123.083 Y140.793 E25.05849
G1 X123.117 Y140.647 E25.07648
G1 X123.131 Y140.780 E25.09253
G10
G0 F9000 X129.184 Y138.256
G11
G1 F1200 X129.206 Y138.269 E25.09560
G1 X129.159 Y138.297 E25.10216
G1 X129.184 Y138.256 E25.10792
G0 F9000 X135.371 Y133.706
G1 F1200 X135.393 Y133.713 E25.11069
G1 X135.354 Y133.751 E25.11723
G1 X135.371 Y133.706 E25.12300
G10
G0 F9000 X140.162 Y127.714
G11
G1 F1200 X140.186 Y127.715 E25.12588
G1 X140.157 Y127.765 E25.13282
G1 X140.162 Y127.714 E25.13897
G0 F9000 X143.235 Y120.684
G1 F1200 X143.267 Y120.676 E25.14293
G1 X143.249 Y120.743 E25.15125
G1 X143.235 Y120.684 E25.15853
G10
G0 F9000 X144.419 Y113.109
G11
G1 F1200 X144.420 Y113.128 E25.16081
G1 X144.419 Y113.141 E25.16238
G1 X144.393 Y113.096 E25.16861
G1 X144.420 Y113.082 E25.17226
G1 X144.421 Y113.094 E25.17371
G1 X144.419 Y113.109 E25.17552
G0 F9000 X140.756 Y98.316
G1 F1200 X140.769 Y98.294 E25.17859
G1 X140.799 Y98.344 E25.18559
G1 X140.756 Y98.316 E25.19174
G0 F9000 X140.223 Y97.369
G1 F1200 X140.220 Y97.345 E25.19465
G1 X140.234 Y97.369 E25.19798
G1 X140.223 Y97.369 E25.19930
G10
G0 F9000 X136.206 Y92.129
G11
G1 F1200 X136.213 Y92.107 E25.20207
G1 X136.251 Y92.146 E25.20861
G1 X136.206 Y92.129 E25.21438
G0 F9000 X130.214 Y87.338
G1 F1200 X130.215 Y87.314 E25.21726
G1 X130.265 Y87.343 E25.22420
G1 X130.214 Y87.338 E25.23035
G10
G0 F9000 X123.211 Y84.243
G11
G1 F1200 X123.206 Y84.366 E25.24512
G1 X123.176 Y84.233 E25.26148
G1 X123.211 Y84.243 E25.26585
G10
G0 F9000 X115.609 Y83.081
G11
G1 F1200 X115.628 Y83.080 E25.26813
G1 X115.641 Y83.081 E25.26969
G1 X115.596 Y83.107 E25.27593
G1 X115.582 Y83.080 E25.27958
G1 X115.594 Y83.079 E25.28103
G1 X115.609 Y83.081 E25.28284
;LAYER:1
M106 S63
