;FLAVOR:UltiGCode
;TIME:16966
;MATERIAL:13472
;MATERIAL2:0

;Layer count: 87
;LAYER:0
M107
G0 F9000 X47.249 Y77.213 Z0.300
G0 X46.635 Y77.738
;TYPE:SKIRT
G1 F1200 X47.249 Y77.213 E0.09694
G1 X48.283 Y76.580 E0.24243
G1 X48.968 Y76.159 E0.33891
G1 X50.090 Y75.695 E0.48461
G1 X50.832 Y75.388 E0.58097
G1 X52.012 Y75.106 E0.72656
G1 X52.790 Y74.918 E0.82260
G1 X53.996 Y74.823 E0.96777
G1 X54.675 Y74.769 E1.04951
G1 X58.001 Y74.770 E1.44863
G1 X63.083 Y74.767 E2.05847
G1 X63.083 Y75.518 E2.14859
G1 X98.592 Y75.518 E6.40967
G1 X98.592 Y74.770 E6.49943
G1 X175.324 Y74.769 E15.70727
G1 X176.407 Y74.855 E15.83764
G1 X177.205 Y74.917 E15.93369
G1 X178.385 Y75.200 E16.07930
G1 X179.171 Y75.389 E16.17631
G1 X180.281 Y75.849 E16.32050
G1 X181.031 Y76.158 E16.41784
G1 X182.059 Y76.791 E16.56271
G1 X182.059 Y76.790 E16.56283
G1 X182.750 Y77.213 E16.66005
G1 X183.673 Y78.002 E16.80576
G1 X184.282 Y78.520 E16.90170
G1 X185.068 Y79.441 E17.04700
G1 X185.593 Y80.055 E17.14394
G1 X186.226 Y81.089 E17.28942
G1 X186.647 Y81.774 E17.38591
G1 X187.109 Y82.892 E17.53107
G1 X187.418 Y83.638 E17.62797
G1 X187.698 Y84.810 E17.77257
G1 X187.888 Y85.596 E17.86960
G1 X187.982 Y86.796 E18.01404
G1 X188.038 Y87.478 E18.09616
G1 X188.038 Y137.521 E24.10132
G1 X187.951 Y138.605 E24.23182
G1 X187.950 Y138.605 E24.23194
G1 X187.889 Y139.400 E24.32762
G1 X187.606 Y140.579 E24.47312
G1 X187.417 Y141.365 E24.57012
G1 X186.954 Y142.482 E24.71522
G1 X186.648 Y143.225 E24.81165
G1 X186.015 Y144.253 E24.95652
G1 X186.016 Y144.253 E24.95664
G1 X185.593 Y144.944 E25.05386
G1 X184.804 Y145.867 E25.19958
G1 X184.286 Y146.476 E25.29552
G1 X183.365 Y147.262 E25.44081
G1 X182.751 Y147.787 E25.53775
G1 X181.717 Y148.420 E25.68324
G1 X181.032 Y148.841 E25.77972
G1 X179.910 Y149.305 E25.92542
G1 X179.168 Y149.612 E26.02178
G1 X177.988 Y149.894 E26.16737
G1 X177.210 Y150.082 E26.26342
G1 X176.003 Y150.177 E26.40870
G1 X175.324 Y150.231 E26.49044
G1 X87.162 Y150.231 E37.06988
G1 X87.162 Y149.482 E37.15976
G1 X74.513 Y149.482 E38.67764
G1 X74.513 Y150.230 E38.76740
G1 X54.675 Y150.231 E41.14796
G1 X53.592 Y150.145 E41.27833
G1 X52.794 Y150.083 E41.37438
G1 X51.615 Y149.800 E41.51988
G1 X50.829 Y149.611 E41.61689
G1 X49.712 Y149.148 E41.76198
G1 X48.969 Y148.842 E41.85841
G1 X47.941 Y148.209 E42.00328
G1 X47.941 Y148.210 E42.00340
G1 X47.250 Y147.787 E42.10062
G1 X46.327 Y146.998 E42.24634
G1 X45.718 Y146.480 E42.34228
G1 X44.932 Y145.559 E42.48757
G1 X44.407 Y144.945 E42.58451
G1 X43.774 Y143.911 E42.73000
G1 X43.353 Y143.226 E42.82648
G1 X42.889 Y142.104 E42.97218
G1 X42.582 Y141.362 E43.06854
G1 X42.300 Y140.182 E43.21413
G1 X42.112 Y139.404 E43.31018
G1 X42.017 Y138.194 E43.45582
G1 X41.962 Y137.522 E43.53673
G1 X41.962 Y87.479 E49.54189
G1 X42.049 Y86.395 E49.67239
G1 X42.050 Y86.395 E49.67251
G1 X42.111 Y85.600 E49.76819
G1 X42.394 Y84.421 E49.91369
G1 X42.583 Y83.635 E50.01070
G1 X43.046 Y82.518 E50.15580
G1 X43.352 Y81.775 E50.25222
G1 X43.985 Y80.747 E50.39709
G1 X43.984 Y80.747 E50.39721
G1 X44.407 Y80.056 E50.49444
G1 X45.196 Y79.133 E50.64015
G1 X45.714 Y78.524 E50.73609
G1 X46.635 Y77.738 E50.88139
G10
G0 F9000 X49.486 Y80.299
;TYPE:WALL-INNER
G11
G1 F1200 X50.698 Y79.556 E51.05198
G1 X52.009 Y79.014 E51.22221
G1 X52.896 Y78.801 E51.33168
G1 X53.388 Y78.682 E51.39242
G1 X54.824 Y78.569 E51.56528
G1 X59.283 Y78.569 E52.10036
G1 X59.283 Y79.318 E52.19024
G1 X102.392 Y79.318 E57.36332
G1 X102.392 Y78.570 E57.45308
G1 X175.174 Y78.569 E66.18692
G1 X176.106 Y78.643 E66.29911
G1 X176.608 Y78.682 E66.35953
G1 X177.498 Y78.895 E66.46934
G1 X177.991 Y79.013 E66.53018
G1 X178.833 Y79.362 E66.63955
G1 X179.304 Y79.557 E66.70072
G1 X180.078 Y80.033 E66.80976
G1 X180.511 Y80.297 E66.87062
G1 X181.203 Y80.889 E66.97990
G1 X181.592 Y81.221 E67.04127
G1 X182.507 Y82.292 E67.21031
G1 X183.250 Y83.504 E67.38090
G1 X183.792 Y84.815 E67.55113
G1 X184.005 Y85.702 E67.66060
G1 X184.124 Y86.194 E67.72134
G1 X184.195 Y87.104 E67.83087
G1 X184.238 Y87.632 E67.89444
G1 X184.238 Y137.369 E73.86288
G1 X184.163 Y138.301 E73.97509
G1 X184.124 Y138.802 E74.03539
G1 X183.911 Y139.692 E74.14520
G1 X183.793 Y140.185 E74.20603
G1 X183.444 Y141.027 E74.31541
G1 X183.249 Y141.498 E74.37658
G1 X182.773 Y142.272 E74.48562
G1 X182.509 Y142.705 E74.54648
G1 X181.917 Y143.397 E74.65576
G1 X181.585 Y143.786 E74.71713
G1 X180.514 Y144.701 E74.88616
G1 X179.302 Y145.444 E75.05676
G1 X177.991 Y145.986 E75.22699
G1 X177.104 Y146.199 E75.33646
G1 X176.612 Y146.318 E75.39720
G1 X175.175 Y146.431 E75.57017
G1 X90.962 Y146.431 E85.67573
G1 X90.962 Y145.682 E85.76561
G1 X70.713 Y145.682 E88.19549
G1 X70.713 Y146.430 E88.28525
G1 X54.825 Y146.431 E90.19181
G1 X53.392 Y146.318 E90.36431
G1 X52.502 Y146.105 E90.47412
G1 X52.009 Y145.987 E90.53495
G1 X51.167 Y145.638 E90.64433
G1 X50.696 Y145.443 E90.70550
G1 X49.922 Y144.967 E90.81454
G1 X49.489 Y144.703 E90.87540
G1 X48.797 Y144.111 E90.98468
G1 X48.408 Y143.779 E91.04605
G1 X47.493 Y142.708 E91.21508
G1 X46.750 Y141.496 E91.38568
G1 X46.208 Y140.185 E91.55591
G1 X45.995 Y139.298 E91.66538
G1 X45.876 Y138.806 E91.72612
G1 X45.805 Y137.896 E91.83565
G1 X45.762 Y137.368 E91.89922
G1 X45.762 Y87.631 E97.86766
G1 X45.837 Y86.699 E97.97986
G1 X45.876 Y86.198 E98.04017
G1 X46.089 Y85.308 E98.14998
G1 X46.207 Y84.815 E98.21081
G1 X46.556 Y83.973 E98.32019
G1 X46.751 Y83.502 E98.38136
G1 X47.227 Y82.728 E98.49040
G1 X47.491 Y82.295 E98.55126
G1 X48.083 Y81.603 E98.66054
G1 X48.415 Y81.214 E98.72191
G1 X49.486 Y80.299 E98.89094
G0 F9000 X71.746 Y105.931
G1 F1200 X70.278 Y107.332 E99.13445
G1 X70.278 Y109.461 E99.38993
G1 X70.746 Y110.089 E99.48392
G1 X71.532 Y111.224 E99.64959
G1 X71.762 Y111.452 E99.68845
G1 X72.004 Y111.643 E99.72545
G1 X72.517 Y111.941 E99.79664
G1 X72.939 Y112.145 E99.85289
G1 X75.008 Y112.988 E100.12098
G1 X75.441 Y113.288 E100.18420
G1 X75.628 Y113.482 E100.21653
G1 X75.814 Y113.744 E100.25509
G1 X76.069 Y114.292 E100.32762
G1 X76.109 Y114.490 E100.35186
G1 X76.128 Y114.894 E100.40039
G1 X76.034 Y114.997 E100.41713
G1 X75.621 Y115.554 E100.50033
G1 X74.942 Y116.501 E100.64017
G1 X74.642 Y116.813 E100.69211
G1 X73.823 Y117.374 E100.81123
G1 X71.988 Y118.496 E101.06933
G1 X71.531 Y118.883 E101.14119
G1 X71.245 Y119.180 E101.19067
G1 X70.818 Y119.763 E101.27739
G1 X70.591 Y120.234 E101.34013
G1 X70.460 Y120.588 E101.38543
G1 X70.336 Y121.138 E101.45308
G1 X70.240 Y121.838 E101.53787
G1 X71.529 Y122.976 E101.74421
G1 X72.631 Y123.771 E101.90727
G1 X74.001 Y124.566 E102.09734
G1 X78.048 Y126.195 E102.62085
G1 X82.598 Y127.814 E103.20038
G1 X89.810 Y130.399 E104.11974
G1 X92.244 Y131.057 E104.42230
G1 X92.812 Y131.212 E104.49295
G1 X93.465 Y131.342 E104.57285
G1 X95.440 Y131.729 E104.81436
G1 X95.523 Y132.344 E104.88883
G1 X95.895 Y133.997 E105.09215
G1 X96.457 Y135.749 E105.31294
G1 X97.002 Y137.021 E105.47900
G1 X97.396 Y137.737 E105.57707
G1 X97.823 Y138.396 E105.67130
G1 X98.020 Y138.673 E105.71209
G1 X98.421 Y139.116 E105.78379
G1 X98.721 Y139.383 E105.83199
G1 X99.087 Y139.632 E105.88511
G1 X99.374 Y139.786 E105.92419
G1 X99.787 Y139.922 E105.97637
G1 X100.316 Y140.018 E106.04089
G1 X100.598 Y139.799 E106.08373
G1 X100.957 Y139.674 E106.12935
G1 X101.793 Y138.497 E106.30259
G1 X102.213 Y137.907 E106.38950
G1 X102.652 Y137.184 E106.49100
G1 X103.425 Y135.870 E106.67394
G1 X104.130 Y133.887 E106.92649
G1 X104.316 Y133.183 E107.01387
G1 X104.931 Y130.734 E107.31687
G1 X105.836 Y124.952 E108.01916
G1 X106.420 Y116.052 E109.08946
G1 X106.216 Y107.679 E110.09452
G1 X106.201 Y107.225 E110.14903
G1 X105.828 Y103.664 E110.57868
G1 X105.710 Y103.021 E110.65713
G1 X105.140 Y99.940 E111.03313
G1 X103.295 Y91.571 E112.06152
G1 X102.899 Y90.580 E112.18958
G1 X102.561 Y89.916 E112.27899
G1 X102.177 Y89.330 E112.36307
G1 X101.878 Y88.970 E112.41922
G1 X101.498 Y88.622 E112.48106
G1 X101.201 Y88.407 E112.52505
G1 X100.615 Y88.106 E112.60411
G1 X100.343 Y88.023 E112.63823
G1 X99.990 Y87.989 E112.68079
G1 X99.823 Y87.999 E112.70087
G1 X98.711 Y88.238 E112.83735
G1 X97.221 Y91.114 E113.22604
G1 X96.378 Y93.194 E113.49536
G1 X95.813 Y95.056 E113.72886
G1 X95.587 Y96.044 E113.85048
G1 X95.462 Y96.786 E113.94078
G1 X94.763 Y96.852 E114.02503
G1 X93.199 Y97.151 E114.21611
G1 X89.846 Y98.182 E114.63706
G1 X86.785 Y99.283 E115.02742
G1 X77.194 Y102.627 E116.24629
G1 X74.951 Y103.730 E116.54623
G1 X73.523 Y104.615 E116.74783
G1 X73.152 Y104.846 E116.80028
G1 X71.746 Y105.931 E117.01339
G0 F9000 X57.017 Y118.195
G1 F1200 X56.913 Y118.046 E117.03520
G1 X56.369 Y117.502 E117.12752
G1 X55.888 Y117.165 E117.19799
G1 X55.737 Y117.060 E117.22007
G1 X55.209 Y116.813 E117.29002
G1 X55.043 Y116.735 E117.31202
G1 X54.298 Y116.536 E117.40456
G1 X53.692 Y116.483 E117.47756
G1 X52.516 Y116.471 E117.61868
G1 X52.237 Y116.471 E117.65216
G1 X51.679 Y116.519 E117.71937
G1 X51.495 Y116.536 E117.74155
G1 X50.753 Y116.735 E117.83373
G1 X50.222 Y116.983 E117.90406
G1 X50.055 Y117.061 E117.92618
G1 X49.579 Y117.395 E117.99596
G1 X49.427 Y117.501 E118.01819
G1 X48.883 Y118.045 E118.11051
G1 X48.546 Y118.525 E118.18089
G1 X48.441 Y118.676 E118.20296
G1 X48.195 Y119.204 E118.27286
G1 X48.116 Y119.371 E118.29503
G1 X47.917 Y120.116 E118.38757
G1 X47.865 Y120.724 E118.46079
G1 X47.853 Y134.876 E120.15903
G1 X47.900 Y135.435 E120.22635
G1 X47.917 Y135.619 E120.24852
G1 X48.116 Y136.361 E120.34071
G1 X48.364 Y136.892 E120.41104
G1 X48.442 Y137.058 E120.43305
G1 X48.776 Y137.535 E120.50292
G1 X48.882 Y137.687 E120.52516
G1 X49.426 Y138.231 E120.61748
G1 X49.906 Y138.568 E120.68786
G1 X50.057 Y138.673 E120.70993
G1 X50.585 Y138.919 E120.77983
G1 X50.752 Y138.998 E120.80200
G1 X51.497 Y139.197 E120.89453
G1 X52.103 Y139.249 E120.96752
G1 X53.279 Y139.261 E121.10865
G1 X53.557 Y139.261 E121.14201
G1 X54.116 Y139.214 E121.20932
G1 X54.300 Y139.197 E121.23150
G1 X55.042 Y138.998 E121.32368
G1 X55.573 Y138.750 E121.39401
G1 X55.739 Y138.672 E121.41602
G1 X56.216 Y138.338 E121.48590
G1 X56.368 Y138.232 E121.50813
G1 X56.912 Y137.688 E121.60045
G1 X57.249 Y137.207 E121.67093
G1 X57.354 Y137.056 E121.69300
G1 X57.601 Y136.528 E121.76295
G1 X57.679 Y136.362 E121.78496
G1 X57.878 Y135.617 E121.87750
G1 X57.930 Y135.008 E121.95084
G1 X57.942 Y120.856 E123.64908
G1 X57.895 Y120.298 E123.71628
G1 X57.878 Y120.114 E123.73845
G1 X57.679 Y119.372 E123.83064
G1 X57.431 Y118.841 E123.90097
G1 X57.353 Y118.674 E123.92309
G1 X57.017 Y118.195 E123.99330
G0 F9000 X89.811 Y130.398
G0 X99.375 Y139.784
G0 X100.311 Y140.000
G0 X100.950 Y139.665
G0 X103.424 Y135.869
G0 X104.930 Y130.733
G0 X111.362 Y122.837
G1 F1200 X111.381 Y126.014 E124.37454
G1 X111.753 Y130.043 E124.86008
G1 X112.228 Y132.645 E125.17748
G1 X112.605 Y133.978 E125.34371
G1 X112.865 Y134.641 E125.42917
G1 X113.062 Y135.028 E125.48128
G1 X113.335 Y135.439 E125.54049
G1 X113.606 Y135.592 E125.57784
G1 X113.954 Y135.712 E125.62201
G1 X114.494 Y135.795 E125.68757
G1 X115.198 Y135.813 E125.77208
G1 X116.214 Y135.788 E125.89404
G1 X116.655 Y134.945 E126.00820
G1 X116.776 Y134.562 E126.05640
G1 X116.812 Y134.330 E126.08457
G1 X120.768 Y134.308 E126.55930
G1 X121.966 Y134.167 E126.70405
G1 X122.894 Y133.963 E126.81807
G1 X123.589 Y133.725 E126.90623
G1 X124.083 Y133.493 E126.97172
G1 X124.546 Y133.209 E127.03690
G1 X125.082 Y132.757 E127.12104
G1 X125.370 Y132.426 E127.17369
G1 X125.551 Y132.179 E127.21043
G1 X125.813 Y131.730 E127.27282
G1 X126.040 Y131.228 E127.33893
G1 X126.230 Y130.651 E127.41182
G1 X126.432 Y129.871 E127.50851
G1 X126.504 Y129.542 E127.54893
G1 X126.669 Y128.284 E127.70118
G1 X126.737 Y126.615 E127.90163
G1 X126.639 Y124.552 E128.14947
G1 X126.318 Y122.212 E128.43290
G1 X125.893 Y120.386 E128.65787
G1 X125.451 Y119.082 E128.82310
G1 X125.146 Y118.413 E128.91133
G1 X124.921 Y118.013 E128.96640
G1 X124.644 Y117.630 E129.02312
G1 X124.451 Y117.417 E129.05761
G1 X124.184 Y117.193 E129.09943
G1 X123.600 Y116.859 E129.18017
G1 X123.133 Y116.684 E129.24001
G1 X122.481 Y116.520 E129.32069
G1 X121.319 Y116.355 E129.46153
G1 X119.237 Y116.098 E129.71326
G1 X118.729 Y115.968 E129.77619
G1 X118.354 Y115.820 E129.82457
G1 X118.044 Y115.635 E129.86789
G1 X117.918 Y115.527 E129.88780
G1 X117.717 Y115.276 E129.92639
G1 X117.694 Y115.237 E129.93182
G1 X117.591 Y114.960 E129.96728
G1 X117.501 Y114.407 E130.03452
G1 X117.489 Y113.922 E130.09274
G1 X117.534 Y113.240 E130.17475
G1 X117.637 Y112.577 E130.25527
G1 X117.898 Y112.430 E130.29121
G1 X118.429 Y112.198 E130.36075
G1 X119.195 Y111.948 E130.45744
G1 X121.194 Y111.532 E130.70246
G1 X123.711 Y111.065 E131.00966
G1 X124.181 Y110.451 E131.10244
G1 X125.378 Y109.027 E131.32568
G1 X125.720 Y108.446 E131.40658
G1 X126.024 Y107.647 E131.50916
G1 X126.259 Y106.730 E131.62276
G1 X126.510 Y105.161 E131.81343
G1 X126.668 Y102.824 E132.09451
G1 X126.618 Y100.408 E132.38450
G1 X126.393 Y98.412 E132.62553
G1 X126.119 Y97.135 E132.78226
G1 X125.927 Y96.555 E132.85557
G1 X125.779 Y96.144 E132.90800
G1 X125.612 Y95.790 E132.95496
G1 X125.323 Y95.307 E133.02251
G1 X124.863 Y94.805 E133.10421
G1 X124.305 Y94.405 E133.18660
G1 X123.749 Y94.137 E133.26067
G1 X123.341 Y93.983 E133.31300
G1 X122.641 Y93.798 E133.39988
G1 X121.699 Y93.646 E133.51439
G1 X119.108 Y93.540 E133.82557
G1 X116.864 Y93.589 E134.09491
G1 X116.864 Y92.348 E134.24383
G1 X116.655 Y92.348 E134.26891
G1 X116.655 Y92.191 E134.28775
G1 X113.290 Y91.885 E134.69322
G1 X111.504 Y99.461 E135.62726
G1 X111.443 Y100.011 E135.69366
G1 X111.294 Y101.330 E135.85295
G1 X111.233 Y101.877 E135.91899
G1 X111.208 Y103.686 E136.13610
G1 X111.270 Y104.477 E136.23131
G1 X111.337 Y105.108 E136.30745
G1 X111.440 Y105.717 E136.38157
G1 X111.541 Y106.213 E136.44231
G1 X112.956 Y111.424 E137.09028
G1 X112.966 Y111.557 E137.10628
G1 X112.360 Y112.201 E137.21240
G1 X112.158 Y112.559 E137.26172
G1 X112.035 Y113.077 E137.32561
G1 X111.992 Y113.491 E137.37556
G1 X112.007 Y113.949 E137.43055
G1 X112.125 Y114.559 E137.50510
G1 X112.337 Y115.098 E137.57461
G1 X112.870 Y116.194 E137.72086
G1 X112.988 Y116.597 E137.77125
G1 X112.999 Y116.828 E137.79900
G1 X112.964 Y117.060 E137.82715
G1 X112.904 Y117.255 E137.85163
G1 X112.626 Y117.884 E137.93416
G1 X112.197 Y118.747 E138.04981
G1 X111.712 Y119.970 E138.20769
G1 X111.517 Y121.013 E138.33502
G1 X111.362 Y122.837 E138.55468
G0 F9000 X111.753 Y130.043
G0 X112.866 Y134.640
G0 X113.607 Y135.590
G0 X116.196 Y135.760
G0 X124.082 Y133.493
G0 X125.812 Y131.729
G0 X126.669 Y128.283
G0 X126.317 Y122.212
G0 X130.429 Y119.733
G1 F1200 X130.512 Y120.302 E138.62369
G1 X130.758 Y121.182 E138.73334
G1 X131.021 Y121.750 E138.80845
G1 X131.235 Y122.127 E138.86047
G1 X131.692 Y122.760 E138.95416
G1 X132.229 Y123.361 E139.05087
G1 X133.221 Y124.267 E139.21209
G1 X137.566 Y127.703 E139.87682
G1 X138.004 Y128.178 E139.95435
G1 X138.367 Y128.668 E140.02753
G1 X138.593 Y129.072 E140.08308
G1 X138.739 Y129.418 E140.12814
G1 X138.820 Y129.678 E140.16082
G1 X138.851 Y129.852 E140.18203
G1 X138.423 Y130.755 E140.30195
G1 X138.271 Y130.936 E140.33031
G1 X137.923 Y131.118 E140.37744
G1 X137.716 Y131.271 E140.40832
G1 X137.513 Y131.360 E140.43492
G1 X137.222 Y131.430 E140.47084
G1 X136.919 Y131.463 E140.50741
G1 X136.393 Y131.475 E140.57055
G1 X135.947 Y131.464 E140.62409
G1 X134.138 Y129.882 E140.91247
G1 X133.423 Y130.228 E141.00778
G1 X133.471 Y131.202 E141.12481
G1 X133.530 Y131.612 E141.17451
G1 X133.695 Y132.234 E141.25173
G1 X133.955 Y133.084 E141.35840
G1 X134.932 Y133.666 E141.49487
G1 X135.496 Y134.116 E141.58145
G1 X136.504 Y134.150 E141.70248
G1 X137.305 Y134.091 E141.79886
G1 X138.066 Y133.950 E141.89173
G1 X138.787 Y133.728 E141.98226
