;FLAVOR:UltiGCode
;TIME:14956
;MATERIAL:12351
;MATERIAL2:0

;Layer count: 102
;LAYER:0
M107
G0 F9000 X54.260 Y79.349 Z0.300
;TYPE:SKIRT
G1 F1200 X56.107 Y78.585 E0.23985
G1 X57.558 Y77.984 E0.42832
G1 X59.126 Y77.777 E0.61811
G1 X60.903 Y77.557 E0.83298
G1 X169.098 Y77.557 E13.81638
G1 X170.872 Y77.778 E14.03090
G1 X172.440 Y77.983 E14.22067
G1 X173.892 Y78.584 E14.40924
G1 X175.740 Y79.351 E14.64934
G1 X176.994 Y80.312 E14.83893
G1 X178.574 Y81.541 E15.07913
G1 X179.527 Y82.783 E15.26699
G1 X180.745 Y84.349 E15.50506
G1 X181.354 Y85.818 E15.69589
G1 X182.103 Y87.661 E15.93462
G1 X182.377 Y89.634 E16.17365
G1 X182.557 Y90.990 E16.33780
G1 X182.543 Y114.354 E19.14148
G1 X182.544 Y134.009 E21.50008
G1 X182.363 Y135.387 E21.66686
G1 X182.362 Y135.387 E21.66698
G1 X182.120 Y137.329 E21.90182
G1 X180.750 Y140.642 E22.33203
G1 X179.532 Y142.228 E22.57200
G1 X178.576 Y143.475 E22.76055
G1 X175.740 Y145.651 E23.18951
G1 X173.893 Y146.415 E23.42936
G1 X172.442 Y147.016 E23.61782
G1 X169.110 Y147.456 E24.02114
G1 X60.889 Y147.456 E37.00766
G1 X59.118 Y147.221 E37.22204
G1 X57.560 Y147.017 E37.41059
G1 X56.108 Y146.416 E37.59917
G1 X54.260 Y145.649 E37.83927
G1 X53.006 Y144.688 E38.02886
G1 X51.426 Y143.459 E38.26906
G1 X50.460 Y142.200 E38.45949
G1 X49.261 Y140.636 E38.69598
G1 X48.649 Y139.160 E38.88772
G1 X47.894 Y137.337 E39.12450
G1 X47.638 Y135.386 E39.36062
G1 X47.456 Y134.010 E39.52718
G1 X47.457 Y90.993 E44.68922
G1 X47.637 Y89.616 E44.85587
G1 X47.880 Y87.671 E45.09108
G1 X49.250 Y84.358 E45.52129
G1 X50.468 Y82.772 E45.76126
G1 X51.424 Y81.525 E45.94981
G1 X54.260 Y79.349 E46.37877
G10
G0 F9000 X154.848 Y101.108
;TYPE:FILL
G11
G1 F1200 X155.167 Y101.427 E46.43290
G0 F9000 X156.943 Y100.443
G1 F1200 X157.097 Y100.289 E46.45904
G0 F9000 X157.405 Y100.418
;TYPE:WALL-INNER
G1 F1200 X156.446 Y100.783 E46.58217
G1 X155.043 Y101.673 E46.78155
G1 X154.312 Y103.024 E46.96588
G1 X154.777 Y103.904 E47.08532
G1 X155.047 Y104.412 E47.15435
G1 X158.187 Y104.148 E47.53248
G1 X158.229 Y104.218 E47.54228
G1 X158.072 Y104.494 E47.58038
G1 X155.988 Y105.372 E47.85175
G1 X155.287 Y106.594 E48.02080
G1 X155.744 Y107.426 E48.13471
G1 X155.976 Y107.851 E48.19282
G1 X157.367 Y107.975 E48.36040
G1 X158.132 Y108.131 E48.45409
G1 X158.323 Y109.699 E48.64364
G1 X158.124 Y113.499 E49.10026
G1 X157.647 Y119.296 E49.79826
G1 X156.966 Y124.445 E50.42152
G1 X156.380 Y126.479 E50.67552
G1 X155.935 Y126.584 E50.73039
G1 X154.882 Y126.476 E50.85741
G1 X153.364 Y126.391 E51.03986
G1 X153.183 Y127.836 E51.21461
G1 X154.160 Y128.956 E51.39296
G1 X155.667 Y129.749 E51.59731
G1 X157.383 Y130.094 E51.80735
G1 X158.744 Y129.612 E51.98061
G1 X159.439 Y127.804 E52.21305
G1 X159.612 Y127.356 E52.27068
G1 X160.507 Y123.485 E52.74745
G1 X161.209 Y117.324 E53.49156
G1 X161.486 Y109.657 E54.41220
G1 X161.253 Y102.079 E55.32199
G1 X160.137 Y98.833 E55.73389
G1 X159.230 Y96.941 E55.98567
G1 X158.876 Y95.190 E56.20004
G1 X158.872 Y93.791 E56.36792
G1 X158.867 Y92.757 E56.49200
G1 X155.778 Y93.017 E56.86399
G1 X153.850 Y93.416 E57.10025
G1 X152.596 Y94.261 E57.28171
G1 X152.612 Y95.101 E57.38253
G1 X152.619 Y95.431 E57.42214
G1 X153.244 Y96.263 E57.54701
G1 X154.326 Y96.492 E57.67972
G1 X155.303 Y96.319 E57.79879
G1 X155.582 Y96.328 E57.83228
G1 X156.053 Y98.431 E58.09090
G1 X156.697 Y99.525 E58.24323
G1 X156.886 Y99.845 E58.28783
G1 X157.405 Y100.418 E58.38060
G0 F9000 X155.489 Y99.337
G1 F1200 X155.734 Y98.718 E58.46049
G1 X154.929 Y98.216 E58.57433
G1 X154.025 Y98.121 E58.68341
G1 X152.848 Y98.576 E58.83484
G1 X151.614 Y99.602 E59.02742
G1 X150.615 Y101.730 E59.30951
G1 X150.009 Y104.779 E59.68255
G1 X149.625 Y106.975 E59.95007
G1 X149.535 Y107.485 E60.01222
G1 X149.018 Y108.726 E60.17354
G1 X148.374 Y109.078 E60.26161
G1 X147.301 Y109.405 E60.39622
G1 X146.180 Y109.877 E60.54218
G1 X145.216 Y110.986 E60.71851
G1 X145.834 Y111.864 E60.84735
G1 X146.084 Y112.218 E60.89935
G1 X148.352 Y112.445 E61.17287
G1 X150.409 Y112.451 E61.41972
G1 X151.961 Y112.470 E61.60597
G1 X152.498 Y111.069 E61.78602
G1 X152.623 Y110.743 E61.82791
G1 X153.131 Y107.588 E62.21139
G1 X153.766 Y103.952 E62.65431
G1 X154.575 Y101.359 E62.98027
G1 X155.254 Y99.936 E63.16947
G1 X155.489 Y99.337 E63.24668
G0 F9000 X155.676 Y98.737
G0 X154.926 Y98.221
G0 X154.026 Y98.127
G0 X150.859 Y97.783
G1 F1200 X151.332 Y96.051 E63.46213
G1 X151.439 Y95.659 E63.51090
G1 X152.032 Y94.589 E63.65770
G1 X152.168 Y94.344 E63.69132
G1 X152.993 Y93.377 E63.84385
G1 X154.042 Y92.832 E63.98571
G1 X155.459 Y92.531 E64.15954
G1 X156.974 Y92.125 E64.34776
G1 X157.288 Y91.279 E64.45605
G1 X157.474 Y90.773 E64.52074
G1 X156.857 Y89.917 E64.64736
G1 X156.643 Y89.623 E64.69100
G1 X155.664 Y89.216 E64.81822
G1 X155.262 Y89.048 E64.87051
G1 X153.297 Y89.543 E65.11367
G1 X151.054 Y91.091 E65.44071
G1 X149.091 Y93.370 E65.80166
G1 X147.895 Y95.798 E66.12645
G1 X147.453 Y97.590 E66.34793
G1 X147.015 Y99.536 E66.58729
G1 X146.750 Y100.976 E66.76299
G1 X146.609 Y101.880 E66.87279
G1 X146.522 Y101.962 E66.88713
G1 X146.084 Y102.040 E66.94052
G1 X144.834 Y101.396 E67.10926
G1 X142.863 Y99.597 E67.42948
G1 X140.296 Y97.340 E67.83966
G1 X137.464 Y96.813 E68.18533
G1 X134.911 Y97.196 E68.49512
G1 X132.897 Y98.204 E68.76538
G1 X131.322 Y99.102 E68.98294
G1 X129.836 Y99.473 E69.16674
G1 X127.942 Y99.920 E69.40026
G1 X125.577 Y101.006 E69.71255
G1 X123.607 Y102.304 E69.99565
G1 X122.488 Y103.422 E70.18547
G1 X122.414 Y104.413 E70.30472
G1 X122.856 Y105.388 E70.43318
G1 X124.235 Y105.419 E70.59870
G1 X125.921 Y104.864 E70.81170
G1 X128.642 Y103.816 E71.16160
G1 X132.241 Y102.571 E71.61859
G1 X135.666 Y101.492 E72.04951
G1 X137.910 Y100.846 E72.32972
G1 X138.762 Y100.837 E72.43197
G1 X139.056 Y101.258 E72.49359
G1 X139.809 Y102.462 E72.66400
G1 X140.015 Y102.799 E72.71139
G1 X141.567 Y104.336 E72.97351
G1 X143.847 Y105.618 E73.28739
G1 X146.699 Y105.413 E73.63052
G1 X149.969 Y104.770 E74.03043
G1 X150.395 Y100.754 E74.51505
G1 X150.859 Y97.783 E74.87590
G0 F9000 X149.933 Y104.737
G0 X140.785 Y112.254
G1 F1200 X138.391 Y111.536 E75.17582
G1 X135.481 Y111.242 E75.52680
G1 X132.748 Y111.517 E75.85641
G1 X130.755 Y112.210 E76.10962
G1 X129.576 Y113.439 E76.31399
G1 X130.313 Y114.656 E76.48472
G1 X132.079 Y114.932 E76.69921
G1 X136.859 Y114.590 E77.27428
G1 X138.564 Y114.764 E77.47994
G1 X138.775 Y114.869 E77.50822
G1 X137.871 Y115.991 E77.68113
G1 X137.920 Y116.843 E77.78353
G1 X137.951 Y117.346 E77.84401
G1 X139.304 Y118.052 E78.02714
G1 X141.214 Y117.939 E78.25674
G1 X142.857 Y117.433 E78.46304
G1 X143.843 Y116.658 E78.61354
G1 X143.689 Y115.765 E78.72228
G1 X143.657 Y115.582 E78.74457
G1 X143.416 Y114.826 E78.83979
G1 X143.321 Y114.529 E78.87721
G1 X142.363 Y113.347 E79.05979
G1 X140.785 Y112.254 E79.29013
G0 F9000 X142.362 Y113.349
G0 X143.416 Y114.827
G0 X143.812 Y116.645
G0 X142.583 Y117.869
G1 F1200 X141.822 Y118.284 E79.39415
G1 X140.448 Y118.461 E79.56039
G1 X138.908 Y118.683 E79.74710
G1 X137.807 Y119.618 E79.92044
G1 X138.443 Y120.580 E80.05882
G1 X138.610 Y120.832 E80.09510
G1 X138.768 Y120.926 E80.11716
G1 X137.893 Y120.792 E80.22339
G1 X136.658 Y120.144 E80.39075
G1 X135.225 Y119.368 E80.58630
G1 X133.202 Y118.991 E80.83324
G1 X131.274 Y119.075 E81.06482
G1 X130.135 Y119.375 E81.20616
G1 X128.944 Y119.181 E81.35097
G1 X126.703 Y117.976 E81.65630
G1 X123.811 Y116.430 E82.04981
G1 X121.009 Y115.514 E82.40357
G1 X118.867 Y115.318 E82.66168
G1 X117.381 Y115.523 E82.84169
G1 X116.673 Y116.171 E82.95686
G1 X116.363 Y116.980 E83.06082
G1 X116.997 Y118.414 E83.24897
G1 X118.198 Y120.658 E83.55439
G1 X119.641 Y123.162 E83.90120
G1 X120.803 Y125.107 E84.17308
G1 X122.525 Y126.559 E84.44337
G1 X125.199 Y127.848 E84.79959
G1 X127.468 Y128.852 E85.09733
G1 X128.005 Y129.303 E85.18149
G1 X127.811 Y129.658 E85.23003
G1 X126.738 Y130.719 E85.41111
G1 X124.864 Y132.267 E85.70279
G1 X125.630 Y135.719 E86.12711
G1 X126.234 Y137.643 E86.36910
G1 X126.413 Y138.210 E86.44045
G1 X127.133 Y139.422 E86.60962
G1 X127.832 Y140.637 E86.77782
G1 X127.916 Y140.785 E86.79824
G1 X128.095 Y141.911 E86.93506
G1 X137.538 Y141.911 E88.06822
G1 X137.623 Y140.744 E88.20863
G1 X137.237 Y139.680 E88.34445
G1 X136.807 Y138.668 E88.47640
G1 X136.776 Y138.598 E88.48559
G1 X136.808 Y137.998 E88.55769
G1 X137.132 Y137.676 E88.61251
G1 X138.190 Y137.724 E88.73960
G1 X139.926 Y137.709 E88.94792
G1 X141.590 Y136.598 E89.18802
G1 X142.420 Y135.430 E89.35996
G1 X142.682 Y135.064 E89.41398
G1 X143.026 Y133.894 E89.56032
G1 X143.171 Y133.406 E89.62141
G1 X142.337 Y131.411 E89.88089
G1 X140.532 Y129.068 E90.23581
G1 X138.192 Y126.623 E90.64192
G1 X136.741 Y125.159 E90.88927
G1 X138.280 Y125.566 E91.08030
G1 X140.047 Y125.333 E91.29418
G1 X141.505 Y124.816 E91.47981
G1 X142.547 Y124.624 E91.60696
G1 X143.772 Y125.779 E91.80899
G1 X145.020 Y127.555 E92.06947
G1 X145.962 Y129.300 E92.30743
G1 X146.308 Y130.473 E92.45419
G1 X145.255 Y129.430 E92.63204
G1 X143.454 Y127.564 E92.94325
G1 X142.780 Y128.653 E93.09693
G1 X142.583 Y128.968 E93.14151
G1 X142.845 Y130.312 E93.30583
G1 X142.915 Y130.663 E93.34878
G1 X143.492 Y132.072 E93.53149
G1 X143.670 Y132.505 E93.58767
G1 X144.974 Y134.183 E93.84268
G1 X146.784 Y134.766 E94.07087
G1 X148.622 Y134.168 E94.30281
G1 X149.405 Y131.941 E94.58609
G1 X149.497 Y129.591 E94.86830
G1 X149.022 Y127.413 E95.13581
G1 X147.947 Y125.530 E95.39600
G1 X146.542 Y123.847 E95.65908
G1 X145.063 Y122.825 E95.87481
G1 X144.048 Y122.699 E95.99755
G1 X144.470 Y121.695 E96.12824
G1 X145.181 Y120.740 E96.27111
G1 X146.321 Y120.749 E96.40791
G1 X147.844 Y121.163 E96.59731
G1 X149.358 Y121.654 E96.78830
G1 X150.612 Y121.936 E96.94254
G1 X151.712 Y121.738 E97.07666
G1 X152.171 Y120.879 E97.19353
G1 X152.280 Y120.240 E97.27132
G1 X152.351 Y119.833 E97.32090
G1 X151.704 Y119.006 E97.44690
G1 X151.495 Y118.739 E97.48759
G1 X149.859 Y117.900 E97.70822
G1 X147.658 Y117.361 E97.98014
G1 X145.421 Y117.141 E98.24988
G1 X143.605 Y117.350 E98.46924
G1 X142.583 Y117.869 E98.60679
G0 F9000 X143.607 Y117.354
G0 X145.422 Y117.142
G0 X149.858 Y117.902
G0 X151.704 Y119.006
G0 X152.332 Y119.839
G0 X151.699 Y121.719
G0 X150.612 Y121.932
G0 X143.889 Y122.758
G0 X145.061 Y122.830
G0 X146.540 Y123.849
G0 X149.019 Y127.415
G0 X149.495 Y129.592
G0 X149.402 Y131.940
G0 X148.605 Y134.151
G0 X146.784 Y134.755
G0 X144.980 Y134.175
G0 X143.672 Y132.503
G0 X142.598 Y128.972
G0 X143.467 Y127.690
G0 X136.590 Y125.112
G0 X134.389 Y123.059
G1 F1200 X133.227 Y122.450 E98.76422
G1 X132.442 Y122.093 E98.86770
G1 X131.862 Y121.583 E98.96038
G1 X132.524 Y121.846 E99.04586
G1 X134.220 Y122.840 E99.28176
G1 X134.703 Y123.325 E99.36390
G1 X134.389 Y123.059 E99.41328
G0 F9000 X140.531 Y129.069
G0 X142.336 Y131.412
G0 X143.158 Y133.407
G0 X142.419 Y135.430
G0 X141.587 Y136.595
G0 X139.923 Y137.701
G0 X137.488 Y141.857
G0 X128.135 Y141.863
G0 X126.414 Y138.208
G0 X124.896 Y132.280
G0 X116.379 Y116.979
G0 X116.678 Y116.175
G0 X117.385 Y115.532
G0 X118.868 Y115.319
G0 X121.008 Y115.516
G0 X123.811 Y116.432
G0 X121.217 Y113.778
G1 F1200 X121.899 Y111.586 E99.68876
G1 X122.156 Y108.467 E100.06430
G1 X122.156 Y104.033 E100.59638
G1 X119.415 Y104.033 E100.92530
G1 X117.686 Y103.722 E101.13611
G1 X116.500 Y102.972 E101.30450
G1 X115.353 Y101.017 E101.57650
G1 X113.960 Y97.713 E102.00678
G1 X112.545 Y94.071 E102.47564
G1 X111.273 Y91.200 E102.85246
G1 X110.025 Y89.095 E103.14612
G1 X108.632 Y87.253 E103.42325
G1 X106.485 Y85.602 E103.74826
G1 X103.445 Y83.943 E104.16384
G1 X101.011 Y83.089 E104.47338
G1 X92.868 Y83.089 E105.45054
G1 X91.863 Y83.493 E105.58052
G1 X89.444 Y84.661 E105.90287
G1 X87.393 Y85.355 E106.16270
G1 X85.674 Y85.968 E106.38170
G1 X84.491 Y86.790 E106.55456
G1 X83.438 Y87.394 E106.70024
G1 X81.822 Y87.654 E106.89665
G1 X79.395 Y88.218 E107.19565
G1 X76.545 Y89.622 E107.57690
G1 X73.968 Y91.697 E107.97392
G1 X72.887 Y93.975 E108.27650
G1 X72.568 Y96.228 E108.54956
G1 X72.440 Y98.468 E108.81880
G1 X72.648 Y100.277 E109.03731
G1 X73.568 Y102.104 E109.28277
G1 X74.533 Y100.970 E109.46146
G1 X74.759 Y100.704 E109.50334
G1 X74.912 Y98.772 E109.73591
G1 X75.223 Y95.992 E110.07159
G1 X75.277 Y95.538 E110.12645
G1 X76.636 Y93.701 E110.40066
G1 X78.480 Y92.343 E110.67547
G1 X80.479 Y91.420 E110.93969
G1 X82.192 Y91.174 E111.14735
G1 X83.227 Y91.975 E111.30440
G1 X83.805 Y93.048 E111.45066
G1 X83.931 Y93.281 E111.48244
G1 X84.161 Y94.481 E111.62907
G1 X84.206 Y94.713 E111.65742
G1 X83.946 Y96.250 E111.84448
G1 X83.442 Y97.507 E112.00700
G1 X83.314 Y97.825 E112.04813
G1 X82.797 Y98.835 E112.18429
G1 X82.637 Y99.145 E112.22615
G1 X82.395 Y99.838 E112.31424
G1 X82.250 Y100.257 E112.36744
G1 X82.672 Y101.058 E112.47609
G1 X83.738 Y101.376 E112.60958
G1 X84.907 Y100.233 E112.80577
G1 X86.065 Y98.104 E113.09659
G1 X86.094 Y98.015 E113.10783
G1 X86.365 Y98.824 E113.21021
G1 X86.860 Y99.459 E113.30683
G1 X88.969 Y99.261 E113.56102
G1 X92.752 Y98.411 E114.02630
G1 X97.757 Y97.122 E114.64650
G1 X103.027 Y98.860 E115.31240
G1 X106.999 Y100.040 E115.80963
G1 X109.562 Y100.454 E116.12117
G1 X109.562 Y99.080 E116.28605
G1 X108.968 Y98.073 E116.42635
G1 X107.283 Y96.891 E116.67334
G1 X104.572 Y95.546 E117.03650
G1 X100.890 Y94.388 E117.49967
G1 X96.753 Y94.422 E117.99613
G1 X92.884 Y95.094 E118.46736
G1 X89.520 Y96.147 E118.89035
G1 X87.373 Y97.173 E119.17590
G1 X86.095 Y98.012 E119.35936
G1 X87.015 Y95.143 E119.72090
G1 X86.663 Y92.411 E120.05145
G1 X86.334 Y90.406 E120.29527
G1 X86.940 Y89.574 E120.41879
G1 X87.779 Y89.157 E120.53122
G1 X87.965 Y89.064 E120.55617
G1 X88.934 Y88.864 E120.67490
G1 X90.590 Y88.413 E120.88086
G1 X91.010 Y88.293 E120.93328
G1 X93.301 Y87.123 E121.24197
G1 X95.581 Y86.012 E121.54633
G1 X97.336 Y85.585 E121.76307
G1 X98.730 Y85.842 E121.93317
G1 X100.077 Y86.483 E122.11218
G1 X100.946 Y87.380 E122.26205
G1 X101.254 Y88.197 E122.36682
G1 X100.993 Y89.046 E122.47341
G1 X100.272 Y89.995 E122.61643
G1 X99.281 Y90.649 E122.75891
G1 X98.322 Y90.931 E122.87886
G1 X97.297 Y91.048 E123.00266
G1 X96.127 Y91.365 E123.14812
G1 X95.188 Y91.943 E123.28044
G1 X94.483 Y93.184 E123.45171
G1 X96.114 Y93.907 E123.66580
G1 X98.509 Y94.091 E123.95405
G1 X101.510 Y93.753 E124.31644
G1 X103.504 Y92.417 E124.60447
G1 X104.613 Y90.974 E124.82286
G1 X105.078 Y89.879 E124.96562
G1 X105.147 Y89.636 E124.99593
G1 X105.480 Y89.821 E125.04164
G1 X106.473 Y90.750 E125.20482
G1 X108.073 Y93.604 E125.59745
G1 X112.206 Y103.551 E126.89002
G1 X113.697 Y106.101 E127.24449
G1 X114.408 Y107.363 E127.41831
G1 X114.545 Y107.605 E127.45168
G1 X115.053 Y110.474 E127.80132
G1 X115.277 Y112.982 E128.10348
G1 X113.288 Y113.478 E128.34946
G1 X112.322 Y113.722 E128.46903
G1 X112.322 Y112.130 E128.66007
G1 X112.101 Y110.268 E128.88507
G1 X112.037 Y109.737 E128.94925
G1 X111.329 Y107.323 E129.25114
G1 X109.932 Y105.194 E129.55671
G1 X108.000 Y103.480 E129.86663
G1 X106.036 Y102.526 E130.12865
G1 X104.413 Y102.198 E130.32734
G1 X103.345 Y102.793 E130.47405
G1 X103.037 Y103.513 E130.56802
G1 X102.843 Y103.961 E130.62661
G1 X103.759 Y105.270 E130.81833
G1 X105.422 Y106.347 E131.05608
G1 X107.220 Y107.666 E131.32367
G1 X108.299 Y109.656 E131.59532
G1 X108.804 Y112.451 E131.93615
G1 X108.479 Y116.515 E132.42538
G1 X107.639 Y120.344 E132.89579
G1 X106.547 Y123.108 E133.25242
G1 X105.375 Y124.490 E133.46986
G1 X104.293 Y125.043 E133.61568
G1 X103.230 Y125.286 E133.74653
G1 X102.264 Y126.044 E133.89388
G1 X102.085 Y126.722 E133.97802
G1 X101.973 Y127.136 E134.02949
G1 X102.531 Y127.871 E134.14023
G1 X103.343 Y128.243 E134.24741
G1 X103.922 Y128.570 E134.32720
G1 X104.176 Y129.241 E134.41330
