;FLAVOR:UltiGCode
;TIME:16686
;MATERIAL:9705
;MATERIAL2:0

;Layer count: 176
;LAYER:0
M107
G0 F9000 X58.934 Y80.054 Z0.300
;TYPE:SKIRT
G1 F1200 X60.043 Y79.601 E0.14375
G1 X62.035 Y78.775 E0.40253
G1 X63.239 Y78.614 E0.54830
G1 X65.164 Y78.359 E0.78131
G1 X164.835 Y78.359 E12.74183
G1 X166.759 Y78.613 E12.97472
G1 X167.962 Y78.773 E13.12035
G1 X169.948 Y79.594 E13.37823
G1 X171.071 Y80.060 E13.52413
G1 X172.780 Y81.370 E13.78253
G1 X173.741 Y82.112 E13.92822
G1 X175.051 Y83.814 E14.18596
G1 X175.791 Y84.781 E14.33207
G1 X176.254 Y85.899 E14.47728
G1 X177.078 Y87.888 E14.73564
G1 X177.360 Y90.022 E14.99394
G1 X177.490 Y91.017 E15.11436
G1 X177.490 Y133.983 E20.27028
G1 X177.360 Y134.977 E20.39057
G1 X177.079 Y137.112 E20.64898
G1 X176.253 Y139.105 E20.90787
G1 X175.786 Y140.218 E21.05271
G1 X175.056 Y141.179 E21.19753
G1 X173.741 Y142.891 E21.45658
G1 X171.066 Y144.946 E21.86136
G1 X169.957 Y145.399 E22.00512
G1 X167.965 Y146.225 E22.26389
G1 X166.761 Y146.386 E22.40966
G1 X164.836 Y146.641 E22.64268
G1 X65.165 Y146.641 E34.60320
G1 X63.241 Y146.387 E34.83608
G1 X62.038 Y146.227 E34.98171
G1 X60.052 Y145.406 E35.23959
G1 X58.929 Y144.940 E35.38549
G1 X57.220 Y143.630 E35.64389
G1 X56.259 Y142.888 E35.78959
G1 X54.949 Y141.186 E36.04732
G1 X54.209 Y140.219 E36.19344
G1 X53.745 Y139.099 E36.33892
G1 X52.922 Y137.112 E36.59700
G1 X52.640 Y134.978 E36.85531
G1 X52.510 Y133.983 E36.97572
G1 X52.510 Y91.017 E42.13164
G1 X52.640 Y90.023 E42.25194
G1 X52.921 Y87.888 E42.51035
G1 X53.745 Y85.901 E42.76848
G1 X54.209 Y84.781 E42.91395
G1 X54.947 Y83.816 E43.05973
G1 X56.259 Y82.109 E43.31809
G1 X58.934 Y80.054 E43.72288
G10
G0 F9000 X61.497 Y83.112
;TYPE:WALL-INNER
G11
G1 F1200 X63.030 Y82.476 E43.92204
G1 X65.416 Y82.159 E44.21088
G1 X164.585 Y82.159 E56.11116
G1 X166.971 Y82.475 E56.39998
G1 X169.154 Y83.378 E56.68346
G1 X170.463 Y84.382 E56.88143
G1 X171.028 Y84.817 E56.96699
G1 X172.036 Y86.128 E57.16544
G1 X172.472 Y86.696 E57.25136
G1 X173.376 Y88.878 E57.53479
G1 X173.690 Y91.266 E57.82381
G1 X173.690 Y133.734 E62.91997
G1 X173.376 Y136.120 E63.20876
G1 X172.746 Y137.642 E63.40643
G1 X172.469 Y138.302 E63.49232
G1 X172.037 Y138.871 E63.57805
G1 X171.029 Y140.183 E63.77659
G1 X169.156 Y141.622 E64.06003
G1 X168.503 Y141.888 E64.14464
G1 X166.970 Y142.524 E64.34380
G1 X164.584 Y142.841 E64.63264
G1 X65.415 Y142.841 E76.53292
G1 X63.029 Y142.525 E76.82174
G1 X60.846 Y141.622 E77.10523
G1 X59.536 Y140.617 E77.30336
G1 X58.972 Y140.183 E77.38876
G1 X57.964 Y138.872 E77.58720
G1 X57.528 Y138.304 E77.67313
G1 X56.624 Y136.122 E77.95655
G1 X56.310 Y133.734 E78.24558
G1 X56.310 Y91.266 E83.34174
G1 X56.624 Y88.880 E83.63053
G1 X57.528 Y86.698 E83.91395
G1 X57.963 Y86.129 E83.99990
G1 X58.971 Y84.817 E84.19844
G1 X60.844 Y83.378 E84.48187
G1 X61.497 Y83.112 E84.56648
G0 F9000 X70.613 Y87.964
G1 F1200 X70.408 Y88.798 E84.66954
G1 X70.329 Y89.880 E84.79973
G1 X70.494 Y91.345 E84.97664
G1 X70.878 Y93.116 E85.19410
G1 X71.252 Y94.243 E85.33659
G1 X71.426 Y94.767 E85.40285
G1 X72.029 Y95.853 E85.55191
G1 X72.728 Y96.445 E85.66183
G1 X73.493 Y96.888 E85.76791
G1 X74.347 Y97.136 E85.87462
G1 X75.154 Y97.228 E85.97209
G1 X75.798 Y97.334 E86.05041
G1 X76.360 Y97.590 E86.12452
G1 X77.009 Y97.951 E86.21364
G1 X77.839 Y98.265 E86.32012
G1 X78.821 Y98.383 E86.43881
G1 X79.900 Y98.224 E86.56969
G1 X80.934 Y97.868 E86.70092
G1 X81.906 Y97.385 E86.83117
G1 X82.748 Y96.664 E86.96419
G1 X83.456 Y95.752 E87.10273
G1 X83.899 Y94.782 E87.23070
G1 X84.027 Y94.212 E87.30080
G1 X84.084 Y93.960 E87.33181
G1 X84.142 Y93.449 E87.39352
G1 X84.192 Y93.304 E87.41193
G1 X84.344 Y93.217 E87.43294
G1 X85.058 Y93.096 E87.51984
G1 X86.074 Y92.927 E87.64344
G1 X87.040 Y92.598 E87.76590
G1 X87.821 Y92.081 E87.87829
G1 X88.426 Y91.474 E87.98113
G1 X88.292 Y97.681 E88.72615
G1 X86.992 Y99.038 E88.95165
G1 X86.790 Y105.108 E89.68046
G1 X87.835 Y105.726 E89.82614
G1 X88.319 Y106.130 E89.90180
G1 X88.526 Y106.775 E89.98309
G1 X88.683 Y107.501 E90.07222
G1 X89.009 Y108.717 E90.22329
G1 X89.127 Y109.130 E90.27484
G1 X89.424 Y109.872 E90.37074
G1 X89.576 Y110.247 E90.41930
G1 X90.120 Y111.002 E90.53097
G1 X90.518 Y111.068 E90.57938
G1 X90.339 Y111.597 E90.64640
G1 X90.653 Y112.347 E90.74397
G1 X90.768 Y112.618 E90.77929
G1 X91.333 Y113.564 E90.91152
G1 X92.135 Y114.940 E91.10264
G1 X92.346 Y115.308 E91.15354
G1 X92.524 Y115.892 E91.22681
G1 X92.567 Y116.030 E91.24415
G1 X92.519 Y116.280 E91.27470
G1 X91.936 Y117.115 E91.39691
G1 X92.308 Y117.996 E91.51166
G1 X92.440 Y118.307 E91.55221
G1 X93.335 Y119.556 E91.73659
G1 X94.710 Y121.073 E91.98228
G1 X96.336 Y122.531 E92.24436
G1 X97.824 Y123.615 E92.46527
G1 X99.366 Y124.424 E92.67423
G1 X101.126 Y125.242 E92.90713
G1 X103.039 Y125.921 E93.15072
G1 X103.610 Y126.047 E93.22089
G1 X104.898 Y126.333 E93.37922
G1 X106.554 Y126.475 E93.57867
G1 X107.995 Y126.446 E93.75162
G1 X109.191 Y126.213 E93.89784
G1 X110.272 Y125.855 E94.03449
G1 X111.159 Y125.344 E94.15733
G1 X111.871 Y124.756 E94.26814
G1 X112.256 Y124.338 E94.33633
G1 X116.005 Y124.338 E94.78621
G1 X116.706 Y124.915 E94.89516
G1 X117.761 Y125.569 E95.04411
G1 X119.038 Y126.102 E95.21017
G1 X120.433 Y126.411 E95.38162
G1 X121.799 Y126.529 E95.54615
G1 X123.228 Y126.394 E95.71840
G1 X124.782 Y126.101 E95.90816
G1 X126.589 Y125.504 E96.13653
G1 X128.606 Y124.643 E96.39970
G1 X130.642 Y123.497 E96.68006
G1 X132.465 Y122.201 E96.94847
G1 X133.990 Y120.783 E97.19836
G1 X135.296 Y119.322 E97.43351
G1 X136.131 Y118.120 E97.60914
G1 X136.572 Y117.180 E97.73374
G1 X136.387 Y116.505 E97.81773
G1 X135.933 Y115.892 E97.90926
G1 X135.907 Y115.790 E97.92190
G1 X136.178 Y115.217 E97.99796
G1 X136.789 Y114.358 E98.12445
G1 X137.825 Y112.928 E98.33636
G1 X138.167 Y112.459 E98.40601
G1 X138.983 Y111.107 E98.59551
G1 X139.571 Y109.664 E98.78249
G1 X140.140 Y107.932 E99.00126
G1 X140.639 Y106.433 E99.19085
G1 X141.039 Y105.556 E99.30652
G1 X141.389 Y105.057 E99.37966
G1 X141.822 Y104.418 E99.47228
G1 X142.063 Y103.663 E99.56739
G1 X142.184 Y103.293 E99.61410
G1 X142.240 Y101.708 E99.80442
G1 X142.264 Y101.053 E99.88307
G1 X142.269 Y98.227 E100.22219
G1 X140.929 Y97.106 E100.43184
G1 X140.802 Y95.524 E100.62229
G1 X140.601 Y93.976 E100.80961
G1 X140.145 Y93.254 E100.91208
G1 X140.766 Y92.368 E101.04192
G1 X140.828 Y91.499 E101.14647
G1 X140.896 Y90.598 E101.25489
G1 X140.896 Y90.555 E101.26005
G1 X141.131 Y91.140 E101.33570
G1 X141.687 Y91.858 E101.44468
G1 X142.344 Y92.440 E101.55000
G1 X143.304 Y92.805 E101.67325
G1 X144.489 Y93.018 E101.81773
G1 X145.416 Y93.179 E101.93063
G1 X145.563 Y93.372 E101.95975
G1 X145.681 Y93.862 E102.02023
G1 X145.773 Y94.366 E102.08171
G1 X145.823 Y94.630 E102.11395
G1 X146.120 Y95.518 E102.22631
G1 X146.655 Y96.389 E102.34897
G1 X147.506 Y97.131 E102.48446
G1 X148.564 Y97.760 E102.63216
G1 X149.753 Y98.172 E102.78317
G1 X150.921 Y98.337 E102.92472
G1 X152.074 Y98.172 E103.06449
G1 X154.039 Y97.289 E103.32300
G1 X154.987 Y97.129 E103.43837
G1 X155.945 Y96.986 E103.55460
G1 X156.813 Y96.649 E103.66634
G1 X157.446 Y96.121 E103.76525
G1 X157.969 Y95.504 E103.86231
G1 X158.395 Y94.494 E103.99385
G1 X158.808 Y93.069 E104.17189
G1 X159.108 Y91.402 E104.37514
G1 X159.232 Y89.848 E104.56222
G1 X159.161 Y88.652 E104.70599
G1 X159.038 Y88.105 E104.77327
G1 X158.971 Y87.812 E104.80934
G1 X158.537 Y86.999 E104.91993
G1 X149.831 Y86.999 E105.96465
G1 X142.803 Y87.056 E106.80804
G1 X140.842 Y87.436 E107.04773
G1 X140.778 Y87.785 E107.09031
G1 X140.583 Y86.995 E107.18796
G1 X88.520 Y87.110 E113.43553
G1 X88.516 Y87.300 E113.45834
G1 X86.407 Y87.056 E113.71310
G1 X79.766 Y86.999 E114.51005
G1 X71.052 Y86.999 E115.55573
G1 X70.613 Y87.964 E115.68295
G10
G0 F9000 X90.361 Y89.190
G11
G1 F1200 X138.783 Y89.190 E121.49359
G1 X138.863 Y90.620 E121.66546
G1 X139.033 Y92.371 E121.87657
G1 X139.604 Y93.175 E121.99491
G1 X139.389 Y93.184 E122.02073
G1 X138.927 Y94.068 E122.14042
G1 X138.880 Y95.407 E122.30120
G1 X138.861 Y95.922 E122.36304
G1 X138.812 Y97.154 E122.51100
G1 X138.795 Y97.587 E122.56300
G1 X138.729 Y97.767 E122.58601
G1 X137.864 Y96.676 E122.75308
G1 X136.688 Y95.197 E122.97983
G1 X136.293 Y94.706 E123.05545
G1 X134.956 Y93.251 E123.29257
G1 X133.634 Y92.136 E123.50010
G1 X132.359 Y91.332 E123.68098
G1 X130.857 Y90.830 E123.87102
G1 X129.005 Y90.414 E124.09880
G1 X127.660 Y90.252 E124.26136
G1 X127.056 Y90.179 E124.33437
G1 X125.446 Y90.187 E124.52757
G1 X124.123 Y90.362 E124.68772
G1 X123.343 Y90.500 E124.78277
G1 X122.901 Y90.580 E124.83667
G1 X121.698 Y90.951 E124.98774
G1 X120.440 Y91.485 E125.15174
G1 X119.039 Y92.350 E125.34932
G1 X117.515 Y93.498 E125.57828
G1 X116.345 Y94.438 E125.75838
G1 X116.117 Y94.594 E125.79153
G1 X115.735 Y94.354 E125.84567
G1 X114.235 Y93.276 E126.06733
G1 X112.404 Y92.044 E126.33216
G1 X110.932 Y91.254 E126.53263
G1 X109.591 Y90.858 E126.70042
G1 X108.054 Y90.531 E126.88899
G1 X106.439 Y90.370 E127.08375
G1 X104.946 Y90.389 E127.26292
G1 X104.142 Y90.508 E127.36045
G1 X103.528 Y90.600 E127.43496
G1 X102.078 Y90.902 E127.61269
G1 X100.623 Y91.349 E127.79534
G1 X99.213 Y91.907 E127.97731
G1 X98.049 Y92.523 E128.13535
G1 X97.171 Y93.125 E128.26309
G1 X96.346 Y94.009 E128.40819
G1 X95.622 Y94.891 E128.54512
G1 X94.472 Y96.250 E128.75876
G1 X94.131 Y96.649 E128.82174
G1 X92.963 Y97.835 E129.02149
G1 X92.009 Y98.693 E129.17546
G1 X91.343 Y98.600 E129.25615
G1 X90.634 Y98.448 E129.34317
G1 X90.480 Y98.382 E129.36327
G1 X90.322 Y97.560 E129.46372
G1 X90.309 Y93.580 E129.94132
G1 X90.361 Y89.190 E130.46816
G10
G0 F9000 X97.331 Y96.102
G11
G1 F1200 X98.341 Y95.153 E130.63447
G1 X99.384 Y94.359 E130.79177
G1 X100.627 Y93.703 E130.96042
G1 X102.118 Y93.098 E131.15351
G1 X103.820 Y92.650 E131.36471
G1 X105.755 Y92.528 E131.59737
G1 X107.633 Y92.617 E131.82298
G1 X109.207 Y92.968 E132.01650
G1 X110.615 Y93.513 E132.19768
G1 X111.927 Y94.176 E132.37408
G1 X113.141 Y95.019 E132.55144
G1 X114.309 Y95.996 E132.73417
G1 X115.234 Y96.799 E132.88116
G1 X116.121 Y97.345 E133.00615
G1 X117.097 Y96.704 E133.14627
G1 X118.251 Y95.705 E133.32943
G1 X119.690 Y94.527 E133.55259
G1 X121.033 Y93.645 E133.74540
G1 X122.260 Y93.075 E133.90775
G1 X123.384 Y92.676 E134.05087
G1 X124.710 Y92.476 E134.21179
G1 X126.467 Y92.389 E134.42289
G1 X128.260 Y92.480 E134.63833
G1 X129.694 Y92.700 E134.81242
G1 X130.835 Y93.073 E134.95647
G1 X131.940 Y93.545 E135.10066
G1 X132.934 Y94.156 E135.24068
G1 X133.855 Y94.878 E135.38111
G1 X134.819 Y95.939 E135.55313
G1 X135.918 Y97.379 E135.77051
G1 X136.993 Y98.924 E135.99637
G1 X137.065 Y100.948 E136.23941
G1 X137.043 Y102.920 E136.47606
G1 X136.884 Y104.690 E136.68932
G1 X136.730 Y105.885 E136.83390
G1 X136.733 Y106.839 E136.94838
G1 X136.750 Y106.848 E136.95069
G1 X136.298 Y107.057 E137.01045
G1 X135.832 Y107.583 E137.09478
G1 X135.284 Y108.286 E137.20174
G1 X134.642 Y109.047 E137.32121
G1 X133.699 Y109.907 E137.47437
G1 X132.371 Y110.894 E137.67292
G1 X130.854 Y111.762 E137.88265
G1 X129.439 Y112.360 E138.06699
G1 X128.066 Y112.664 E138.23574
G1 X126.666 Y112.779 E138.40431
G1 X125.207 Y112.686 E138.57974
G1 X123.733 Y112.466 E138.75858
G1 X122.364 Y112.084 E138.92914
G1 X121.152 Y111.601 E139.08570
G1 X120.064 Y111.148 E139.22713
G1 X119.495 Y111.235 E139.29620
G1 X118.897 Y110.413 E139.41818
G1 X118.108 Y109.580 E139.55586
G1 X117.201 Y108.787 E139.70044
G1 X116.307 Y108.283 E139.82359
G1 X115.366 Y108.835 E139.95451
G1 X114.344 Y109.714 E140.11627
G1 X113.047 Y110.790 E140.31849
G1 X111.660 Y111.732 E140.51969
G1 X110.193 Y112.436 E140.71495
G1 X108.690 Y112.922 E140.90451
G1 X107.011 Y113.169 E141.10816
G1 X106.425 Y113.170 E141.17848
G1 X104.955 Y113.175 E141.35488
G1 X102.850 Y113.082 E141.60772
G1 X101.134 Y112.258 E141.83615
G1 X99.481 Y111.312 E142.06470
G1 X98.087 Y110.233 E142.27624
G1 X97.118 Y109.253 E142.44162
G1 X96.711 Y108.740 E142.52020
G1 X96.290 Y108.222 E142.60030
G1 X96.098 Y107.991 E142.63634
G1 X95.395 Y107.676 E142.72879
G1 X95.355 Y107.687 E142.73376
G1 X95.477 Y107.553 E142.75551
G1 X95.403 Y106.577 E142.87297
G1 X95.189 Y105.705 E142.98071
G1 X94.831 Y104.218 E143.16425
G1 X94.808 Y103.773 E143.21772
G1 X94.912 Y103.709 E143.23237
G1 X95.207 Y103.483 E143.27697
G1 X95.348 Y102.854 E143.35432
G1 X95.148 Y102.246 E143.43113
G1 X94.762 Y101.804 E143.50155
G1 X94.675 Y101.741 E143.51444
G1 X95.052 Y100.439 E143.67709
G1 X95.530 Y98.987 E143.86053
G1 X95.843 Y98.224 E143.95950
G1 X95.961 Y97.939 E143.99651
G1 X96.530 Y97.070 E144.12116
G1 X97.331 Y96.102 E144.27193
G0 F9000 X98.745 Y96.298
G1 F1200 X97.591 Y97.602 E144.48089
G1 X96.729 Y98.924 E144.67027
G1 X96.271 Y99.841 E144.79327
G1 X96.018 Y100.347 E144.86116
G1 X96.008 Y102.857 E145.16236
G1 X96.073 Y104.786 E145.39397
G1 X96.234 Y105.401 E145.47026
G1 X96.365 Y105.891 E145.53113
G1 X97.059 Y106.261 E145.62550
G1 X96.857 Y106.533 E145.66616
G1 X97.091 Y107.405 E145.77450
G1 X97.640 Y108.331 E145.90368
G1 X98.438 Y109.310 E146.05525
G1 X99.269 Y110.132 E146.19551
G1 X100.269 Y110.811 E146.34056
G1 X101.473 Y111.458 E146.50458
G1 X103.075 Y111.996 E146.70737
G1 X105.398 Y112.155 E146.98678
G1 X106.032 Y112.146 E147.06287
G1 X107.492 Y112.121 E147.23809
G1 X108.874 Y111.905 E147.40595
G1 X109.799 Y111.554 E147.52467
G1 X110.652 Y111.166 E147.63712
G1 X111.491 Y110.665 E147.75439
G1 X112.358 Y110.047 E147.88215
G1 X113.203 Y109.239 E148.02245
G1 X113.983 Y108.284 E148.17041
G1 X114.632 Y107.148 E148.32741
G1 X115.000 Y106.301 E148.43823
G1 X115.173 Y105.903 E148.49031
G1 X115.406 Y104.948 E148.60827
G1 X115.513 Y104.512 E148.66214
G1 X115.596 Y103.496 E148.78447
G1 X115.635 Y103.027 E148.84094
G1 X115.543 Y101.996 E148.96515
G1 X115.499 Y101.530 E149.02132
G1 X115.256 Y100.548 E149.14272
G1 X115.141 Y100.090 E149.19938
G1 X114.518 Y98.734 E149.37846
G1 X113.707 Y97.443 E149.56141
G1 X112.750 Y96.345 E149.73619
G1 X111.772 Y95.462 E149.89431
G1 X110.778 Y94.821 E150.03624
G1 X109.778 Y94.297 E150.17171
G1 X108.625 Y93.912 E150.31758
G1 X107.284 Y93.602 E150.48275
G1 X105.771 Y93.458 E150.66513
G1 X104.230 Y93.583 E150.85066
G1 X102.770 Y93.921 E151.03049
G1 X101.397 Y94.415 E151.20559
G1 X100.076 Y95.216 E151.39097
G1 X98.745 Y96.298 E151.59681
G10
G0 F9000 X99.757 Y98.442
G11
G1 F1200 X100.350 Y97.967 E151.68799
G1 X101.182 Y97.495 E151.80277
G1 X102.171 Y97.086 E151.93120
G1 X103.677 Y96.787 E152.11545
G1 X106.302 Y96.695 E152.43064
G1 X108.927 Y96.762 E152.74574
G1 X110.145 Y97.103 E152.89752
G1 X110.965 Y97.555 E153.00988
G1 X111.659 Y98.045 E153.11183
G1 X112.268 Y98.757 E153.22426
G1 X112.893 Y99.785 E153.36863
G1 X113.362 Y100.961 E153.52056
G1 X113.631 Y102.064 E153.65680
G1 X113.647 Y102.446 E153.70268
G1 X113.469 Y102.169 E153.74219
G1 X112.806 Y101.453 E153.85929
G1 X111.873 Y100.995 E153.98401
G1 X110.594 Y100.879 E154.13812
G1 X109.294 Y101.002 E154.29482
G1 X108.287 Y101.465 E154.42782
G1 X107.548 Y102.071 E154.54250
G1 X106.922 Y102.748 E154.65315
G1 X106.509 Y103.591 E154.76580
G1 X106.381 Y104.560 E154.88309
G1 X106.489 Y105.209 E154.96204
G1 X106.541 Y105.514 E154.99917
G1 X106.903 Y106.407 E155.11480
G1 X107.359 Y106.919 E155.19707
G1 X107.576 Y107.161 E155.23608
G1 X108.462 Y107.760 E155.36441
G1 X109.535 Y108.115 E155.50004
G1 X110.034 Y108.178 E155.56039
G1 X109.004 Y108.553 E155.69193
G1 X107.599 Y108.827 E155.86371
G1 X106.071 Y108.892 E156.04723
G1 X104.516 Y108.804 E156.23413
G1 X103.031 Y108.496 E156.41612
G1 X101.694 Y108.017 E156.58655
G1 X100.567 Y107.351 E156.74364
G1 X99.599 Y106.561 E156.89357
G1 X98.749 Y105.818 E157.02905
G1 X98.062 Y105.633 E157.11443
G1 X98.352 Y105.117 E157.18545
G1 X98.162 Y104.303 E157.28576
G1 X97.990 Y103.510 E157.38313
G1 X97.931 Y102.764 E157.47293
G1 X97.907 Y102.471 E157.50821
G1 X97.973 Y101.628 E157.60968
G1 X97.997 Y101.333 E157.64520
G1 X98.284 Y100.620 E157.73743
G1 X98.410 Y100.314 E157.77714
G1 X98.907 Y99.457 E157.89602
G1 X99.206 Y99.025 E157.95907
G1 X99.308 Y98.879 E157.98044
G1 X99.757 Y98.442 E158.05563
G10
G0 F9000 X92.548 Y106.986
G11
G1 F1200 X93.418 Y107.820 E158.20025
G1 X94.275 Y108.306 E158.31847
G1 X94.452 Y108.252 E158.34068
G1 X94.262 Y108.568 E158.38493
