;FLAVOR:UltiGCode
;TIME:2907
;MATERIAL:3032
;MATERIAL2:0

;Layer count: 338
;LAYER:0
M107
G0 F9000 X99.157 Y107.000 Z0.300
;TYPE:SKIRT
G1 F1200 X102.993 Y107.000 E0.46032
G1 X103.085 Y106.136 E0.56459
G1 X103.441 Y105.056 E0.70105
G1 X103.976 Y104.144 E0.82793
G1 X104.804 Y103.265 E0.97283
G1 X105.547 Y102.763 E1.08044
G1 X106.094 Y102.487 E1.15396
G1 X106.878 Y102.220 E1.25335
G1 X107.686 Y102.093 E1.35150
G1 X108.140 Y102.083 E1.40599
G1 X110.441 Y102.136 E1.68218
G1 X111.057 Y102.152 E1.75613
G1 X112.701 Y102.201 E1.95350
G1 X114.178 Y102.254 E2.13085
G1 X115.018 Y102.290 E2.23174
G1 X115.417 Y102.334 E2.27991
G1 X115.567 Y102.325 E2.29794
G1 X115.878 Y102.331 E2.33527
G1 X116.542 Y102.368 E2.41508
G1 X117.250 Y102.420 E2.50026
G1 X117.993 Y102.486 E2.58978
G1 X119.436 Y102.704 E2.76490
G1 X121.760 Y104.315 E3.10423
G1 X121.760 Y107.716 E3.51235
G1 X122.676 Y106.800 E3.66780
G1 X126.254 Y106.800 E4.09716
G1 X130.657 Y108.262 E4.65389
G1 X130.657 Y116.059 E5.58953
G1 X126.771 Y118.000 E6.11078
G1 X122.676 Y118.000 E6.60218
G1 X121.761 Y117.085 E6.75746
G1 X121.760 Y120.685 E7.18946
G1 X119.465 Y122.275 E7.52450
G1 X118.200 Y122.491 E7.67850
G1 X117.420 Y122.568 E7.77255
G1 X116.627 Y122.626 E7.86797
G1 X115.897 Y122.667 E7.95571
G1 X115.585 Y122.677 E7.99316
G1 X115.415 Y122.666 E8.01361
G1 X115.202 Y122.699 E8.03947
G1 X114.186 Y122.747 E8.16153
G1 X112.698 Y122.799 E8.34020
G1 X111.981 Y122.820 E8.42627
G1 X111.981 Y122.819 E8.42639
G1 X111.055 Y122.848 E8.53757
G1 X109.617 Y122.883 E8.71018
G1 X108.065 Y122.918 E8.89647
G1 X107.328 Y122.870 E8.98509
G1 X106.443 Y122.654 E9.09441
G1 X105.698 Y122.320 E9.19238
G1 X105.242 Y122.044 E9.25635
G1 X104.797 Y121.711 E9.32304
G1 X104.262 Y121.183 E9.41324
G1 X103.895 Y120.717 E9.48442
G1 X103.463 Y119.980 E9.58694
G1 X103.143 Y119.084 E9.70111
G1 X103.012 Y118.323 E9.79377
G1 X102.996 Y117.977 E9.83534
G1 X99.157 Y116.059 E10.35031
G1 X99.157 Y107.000 E11.43739
G0 F9000 X99.557 Y107.400
G1 F1200 X103.392 Y107.400 E11.89759
G1 X103.392 Y107.032 E11.94175
G1 X103.478 Y106.221 E12.03962
G1 X103.808 Y105.222 E12.16587
G1 X104.298 Y104.386 E12.28215
G1 X105.065 Y103.571 E12.41645
G1 X105.750 Y103.108 E12.51567
G1 X106.249 Y102.857 E12.58269
G1 X106.974 Y102.610 E12.67460
G1 X107.721 Y102.493 E12.76534
G1 X108.140 Y102.483 E12.81563
G1 X110.431 Y102.536 E13.09062
G1 X111.045 Y102.552 E13.16433
G1 X112.688 Y102.601 E13.36158
G1 X114.162 Y102.653 E13.53857
G1 X114.987 Y102.689 E13.63766
G1 X115.407 Y102.736 E13.68838
G1 X115.575 Y102.725 E13.70858
G1 X115.863 Y102.731 E13.74315
G1 X116.516 Y102.767 E13.82163
G1 X117.217 Y102.818 E13.90597
G1 X117.945 Y102.883 E13.99368
G1 X119.285 Y103.086 E14.15631
G1 X121.360 Y104.524 E14.45926
G1 X121.360 Y108.682 E14.95822
G1 X122.842 Y107.200 E15.20972
G1 X126.190 Y107.200 E15.61148
G1 X130.257 Y108.551 E16.12575
G1 X130.257 Y115.811 E16.99695
G1 X126.677 Y117.600 E17.47720
G1 X122.842 Y117.600 E17.93740
G1 X121.361 Y116.119 E18.18873
G1 X121.360 Y120.476 E18.71157
G1 X119.311 Y121.896 E19.01073
G1 X118.147 Y122.094 E19.15241
G1 X117.386 Y122.170 E19.24419
G1 X116.601 Y122.226 E19.33863
G1 X115.880 Y122.267 E19.42529
G1 X115.591 Y122.276 E19.45998
G1 X115.397 Y122.264 E19.48331
G1 X115.162 Y122.300 E19.51184
G1 X114.170 Y122.347 E19.63101
G1 X112.685 Y122.399 E19.80932
G1 X111.976 Y122.420 E19.89444
G1 X111.044 Y122.448 E20.00633
G1 X109.608 Y122.483 E20.17870
G1 X108.073 Y122.517 E20.36294
G1 X107.389 Y122.474 E20.44519
G1 X106.573 Y122.274 E20.54600
G1 X105.884 Y121.965 E20.63662
G1 X105.466 Y121.712 E20.69525
G1 X105.059 Y121.407 E20.75628
G1 X104.561 Y120.916 E20.84020
G1 X104.226 Y120.491 E20.90514
G1 X103.827 Y119.811 E20.99975
G1 X103.532 Y118.982 E21.10534
G1 X103.410 Y118.280 E21.19085
G1 X103.392 Y117.869 E21.24021
G1 X103.392 Y117.600 E21.27249
G1 X103.137 Y117.600 E21.30309
G1 X99.557 Y115.811 E21.78335
G1 X99.557 Y107.400 E22.79267
G10
G0 F9000 X107.192 Y107.236
;TYPE:WALL-INNER
G11
G1 F1200 X107.214 Y107.026 E22.81801
G1 X107.290 Y106.796 E22.84707
G1 X107.360 Y106.677 E22.86364
G1 X107.542 Y106.484 E22.89547
G1 X107.676 Y106.394 E22.91484
G1 X107.725 Y106.369 E22.92145
G1 X107.888 Y106.313 E22.94213
G1 X108.060 Y106.286 E22.96302
G1 X108.139 Y106.284 E22.97250
G1 X110.336 Y106.335 E23.23622
G1 X110.938 Y106.351 E23.30848
G1 X112.563 Y106.399 E23.50357
G1 X114.016 Y106.451 E23.67804
G1 X114.692 Y106.479 E23.75923
G1 X114.807 Y106.492 E23.77311
G1 X115.136 Y106.598 E23.81459
G1 X115.336 Y106.593 E23.83860
G1 X115.629 Y106.529 E23.87459
G1 X115.657 Y106.528 E23.87795
G1 X116.277 Y106.560 E23.95245
G1 X116.906 Y106.605 E24.02812
G1 X117.500 Y106.659 E24.09970
G1 X117.560 Y106.668 E24.10698
G1 X117.560 Y118.334 E25.50690
G1 X117.054 Y118.384 E25.56791
G1 X116.361 Y118.434 E25.65129
G1 X115.721 Y118.470 E25.72821
G1 X115.652 Y118.472 E25.73650
G1 X115.500 Y118.449 E25.75494
G1 X115.282 Y118.380 E25.78238
G1 X114.777 Y118.515 E25.84511
G1 X114.017 Y118.551 E25.93641
G1 X112.563 Y118.601 E26.11100
G1 X111.861 Y118.621 E26.19527
G1 X110.938 Y118.649 E26.30608
G1 X109.518 Y118.684 E26.47653
G1 X108.153 Y118.714 E26.64037
G1 X107.964 Y118.702 E26.66310
G1 X107.810 Y118.665 E26.68210
G1 X107.596 Y118.560 E26.71071
G1 X107.375 Y118.349 E26.74737
G1 X107.286 Y118.197 E26.76851
G1 X107.220 Y118.011 E26.79219
G1 X107.195 Y117.869 E26.80950
G1 X107.192 Y107.236 E28.08546
G0 F9000 X106.792 Y107.213
;TYPE:WALL-OUTER
G1 F1200 X106.821 Y106.942 E28.11816
G1 X106.923 Y106.632 E28.15732
G1 X107.038 Y106.436 E28.18459
G1 X107.281 Y106.178 E28.22712
G1 X107.573 Y105.998 E28.26829
G1 X107.789 Y105.924 E28.29569
G1 X108.026 Y105.887 E28.32447
G1 X108.139 Y105.884 E28.33803
G1 X110.950 Y105.951 E28.67545
G1 X112.577 Y105.999 E28.87078
G1 X114.028 Y106.051 E29.04501
G1 X114.725 Y106.081 E29.12872
G1 X114.897 Y106.100 E29.14949
G1 X115.195 Y106.197 E29.18710
G1 X115.288 Y106.194 E29.19826
G1 X115.571 Y106.132 E29.23303
G1 X115.652 Y106.127 E29.24277
G1 X116.300 Y106.161 E29.32063
G1 X116.941 Y106.207 E29.39775
G1 X117.533 Y106.260 E29.46908
G1 X117.960 Y106.325 E29.52091
G1 X117.960 Y118.677 E31.00315
G1 X117.093 Y118.782 E31.10795
G1 X116.384 Y118.834 E31.19325
G1 X115.729 Y118.870 E31.27197
G1 X115.650 Y118.873 E31.28146
G1 X115.479 Y118.854 E31.30211
G1 X115.399 Y118.836 E31.31195
G1 X115.265 Y118.794 E31.32880
G1 X114.819 Y118.913 E31.38419
G1 X114.029 Y118.950 E31.47909
G1 X112.577 Y119.001 E31.65344
G1 X109.527 Y119.084 E32.01958
G1 X108.149 Y119.115 E32.18498
G1 X107.900 Y119.099 E32.21492
G1 X107.681 Y119.045 E32.24199
G1 X107.470 Y118.951 E32.26971
G1 X107.370 Y118.890 E32.28376
G1 X107.278 Y118.821 E32.29756
G1 X107.103 Y118.648 E32.32709
G1 X107.043 Y118.573 E32.33862
G1 X106.920 Y118.364 E32.36772
G1 X106.832 Y118.117 E32.39918
G1 X106.798 Y117.916 E32.42365
G1 X106.792 Y107.213 E33.70801
G0 F9000 X107.350 Y107.067
;TYPE:SKIN
G1 F900 X117.420 Y117.137 E35.41694
G0 F9000 X117.420 Y117.702
G1 F900 X107.331 Y107.614 E37.12902
G0 F9000 X107.331 Y108.180
G1 F900 X117.362 Y118.211 E38.83133
G0 F9000 X116.843 Y118.257
G1 F900 X107.331 Y108.745 E40.44557
G0 F9000 X107.331 Y109.311
G1 F900 X116.317 Y118.297 E41.97055
G0 F9000 X115.779 Y118.325
G1 F900 X107.332 Y109.878 E43.40405
G0 F9000 X107.332 Y110.443
G1 F900 X115.156 Y118.267 E44.73183
G0 F9000 X114.700 Y118.377
G1 F900 X107.332 Y111.009 E45.98222
G0 F9000 X107.333 Y111.575
G1 F900 X114.156 Y118.398 E47.14012
G0 F9000 X113.611 Y118.419
G1 F900 X107.333 Y112.141 E48.20553
G0 F9000 X107.333 Y112.707
G1 F900 X113.066 Y118.440 E49.17846
G0 F9000 X112.521 Y118.461
G1 F900 X107.333 Y113.272 E50.05897
G0 F9000 X107.333 Y113.839
G1 F900 X111.970 Y118.475 E50.84581
G0 F9000 X111.418 Y118.489
G1 F900 X107.333 Y114.404 E51.53906
G0 F9000 X107.333 Y114.970
G1 F900 X110.867 Y118.504 E52.13880
G0 F9000 X110.315 Y118.518
G1 F900 X107.333 Y115.536 E52.64486
G0 F9000 X107.334 Y116.102
G1 F900 X109.764 Y118.532 E53.05725
G0 F9000 X109.211 Y118.545
G1 F900 X107.334 Y116.668 E53.37579
G0 F9000 X107.334 Y117.234
G1 F900 X108.660 Y118.559 E53.60073
G0 F9000 X108.104 Y118.569
G1 F900 X107.334 Y117.799 E53.73140
G0 F9000 X117.420 Y116.571
G1 F900 X107.538 Y106.690 E55.40835
G0 F9000 X107.879 Y106.464
G1 F900 X117.420 Y116.005 E57.02751
G0 F9000 X117.420 Y115.440
G1 F900 X108.411 Y106.431 E58.55639
G0 F9000 X108.994 Y106.448
G1 F900 X117.420 Y114.874 E59.98633
G0 F9000 X117.420 Y114.308
G1 F900 X109.576 Y106.464 E61.31750
G0 F9000 X110.158 Y106.481
G1 F900 X117.420 Y113.743 E62.54990
G0 F9000 X117.420 Y113.177
G1 F900 X110.740 Y106.498 E63.68345
G0 F9000 X111.323 Y106.515
G1 F900 X117.420 Y112.611 E64.71806
G0 F9000 X117.420 Y112.046
G1 F900 X111.905 Y106.531 E65.65399
G0 F9000 X112.487 Y106.547
G1 F900 X117.420 Y111.480 E66.49115
G0 F9000 X117.420 Y110.914
G1 F900 X113.069 Y106.564 E67.22945
G0 F9000 X113.651 Y106.580
G1 F900 X117.420 Y110.348 E67.86899
G0 F9000 X117.420 Y109.783
G1 F900 X114.237 Y106.600 E68.40916
G0 F9000 X114.858 Y106.655
G1 F900 X117.420 Y109.217 E68.84394
G0 F9000 X117.420 Y108.651
G1 F900 X115.474 Y106.705 E69.17419
G0 F9000 X116.021 Y106.687
G1 F900 X117.420 Y108.086 E69.41161
G0 F9000 X117.420 Y107.520
G1 F900 X116.624 Y106.725 E69.54661
G0 F9000 X117.241 Y106.775
G1 F900 X117.420 Y106.954 E69.57699
G10
G0 F9000 X106.552 Y110.639
;TYPE:SUPPORT
G11
G1 F1200 X102.097 Y110.639 E70.11159
G0 F9000 X102.641 Y109.940
G1 F1200 X102.641 Y114.512 E70.66023
G0 F9000 X102.097 Y113.305
G1 F1200 X106.552 Y113.305 E71.19483
G0 F9000 X105.792 Y113.305
G0 X105.307 Y114.300
G0 X105.307 Y115.060
G1 F1200 X105.307 Y109.940 E71.80923
G10
G0 F9000 X122.994 Y110.639
G11
G1 F1200 X127.717 Y110.639 E72.37599
G0 F9000 X126.635 Y110.025
G1 F1200 X126.635 Y114.782 E72.94683
G0 F9000 X126.296 Y114.102
G0 X126.957 Y113.305
G0 X127.717 Y113.305
G1 F1200 X122.697 Y113.305 E73.54923
G0 F9000 X123.457 Y113.305
G0 X124.177 Y114.300
G0 X123.969 Y115.060
G1 F1200 X123.969 Y109.740 E74.18763
;LAYER:1
M106 S127
G0 F9000 X122.068 Y109.740 Z0.400
G0 X121.497 Y106.618
;TYPE:WALL-INNER
G1 F1800 X121.968 Y106.666 E74.20657
G1 X121.968 Y118.333 E74.67325
G1 X120.669 Y118.440 E74.72538
G1 X119.665 Y118.496 E74.76560
G1 X119.040 Y118.523 E74.79063
G1 X118.419 Y118.551 E74.81549
G1 X117.354 Y118.588 E74.85812
G1 X115.727 Y118.638 E74.92323
G1 X115.527 Y118.621 E74.93126
G1 X115.322 Y118.566 E74.93975
G1 X115.121 Y118.576 E74.94780
G1 X114.805 Y118.659 E74.96087
G1 X113.534 Y118.694 E75.01173
G1 X113.030 Y118.704 E75.03189
G1 X111.556 Y118.736 E75.09086
G1 X109.412 Y118.773 E75.17664
G1 X108.158 Y118.791 E75.22680
G1 X107.953 Y118.777 E75.23502
G1 X107.787 Y118.735 E75.24187
G1 X107.546 Y118.614 E75.25266
G1 X107.501 Y118.579 E75.25494
G1 X107.359 Y118.440 E75.26289
G1 X107.231 Y118.248 E75.27212
G1 X107.135 Y117.948 E75.28471
G1 X107.123 Y107.231 E75.71340
G1 X107.146 Y107.000 E75.72268
G1 X107.194 Y106.838 E75.72944
G1 X107.255 Y106.711 E75.73507
G1 X107.441 Y106.472 E75.74719
G1 X107.619 Y106.341 E75.75603
G1 X107.787 Y106.265 E75.76340
G1 X107.959 Y106.222 E75.77050
G1 X108.147 Y106.208 E75.77804
G1 X110.727 Y106.249 E75.88125
G1 X111.557 Y106.264 E75.91446
G1 X113.535 Y106.306 E75.99359
G1 X114.689 Y106.334 E76.03977
G1 X114.942 Y106.368 E76.04998
G1 X115.093 Y106.422 E76.05639
G1 X115.320 Y106.435 E76.06549
G1 X115.519 Y106.380 E76.07375
G1 X115.669 Y106.362 E76.07979
G1 X115.726 Y106.361 E76.08207
G1 X116.741 Y106.392 E76.12269
G1 X117.928 Y106.433 E76.17020
G1 X119.054 Y106.477 E76.21527
G1 X119.665 Y106.504 E76.23973
G1 X120.669 Y106.560 E76.27996
G1 X121.497 Y106.618 E76.31316
G0 F9000 X121.527 Y106.219
;TYPE:WALL-OUTER
G1 F1320 X122.100 Y106.278 E76.33620
G1 X122.361 Y106.327 E76.34682
G1 X122.368 Y118.561 E76.83618
G1 X122.362 Y118.673 E76.84067
G1 X121.527 Y118.781 E76.87435
G1 X120.697 Y118.839 E76.90763
G1 X119.687 Y118.895 E76.94809
G1 X118.431 Y118.950 E76.99838
G1 X117.368 Y118.988 E77.04093
G1 X115.735 Y119.038 E77.10628
G1 X115.638 Y119.037 E77.11016
G1 X115.449 Y119.014 E77.11777
G1 X115.279 Y118.969 E77.12481
G1 X115.184 Y118.973 E77.12861
G1 X114.835 Y119.058 E77.14298
G1 X113.545 Y119.094 E77.19460
G1 X109.418 Y119.173 E77.35971
G1 X108.148 Y119.191 E77.41051
G1 X107.888 Y119.173 E77.42094
G1 X107.652 Y119.114 E77.43067
G1 X107.433 Y119.015 E77.44028
G1 X107.324 Y118.947 E77.44542
G1 X107.235 Y118.879 E77.44990
G1 X107.056 Y118.703 E77.45994
G1 X106.911 Y118.500 E77.46992
G1 X106.862 Y118.406 E77.47416
G1 X106.742 Y118.032 E77.48987
G1 X106.723 Y107.211 E77.92271
G1 X106.752 Y106.923 E77.93429
G1 X106.820 Y106.692 E77.94392
G1 X106.911 Y106.501 E77.95239
G1 X107.148 Y106.197 E77.96780
G1 X107.432 Y105.986 E77.98196
G1 X107.652 Y105.886 E77.99162
G1 X107.894 Y105.825 E78.00161
G1 X108.136 Y105.808 E78.01131
G1 X112.298 Y105.879 E78.17781
G1 X114.724 Y105.935 E78.27488
G1 X115.023 Y105.975 E78.28695
G1 X115.175 Y106.026 E78.29336
G1 X115.275 Y106.032 E78.29737
G1 X115.356 Y106.008 E78.30075
G1 X115.646 Y105.962 E78.31249
G1 X115.734 Y105.961 E78.31601
G1 X117.943 Y106.033 E78.40442
G1 X119.068 Y106.077 E78.44945
G1 X119.687 Y106.105 E78.47424
G1 X120.697 Y106.161 E78.51470
G1 X121.527 Y106.219 E78.54798
G0 F9000 X121.495 Y106.758
;TYPE:SKIN
G1 F900 X109.632 Y118.621 E79.21905
G0 F9000 X110.209 Y118.610
G1 F900 X121.827 Y106.992 E79.87627
G0 F9000 X121.827 Y107.558
G1 F900 X110.786 Y118.598 E80.50081
G0 F9000 X111.363 Y118.587
G1 F900 X121.827 Y108.123 E81.09275
G0 F9000 X121.827 Y108.689
G1 F900 X111.941 Y118.575 E81.65198
G0 F9000 X112.518 Y118.564
G1 F900 X121.827 Y109.255 E82.17858
G0 F9000 X121.827 Y109.820
G1 F900 X113.095 Y118.552 E82.67253
G0 F9000 X113.672 Y118.541
G1 F900 X121.827 Y110.386 E83.13385
G0 F9000 X121.827 Y110.952
G1 F900 X114.249 Y118.530 E83.56253
G0 F9000 X114.840 Y118.504
G1 F900 X121.827 Y111.517 E83.95777
G0 F9000 X121.827 Y112.083
G1 F900 X115.454 Y118.456 E84.31828
G0 F9000 X115.986 Y118.489
G1 F900 X121.827 Y112.649 E84.64867
G0 F9000 X121.827 Y113.214
G1 F900 X116.571 Y118.470 E84.94600
G0 F9000 X117.156 Y118.451
G1 F900 X121.827 Y113.780 E85.21023
G0 F9000 X121.827 Y114.346
G1 F900 X117.741 Y118.432 E85.44137
G0 F9000 X118.325 Y118.413
G1 F900 X121.827 Y114.911 E85.63947
G0 F9000 X121.827 Y115.477
G1 F900 X118.919 Y118.385 E85.80397
G0 F9000 X119.513 Y118.356
G1 F900 X121.827 Y116.043 E85.93484
G0 F9000 X121.827 Y116.608
G1 F900 X120.109 Y118.327 E86.03206
G0 F9000 X120.704 Y118.297
G1 F900 X121.827 Y117.174 E86.09558
G0 F9000 X121.827 Y117.740
G1 F900 X121.321 Y118.246 E86.12421
G0 F9000 X120.963 Y106.725
G1 F900 X109.054 Y118.633 E86.79785
G0 F9000 X108.477 Y118.644
G1 F900 X120.430 Y106.691 E87.47402
G0 F9000 X119.898 Y106.658
G1 F900 X107.930 Y118.626 E88.15103
G0 F9000 X107.555 Y118.436
G1 F900 X119.358 Y106.632 E88.81874
G0 F9000 X118.813 Y106.612
G1 F900 X107.328 Y118.096 E89.46840
G0 F9000 X107.274 Y117.585
G1 F900 X118.266 Y106.593 E90.09020
G0 F9000 X117.720 Y106.573
G1 F900 X107.273 Y117.020 E90.68117
G0 F9000 X107.273 Y116.455
G1 F900 X117.174 Y106.553 E91.24128
G0 F9000 X116.628 Y106.534
G1 F900 X107.272 Y115.890 E91.77054
G0 F9000 X107.271 Y115.325
G1 F900 X116.082 Y106.514 E92.26896
G0 F9000 X115.502 Y106.529
G1 F900 X107.270 Y114.760 E92.73461
G0 F9000 X107.270 Y114.194
G1 F900 X114.947 Y106.517 E93.16888
G0 F9000 X114.431 Y106.469
G1 F900 X107.270 Y113.629 E93.57394
G0 F9000 X107.269 Y113.064
G1 F900 X113.876 Y106.458 E93.94766
G0 F9000 X113.320 Y106.447
G1 F900 X107.268 Y112.499 E94.29002
G0 F9000 X107.268 Y111.935
G1 F900 X112.766 Y106.436 E94.60106
G0 F9000 X112.211 Y106.425
G1 F900 X107.267 Y111.370 E94.88076
G0 F9000 X107.266 Y110.805
G1 F900 X111.656 Y106.415 E95.12910
G0 F9000 X111.101 Y106.404
G1 F900 X107.265 Y110.240 E95.34609
G0 F9000 X107.265 Y109.675
G1 F900 X110.546 Y106.394 E95.53170
G0 F9000 X109.991 Y106.383
G1 F900 X107.264 Y109.110 E95.68596
G0 F9000 X107.264 Y108.544
G1 F900 X109.436 Y106.372 E95.80883
G0 F9000 X108.881 Y106.362
G1 F900 X107.263 Y107.979 E95.90032
G0 F9000 X107.263 Y107.414
G1 F900 X108.326 Y106.350 E95.96049
G10
G0 F9000 X123.969 Y110.513
;TYPE:SUPPORT
G11
G1 F1620 X123.969 Y114.287 E96.11145
