;FLAVOR:UltiGCode
;TIME:2940      
;MATERIAL:3155      
;MATERIAL2:0         

M140 S60

G0 F3600 X21.20 Y20.57 Z0.30
;TYPE:SKIRT
G11
G1 F1200 X23.07 Y18.70 E0.31803
G1 X206.93 Y18.70 E22.38015
G1 X208.80 Y20.57 E22.69826
G1 X208.80 Y204.43 E44.76038
G1 X206.93 Y206.30 E45.07858
G1 X23.07 Y206.30 E67.14070
G1 X21.20 Y204.43 E67.45881
G1 X21.20 Y20.57 E89.52093
G0 F3600 X24.90 Y22.31
G0 X25.00 Y22.50
G92 E0

;Layer count: 198
;LAYER:0
M107
G0 F9000 X99.40 Y96.90 Z0.30
G0 X99.40 Y96.90
;TYPE:SKIRT
G11
G1 F1200 X130.60 Y96.90 E3.74400
G1 X130.60 Y128.10 E7.48800
G1 X99.40 Y128.10 E11.23200
G1 X99.40 Y96.90 E14.97600
G0 F9000 X99.80 Y97.30
G1 F1200 X130.20 Y97.30 E18.62400
G1 X130.20 Y127.70 E22.27200
G1 X99.80 Y127.70 E25.92000
G1 X99.80 Y97.30 E29.56800
G10
G0 F9000 X103.60 Y101.10
;TYPE:WALL-INNER
G11
G1 F1200 X126.40 Y101.10 E32.30400
G1 X126.40 Y123.90 E35.04000
G1 X103.60 Y123.90 E37.77600
G1 X103.60 Y101.10 E40.51200
G0 F9000 X103.20 Y100.70
;TYPE:WALL-OUTER
G1 F1200 X126.80 Y100.70 E43.34400
G1 X126.80 Y124.30 E46.17600
G1 X103.20 Y124.30 E49.00800
G1 X103.20 Y100.70 E51.84000
G0 F9000 X103.79 Y101.24
;TYPE:FILL
G1 F1200 X126.26 Y123.71 E55.65379
G0 F9000 X125.74 Y123.76
G1 F1200 X103.74 Y101.76 E59.38740
G0 F9000 X103.74 Y102.32
G1 F1200 X125.17 Y123.76 E63.02504
G0 F9000 X124.61 Y123.76
G1 F1200 X103.74 Y102.89 E66.56663
G0 F9000 X103.74 Y103.46
G1 F1200 X124.04 Y123.76 E70.01225
G0 F9000 X123.48 Y123.76
G1 F1200 X103.74 Y104.02 E73.36190
G0 F9000 X103.74 Y104.59
G1 F1200 X122.91 Y123.76 E76.61549
G0 F9000 X122.35 Y123.76
G1 F1200 X103.74 Y105.15 E79.77312
G0 F9000 X103.74 Y105.72
G1 F1200 X121.78 Y123.76 E82.83478
G0 F9000 X121.21 Y123.76
G1 F1200 X103.74 Y106.28 E85.80039
G0 F9000 X103.74 Y106.85
G1 F1200 X120.65 Y123.76 E88.66994
G0 F9000 X120.08 Y123.76
G1 F1200 X103.74 Y107.42 E91.44361
G0 F9000 X103.74 Y107.98
G1 F1200 X119.52 Y123.76 E94.12122
G0 F9000 X118.95 Y123.76
G1 F1200 X103.74 Y108.55 E96.70279
G0 F9000 X103.74 Y109.11
G1 F1200 X118.39 Y123.76 E99.18846
G0 F9000 X117.82 Y123.76
G1 F1200 X103.74 Y109.68 E101.57809
G0 F9000 X103.74 Y110.24
G1 F1200 X117.25 Y123.76 E103.87166
G0 F9000 X116.69 Y123.76
G1 F1200 X103.74 Y110.81 E106.06935
G0 F9000 X103.74 Y111.38
G1 F1200 X116.12 Y123.76 E108.17098
G0 F9000 X115.56 Y123.76
G1 F1200 X103.74 Y111.94 E110.17656
G0 F9000 X103.74 Y112.51
G1 F1200 X114.99 Y123.76 E112.08618
G0 F9000 X114.43 Y123.76
G1 F1200 X103.74 Y113.07 E113.89982
G0 F9000 X103.74 Y113.64
G1 F1200 X113.86 Y123.76 E115.61741
G0 F9000 X113.29 Y123.76
G1 F1200 X103.74 Y114.20 E117.23903
G0 F9000 X103.74 Y114.77
G1 F1200 X112.73 Y123.76 E118.76469
G0 F9000 X112.16 Y123.76
G1 F1200 X103.74 Y115.33 E120.19429
G0 F9000 X103.74 Y115.90
G1 F1200 X111.60 Y123.76 E121.52792
G0 F9000 X111.03 Y123.76
G1 F1200 X103.74 Y116.47 E122.76558
G0 F9000 X103.74 Y117.03
G1 F1200 X110.47 Y123.76 E123.90719
G0 F9000 X109.90 Y123.76
G1 F1200 X103.74 Y117.60 E124.95275
G0 F9000 X103.74 Y118.16
G1 F1200 X109.33 Y123.76 E125.90242
G0 F9000 X108.77 Y123.76
G1 F1200 X103.74 Y118.73 E126.75604
G0 F9000 X103.74 Y119.30
G1 F1200 X108.20 Y123.76 E127.51361
G0 F9000 X107.64 Y123.76
G1 F1200 X103.74 Y119.86 E128.17529
G0 F9000 X103.74 Y120.43
G1 F1200 X107.07 Y123.76 E128.74092
G0 F9000 X106.51 Y123.76
G1 F1200 X103.74 Y120.99 E129.21049
G0 F9000 X103.74 Y121.56
G1 F1200 X105.94 Y123.76 E129.58410
G0 F9000 X105.37 Y123.76
G1 F1200 X103.74 Y122.12 E129.86174
G0 F9000 X103.74 Y122.69
G1 F1200 X104.81 Y123.76 E130.04332
G0 F9000 X104.24 Y123.76
G1 F1200 X103.74 Y123.26 E130.12894
G0 F9000 X104.35 Y101.24
G1 F1200 X126.26 Y123.15 E133.84668
G0 F9000 X126.26 Y122.58
G1 F1200 X104.92 Y101.24 E137.46845
G0 F9000 X105.48 Y101.24
G1 F1200 X126.26 Y122.02 E140.99426
G0 F9000 X126.26 Y121.45
G1 F1200 X106.05 Y101.24 E144.42401
G0 F9000 X106.61 Y101.24
G1 F1200 X126.26 Y120.88 E147.75771
G0 F9000 X126.26 Y120.32
G1 F1200 X107.18 Y101.24 E150.99552
G0 F9000 X107.75 Y101.24
G1 F1200 X126.26 Y119.75 E154.13728
G0 F9000 X126.26 Y119.19
G1 F1200 X108.31 Y101.24 E157.18299
G0 F9000 X108.88 Y101.24
G1 F1200 X126.26 Y118.62 E160.13281
G0 F9000 X126.26 Y118.06
G1 F1200 X109.44 Y101.24 E162.98658
G0 F9000 X110.01 Y101.24
G1 F1200 X126.26 Y117.49 E165.74430
G0 F9000 X126.26 Y116.93
G1 F1200 X110.57 Y101.24 E168.40613
G0 F9000 X111.14 Y101.24
G1 F1200 X126.26 Y116.36 E170.97191
G0 F9000 X126.26 Y115.79
G1 F1200 X111.71 Y101.24 E173.44163
G0 F9000 X112.27 Y101.24
G1 F1200 X126.26 Y115.23 E175.81539
G0 F9000 X126.26 Y114.66
G1 F1200 X112.84 Y101.24 E178.09318
G0 F9000 X113.40 Y101.24
G1 F1200 X126.26 Y114.10 E180.27492
G0 F9000 X126.26 Y113.53
G1 F1200 X113.97 Y101.24 E182.36068
G0 F9000 X114.53 Y101.24
G1 F1200 X126.26 Y112.97 E184.35048
G0 F9000 X126.26 Y112.40
G1 F1200 X115.10 Y101.24 E186.24423
G0 F9000 X115.66 Y101.24
G1 F1200 X126.26 Y111.83 E188.04200
G0 F9000 X126.26 Y111.27
G1 F1200 X116.23 Y101.24 E189.74381
G0 F9000 X116.80 Y101.24
G1 F1200 X126.26 Y110.70 E191.34957
G0 F9000 X126.26 Y110.14
G1 F1200 X117.36 Y101.24 E192.85927
G0 F9000 X117.93 Y101.24
G1 F1200 X126.26 Y109.57 E194.27308
G0 F9000 X126.26 Y109.01
G1 F1200 X118.49 Y101.24 E195.59085
G0 F9000 X119.06 Y101.24
G1 F1200 X126.26 Y108.44 E196.81256
G0 F9000 X126.26 Y107.87
G1 F1200 X119.62 Y101.24 E197.93839
G0 F9000 X120.19 Y101.24
G1 F1200 X126.26 Y107.31 E198.96816
G0 F9000 X126.26 Y106.74
G1 F1200 X120.76 Y101.24 E199.90188
G0 F9000 X121.32 Y101.24
G1 F1200 X126.26 Y106.18 E200.73972
G0 F9000 X126.26 Y105.61
G1 F1200 X121.89 Y101.24 E201.48150
G0 F9000 X122.45 Y101.24
G1 F1200 X126.26 Y105.05 E202.12723
G0 F9000 X126.26 Y104.48
G1 F1200 X123.02 Y101.24 E202.67699
G0 F9000 X123.58 Y101.24
G1 F1200 X126.26 Y103.91 E203.13079
G0 F9000 X126.26 Y103.35
G1 F1200 X124.15 Y101.24 E203.48852
G0 F9000 X124.72 Y101.24
G1 F1200 X126.26 Y102.78 E203.75030
G0 F9000 X126.26 Y102.22
G1 F1200 X125.28 Y101.24 E203.91610
G0 F9000 X125.85 Y101.24
G1 F1200 X126.26 Y101.65 E203.98585
;LAYER:1
M106 S12
G0 F9000 X126.40 Y101.10 Z0.40
;TYPE:WALL-INNER
G1 F1620 X126.40 Y123.90 E204.89785
G1 X103.60 Y123.90 E205.80985
G1 X103.60 Y101.10 E206.72185
G1 X126.40 Y101.10 E207.63385
G0 F9000 X126.80 Y100.70
;TYPE:WALL-OUTER
G1 F1200 X126.80 Y124.30 E208.57785
G1 X103.20 Y124.30 E209.52185
G1 X103.20 Y100.70 E210.46585
G1 X126.80 Y100.70 E211.40985
G0 F9000 X126.26 Y101.43
;TYPE:FILL
G1 F1620 X103.93 Y123.76 E212.67302
G0 F9000 X103.74 Y123.38
G1 F1620 X125.88 Y101.24 E213.92562
G0 F9000 X125.32 Y101.24
G1 F1620 X103.74 Y122.82 E215.14620
G0 F9000 X103.74 Y122.25
G1 F1620 X124.75 Y101.24 E216.33479
G0 F9000 X124.19 Y101.24
G1 F1620 X103.74 Y121.69 E217.49139
G0 F9000 X103.74 Y121.12
G1 F1620 X123.62 Y101.24 E218.61597
G0 F9000 X123.05 Y101.24
G1 F1620 X103.74 Y120.55 E219.70857
G0 F9000 X103.74 Y119.99
G1 F1620 X122.49 Y101.24 E220.76914
G0 F9000 X121.92 Y101.24
G1 F1620 X103.74 Y119.42 E221.79773
G0 F9000 X103.74 Y118.86
G1 F1620 X121.36 Y101.24 E222.79432
G0 F9000 X120.79 Y101.24
G1 F1620 X103.74 Y118.29 E223.75890
G0 F9000 X103.74 Y117.73
G1 F1620 X120.22 Y101.24 E224.69149
G0 F9000 X119.66 Y101.24
G1 F1620 X103.74 Y117.16 E225.59209
G0 F9000 X103.74 Y116.59
G1 F1620 X119.09 Y101.24 E226.46067
G0 F9000 X118.53 Y101.24
G1 F1620 X103.74 Y116.03 E227.29726
G0 F9000 X103.74 Y115.46
G1 F1620 X117.96 Y101.24 E228.10187
G0 F9000 X117.40 Y101.24
G1 F1620 X103.74 Y114.90 E228.87445
G0 F9000 X103.74 Y114.33
G1 F1620 X116.83 Y101.24 E229.61505
G0 F9000 X116.27 Y101.24
G1 F1620 X103.74 Y113.77 E230.32365
G0 F9000 X103.74 Y113.20
G1 F1620 X115.70 Y101.24 E231.00024
G0 F9000 X115.13 Y101.24
G1 F1620 X103.74 Y112.64 E231.64484
G0 F9000 X103.74 Y112.07
G1 F1620 X114.57 Y101.24 E232.25742
G0 F9000 X114.00 Y101.24
G1 F1620 X103.74 Y111.50 E232.83801
G0 F9000 X103.74 Y110.94
G1 F1620 X113.44 Y101.24 E233.38658
G0 F9000 X112.87 Y101.24
G1 F1620 X103.74 Y110.37 E233.90317
G0 F9000 X103.74 Y109.81
G1 F1620 X112.31 Y101.24 E234.38776
G0 F9000 X111.74 Y101.24
G1 F1620 X103.74 Y109.24 E234.84034
G0 F9000 X103.74 Y108.68
G1 F1620 X111.17 Y101.24 E235.26093
G0 F9000 X110.61 Y101.24
G1 F1620 X103.74 Y108.11 E235.64952
G0 F9000 X103.74 Y107.54
G1 F1620 X110.04 Y101.24 E236.00610
G0 F9000 X109.48 Y101.24
G1 F1620 X103.74 Y106.98 E236.33069
G0 F9000 X103.74 Y106.41
G1 F1620 X108.91 Y101.24 E236.62329
G0 F9000 X108.35 Y101.24
G1 F1620 X103.74 Y105.85 E236.88388
G0 F9000 X103.74 Y105.28
G1 F1620 X107.78 Y101.24 E237.11247
G0 F9000 X107.22 Y101.24
G1 F1620 X103.74 Y104.72 E237.30908
G0 F9000 X103.74 Y104.15
G1 F1620 X106.65 Y101.24 E237.47366
G0 F9000 X106.08 Y101.24
G1 F1620 X103.74 Y103.58 E237.60626
G0 F9000 X103.74 Y103.02
G1 F1620 X105.52 Y101.24 E237.70687
G0 F9000 X104.95 Y101.24
G1 F1620 X103.74 Y102.45 E237.77545
G0 F9000 X103.74 Y101.89
G1 F1620 X104.39 Y101.24 E237.81205
G0 F9000 X103.82 Y101.24
G1 F1620 X103.74 Y101.32 E237.81664
G0 F9000 X104.49 Y123.76
G1 F1620 X126.26 Y102.00 E239.04779
G0 F9000 X126.26 Y102.56
G1 F1620 X105.06 Y123.76 E240.24699
G0 F9000 X105.63 Y123.76
G1 F1620 X126.26 Y103.13 E241.41417
G0 F9000 X126.26 Y103.69
G1 F1620 X106.19 Y123.76 E242.54933
G0 F9000 X106.76 Y123.76
G1 F1620 X126.26 Y104.26 E243.65253
G0 F9000 X126.26 Y104.82
G1 F1620 X107.32 Y123.76 E244.72371
G0 F9000 X107.89 Y123.76
G1 F1620 X126.26 Y105.39 E245.76288
G0 F9000 X126.26 Y105.96
G1 F1620 X108.45 Y123.76 E246.77005
G0 F9000 X109.02 Y123.76
G1 F1620 X126.26 Y106.52 E247.74524
G0 F9000 X126.26 Y107.09
G1 F1620 X109.58 Y123.76 E248.68840
G0 F9000 X110.15 Y123.76
G1 F1620 X126.26 Y107.65 E249.59958
G0 F9000 X126.26 Y108.22
G1 F1620 X110.72 Y123.76 E250.47877
G0 F9000 X111.28 Y123.76
G1 F1620 X126.26 Y108.78 E251.32594
G0 F9000 X126.26 Y109.35
G1 F1620 X111.85 Y123.76 E252.14109
G0 F9000 X112.41 Y123.76
G1 F1620 X126.26 Y109.91 E252.92428
G0 F9000 X126.26 Y110.48
G1 F1620 X112.98 Y123.76 E253.67546
G0 F9000 X113.55 Y123.76
G1 F1620 X126.26 Y111.05 E254.39461
G0 F9000 X126.26 Y111.61
G1 F1620 X114.11 Y123.76 E255.08181
G0 F9000 X114.68 Y123.76
G1 F1620 X126.26 Y112.18 E255.73699
G0 F9000 X126.26 Y112.74
G1 F1620 X115.24 Y123.76 E256.36014
G0 F9000 X115.81 Y123.76
G1 F1620 X126.26 Y113.31 E256.95134
G0 F9000 X126.26 Y113.87
G1 F1620 X116.37 Y123.76 E257.51052
G0 F9000 X116.94 Y123.76
G1 F1620 X126.26 Y114.44 E258.03768
G0 F9000 X126.26 Y115.01
G1 F1620 X117.50 Y123.76 E258.53289
G0 F9000 X118.07 Y123.76
G1 F1620 X126.26 Y115.57 E258.99607
G0 F9000 X126.26 Y116.14
G1 F1620 X118.64 Y123.76 E259.42723
G0 F9000 X119.20 Y123.76
G1 F1620 X126.26 Y116.70 E259.82641
G0 F9000 X126.26 Y117.27
G1 F1620 X119.77 Y123.76 E260.19360
G0 F9000 X120.33 Y123.76
G1 F1620 X126.26 Y117.83 E260.52876
G0 F9000 X126.26 Y118.40
G1 F1620 X120.90 Y123.76 E260.83194
G0 F9000 X121.46 Y123.76
G1 F1620 X126.26 Y118.97 E261.10313
G0 F9000 X126.26 Y119.53
G1 F1620 X122.03 Y123.76 E261.34231
G0 F9000 X122.60 Y123.76
G1 F1620 X126.26 Y120.10 E261.54946
G0 F9000 X126.26 Y120.66
G1 F1620 X123.16 Y123.76 E261.72465
G0 F9000 X123.73 Y123.76
G1 F1620 X126.26 Y121.23 E261.86783
G0 F9000 X126.26 Y121.79
G1 F1620 X124.29 Y123.76 E261.97898
G0 F9000 X124.86 Y123.76
G1 F1620 X126.26 Y122.36 E262.05818
G0 F9000 X126.26 Y122.93
G1 F1620 X125.42 Y123.76 E262.10536
G0 F9000 X125.99 Y123.76
G1 F1620 X126.26 Y123.49 E262.12052
;LAYER:2
M106 S28
G0 F9000 X126.40 Y123.90 Z0.50
;TYPE:WALL-INNER
G1 F2100 X103.60 Y123.90 E263.03252
G1 X103.60 Y101.10 E263.94452
G1 X126.40 Y101.10 E264.85652
G1 X126.40 Y123.90 E265.76852
G0 F9000 X126.80 Y124.30
;TYPE:WALL-OUTER
G1 F1200 X103.20 Y124.30 E266.71252
G1 X103.20 Y100.70 E267.65652
G1 X126.80 Y100.70 E268.60052
G1 X126.80 Y124.30 E269.54452
G0 F9000 X126.26 Y123.71
;TYPE:FILL
G1 F2100 X103.79 Y101.24 E270.81578
G0 F9000 X103.74 Y101.76
G1 F2100 X125.74 Y123.76 E272.06032
G0 F9000 X125.17 Y123.76
G1 F2100 X103.74 Y102.32 E273.27287
G0 F9000 X103.74 Y102.89
G1 F2100 X124.61 Y123.76 E274.45340
G0 F9000 X124.04 Y123.76
G1 F2100 X103.74 Y103.46 E275.60193
G0 F9000 X103.74 Y104.02
G1 F2100 X123.48 Y123.76 E276.71848
G0 F9000 X122.91 Y123.76
G1 F2100 X103.74 Y104.59 E277.80302
G0 F9000 X103.74 Y105.15
G1 F2100 X122.35 Y123.76 E278.85556
G0 F9000 X121.78 Y123.76
G1 F2100 X103.74 Y105.72 E279.87611
G0 F9000 X103.74 Y106.28
G1 F2100 X121.21 Y123.76 E280.86465
G0 F9000 X120.65 Y123.76
G1 F2100 X103.74 Y106.85 E281.82117
G0 F9000 X103.74 Y107.42
G1 F2100 X120.08 Y123.76 E282.74572
G0 F9000 X119.52 Y123.76
G1 F2100 X103.74 Y107.98 E283.63826
G0 F9000 X103.74 Y108.55
G1 F2100 X118.95 Y123.76 E284.49878
G0 F9000 X118.39 Y123.76
G1 F2100 X103.74 Y109.11 E285.32734
G0 F9000 X103.74 Y109.68
G1 F2100 X117.82 Y123.76 E286.12388
G0 F9000 X117.25 Y123.76
G1 F2100 X103.74 Y110.24 E286.88841
G0 F9000 X103.74 Y110.81
G1 F2100 X116.69 Y123.76 E287.62097
G0 F9000 X116.12 Y123.76
G1 F2100 X103.74 Y111.38 E288.32151
G0 F9000 X103.74 Y111.94
G1 F2100 X115.56 Y123.76 E288.99004
G0 F9000 X114.99 Y123.76
G1 F2100 X103.74 Y112.51 E289.62658
G0 F9000 X103.74 Y113.07
G1 F2100 X114.43 Y123.76 E290.23113
G0 F9000 X113.86 Y123.76
G1 F2100 X103.74 Y113.64 E290.80366
G0 F9000 X103.74 Y114.20
G1 F2100 X113.29 Y123.76 E291.34420
G0 F9000 X112.73 Y123.76
G1 F2100 X103.74 Y114.77 E291.85275
G0 F9000 X103.74 Y115.33
G1 F2100 X112.16 Y123.76 E292.32928
G0 F9000 X111.60 Y123.76
G1 F2100 X103.74 Y115.90 E292.77383
G0 F9000 X103.74 Y116.47
G1 F2100 X111.03 Y123.76 E293.18638
G0 F9000 X110.47 Y123.76
G1 F2100 X103.74 Y117.03 E293.56692
G0 F9000 X103.74 Y117.60
G1 F2100 X109.90 Y123.76 E293.91543
G0 F9000 X109.33 Y123.76
G1 F2100 X103.74 Y118.16 E294.23199
G0 F9000 X103.74 Y118.73
G1 F2100 X108.77 Y123.76 E294.51653
G0 F9000 X108.20 Y123.76
G1 F2100 X103.74 Y119.30 E294.76905
G0 F9000 X103.74 Y119.86
G1 F2100 X107.64 Y123.76 E294.98961
G0 F9000 X107.07 Y123.76
G1 F2100 X103.74 Y120.43 E295.17816
G0 F9000 X103.74 Y120.99
G1 F2100 X106.51 Y123.76 E295.33468
G0 F9000 X105.94 Y123.76
G1 F2100 X103.74 Y121.56 E295.45922
G0 F9000 X103.74 Y122.12
G1 F2100 X105.37 Y123.76 E295.55176
G0 F9000 X104.81 Y123.76
G1 F2100 X103.74 Y122.69 E295.61229
G0 F9000 X103.74 Y123.26
G1 F2100 X104.24 Y123.76 E295.64083
G0 F9000 X126.26 Y123.15
G1 F2100 X104.35 Y101.24 E296.88008
G0 F9000 X104.92 Y101.24
G1 F2100 X126.26 Y122.58 E298.08734
G0 F9000 X126.26 Y122.02
G1 F2100 X105.48 Y101.24 E299.26260
G0 F9000 X106.05 Y101.24
G1 F2100 X126.26 Y121.45 E300.40585
G0 F9000 X126.26 Y120.88
G1 F2100 X106.61 Y101.24 E301.51709
G0 F9000 X107.18 Y101.24
G1 F2100 X126.26 Y120.32 E302.59636
G0 F9000 X126.26 Y119.75
G1 F2100 X107.75 Y101.24 E303.64361
G0 F9000 X108.31 Y101.24
G1 F2100 X126.26 Y119.19 E304.65885
G0 F9000 X126.26 Y118.62
G1 F2100 X108.88 Y101.24 E305.64212
G0 F9000 X109.44 Y101.24
G1 F2100 X126.26 Y118.06 E306.59338
G0 F9000 X126.26 Y117.49
G1 F2100 X110.01 Y101.24 E307.51262
G0 F9000 X110.57 Y101.24
G1 F2100 X126.26 Y116.93 E308.39990
G0 F9000 X126.26 Y116.36
G1 F2100 X111.14 Y101.24 E309.25515
G0 F9000 X111.71 Y101.24
G1 F2100 X126.26 Y115.79 E310.07840
G0 F9000 X126.26 Y115.23
G1 F2100 X112.27 Y101.24 E310.86965
G0 F9000 X112.84 Y101.24
G1 F2100 X126.26 Y114.66 E311.62891
G0 F9000 X126.26 Y114.10
G1 F2100 X113.40 Y101.24 E312.35616
G0 F9000 X113.97 Y101.24
G1 F2100 X126.26 Y113.53 E313.05141
G0 F9000 X126.26 Y112.97
G1 F2100 X114.53 Y101.24 E313.71468
G0 F9000 X115.10 Y101.24
G1 F2100 X126.26 Y112.40 E314.34593
G0 F9000 X126.26 Y111.83
G1 F2100 X115.66 Y101.24 E314.94519
G0 F9000 X116.23 Y101.24
G1 F2100 X126.26 Y111.27 E315.51246
G0 F9000 X126.26 Y110.70
G1 F2100 X116.80 Y101.24 E316.04771
G0 F9000 X117.36 Y101.24
G1 F2100 X126.26 Y110.14 E316.55094
G0 F9000 X126.26 Y109.57
