;FLAVOR:UltiGCode
;TIME:16187
;MATERIAL:13115
;MATERIAL2:0

;Layer count: 109
;LAYER:0
M107
G0 F9000 X83.604 Y51.521 Z0.300
;TYPE:SKIRT
G1 F1200 X84.845 Y50.046 E0.23131
G1 X86.301 Y48.780 E0.46285
G1 X87.934 Y47.755 E0.69421
G1 X89.707 Y46.995 E0.92569
G1 X91.550 Y46.525 E1.15393
G1 X92.616 Y46.407 E1.28263
G1 X93.152 Y46.343 E1.34741
G1 X94.077 Y46.418 E1.45877
G1 X95.151 Y46.886 E1.59936
G1 X95.911 Y47.578 E1.72270
G1 X95.963 Y47.650 E1.73336
G1 X134.033 Y47.650 E6.30176
G1 X134.096 Y47.558 E6.31514
G1 X134.660 Y47.067 E6.40487
G1 X135.105 Y46.770 E6.46907
G1 X135.858 Y46.448 E6.56735
G1 X136.772 Y46.328 E6.67797
G1 X138.009 Y46.477 E6.82748
G1 X138.446 Y46.526 E6.88025
G1 X140.292 Y46.994 E7.10878
G1 X142.066 Y47.755 E7.34042
G1 X143.699 Y48.780 E7.57178
G1 X145.155 Y50.046 E7.80331
G1 X146.396 Y51.521 E8.03463
G1 X147.396 Y53.172 E8.26626
G1 X148.126 Y54.958 E8.49779
G1 X148.572 Y56.835 E8.72930
G1 X148.711 Y58.629 E8.94522
G1 X148.713 Y59.466 E9.04566
G1 X148.711 Y61.557 E9.29658
G1 X148.613 Y62.277 E9.38378
G1 X148.282 Y63.047 E9.48436
G1 X147.833 Y63.693 E9.57876
G1 X147.407 Y64.074 E9.64734
G1 X147.407 Y95.932 E13.47030
G1 X147.747 Y96.210 E13.52301
G1 X148.225 Y96.856 E13.61944
G1 X148.580 Y97.606 E13.71901
G1 X148.714 Y98.381 E13.81339
G1 X148.712 Y123.501 E16.82779
G1 X148.697 Y155.526 E20.67079
G1 X148.708 Y166.673 E22.00843
G1 X148.652 Y167.419 E22.09821
G1 X148.653 Y167.419 E22.09833
G1 X148.581 Y168.407 E22.21720
G1 X148.280 Y169.719 E22.37873
G1 X148.279 Y169.719 E22.37885
G1 X148.168 Y170.217 E22.44008
G1 X147.675 Y171.471 E22.60177
G1 X147.488 Y171.951 E22.66359
G1 X146.812 Y173.115 E22.82511
G1 X146.562 Y173.554 E22.88574
G1 X145.718 Y174.609 E23.04786
G1 X145.399 Y175.011 E23.10945
G1 X144.408 Y175.926 E23.27130
G1 X144.035 Y176.273 E23.33244
G1 X142.922 Y177.029 E23.49389
G1 X142.496 Y177.320 E23.55580
G1 X141.282 Y177.901 E23.71731
G1 X141.282 Y177.900 E23.71743
G1 X140.874 Y178.098 E23.77185
G1 X139.626 Y178.529 E23.93029
G1 X138.749 Y178.681 E24.03710
G1 X137.763 Y178.505 E24.15729
G1 X136.852 Y178.117 E24.27611
G1 X136.113 Y177.442 E24.39621
G1 X136.093 Y177.418 E24.39996
G1 X115.701 Y177.415 E26.84700
G1 X112.677 Y177.418 E27.20988
G1 X93.913 Y177.418 E29.46156
G1 X93.871 Y177.471 E29.46968
G1 X93.106 Y178.139 E29.59155
G1 X92.244 Y178.500 E29.70369
G1 X91.295 Y178.679 E29.81958
G1 X90.395 Y178.538 E29.92890
G1 X89.129 Y178.099 E30.08969
G1 X87.972 Y177.544 E30.24368
G1 X87.504 Y177.320 E30.30594
G1 X86.396 Y176.565 E30.46684
G1 X85.971 Y176.278 E30.52838
G1 X84.984 Y175.363 E30.68988
G1 X84.607 Y175.018 E30.75121
G1 X83.765 Y173.961 E30.91337
G1 X83.446 Y173.565 E30.97439
G1 X82.772 Y172.398 E31.13611
G1 X82.773 Y172.398 E31.13623
G1 X82.515 Y171.956 E31.19764
G1 X82.023 Y170.699 E31.35963
G1 X81.835 Y170.229 E31.42037
G1 X81.536 Y168.910 E31.58267
G1 X81.420 Y168.416 E31.64356
G1 X81.347 Y167.422 E31.76316
G1 X81.292 Y166.673 E31.85328
G1 X81.290 Y58.635 E44.81784
G1 X81.428 Y56.836 E45.03436
G1 X81.874 Y54.958 E45.26598
G1 X82.604 Y53.172 E45.49752
G1 X83.604 Y51.521 E45.72914
G10
G0 F9000 X86.702 Y53.741
;TYPE:WALL-INNER
G11
G1 F1200 X87.559 Y52.722 E45.88892
G1 X88.574 Y51.840 E46.05028
G1 X89.704 Y51.131 E46.21036
G1 X90.934 Y50.603 E46.37099
G1 X92.232 Y50.272 E46.53173
G1 X93.039 Y50.183 E46.62916
G1 X93.096 Y50.176 E46.63605
G1 X93.457 Y50.758 E46.71823
G1 X93.791 Y51.098 E46.77543
G1 X93.914 Y51.196 E46.79430
G1 X94.148 Y51.323 E46.82625
G1 X94.400 Y51.418 E46.85857
G1 X94.665 Y51.450 E46.89060
G1 X135.338 Y51.450 E51.77136
G1 X135.601 Y51.416 E51.80318
G1 X135.860 Y51.319 E51.83637
G1 X136.101 Y51.189 E51.86923
G1 X136.431 Y50.894 E51.92234
G1 X136.772 Y50.399 E51.99447
G1 X136.912 Y50.172 E52.02648
G1 X137.588 Y50.254 E52.10819
G1 X137.761 Y50.273 E52.12908
G1 X139.072 Y50.606 E52.29139
G1 X140.296 Y51.131 E52.45121
G1 X141.426 Y51.840 E52.61130
G1 X142.441 Y52.722 E52.77266
G1 X143.298 Y53.741 E52.93243
G1 X143.992 Y54.887 E53.09320
G1 X144.496 Y56.119 E53.25294
G1 X144.807 Y57.428 E53.41439
G1 X144.911 Y58.778 E53.57687
G1 X144.913 Y59.468 E53.65967
G1 X144.911 Y61.196 E53.86703
G1 X144.323 Y61.552 E53.94951
G1 X144.029 Y61.831 E53.99815
G1 X143.865 Y62.024 E54.02854
G1 X143.734 Y62.266 E54.06156
G1 X143.639 Y62.516 E54.09366
G1 X143.607 Y62.782 E54.12581
G1 X143.607 Y97.215 E58.25777
G1 X143.641 Y97.480 E58.28983
G1 X143.738 Y97.737 E58.32279
G1 X143.855 Y97.955 E58.35248
G1 X144.014 Y98.155 E58.38314
G1 X144.435 Y98.519 E58.44993
G1 X144.901 Y98.791 E58.51468
G1 X144.914 Y98.802 E58.51672
G1 X144.908 Y166.538 E66.64504
G1 X144.863 Y167.143 E66.71784
G1 X144.813 Y167.838 E66.80146
G1 X144.576 Y168.870 E66.92852
G1 X144.525 Y169.097 E66.95644
G1 X144.138 Y170.080 E67.08321
G1 X144.054 Y170.297 E67.11113
G1 X143.524 Y171.210 E67.23782
G1 X143.411 Y171.409 E67.26528
G1 X142.750 Y172.236 E67.39232
G1 X142.605 Y172.418 E67.42024
G1 X141.829 Y173.135 E67.54703
G1 X141.657 Y173.295 E67.57522
G1 X140.786 Y173.886 E67.70153
G1 X140.591 Y174.019 E67.72985
G1 X139.641 Y174.473 E67.85620
G1 X139.422 Y174.579 E67.88540
G1 X138.849 Y174.777 E67.95815
G1 X138.741 Y174.605 E67.98252
G1 X138.401 Y174.138 E68.05184
G1 X138.157 Y173.916 E68.09142
G1 X137.868 Y173.730 E68.13267
G1 X137.746 Y173.618 E68.15254
G1 X92.273 Y173.618 E73.60930
G1 X92.134 Y173.732 E73.63087
G1 X92.024 Y173.790 E73.64579
G1 X91.763 Y173.983 E73.68475
G1 X91.552 Y174.194 E73.72055
G1 X91.436 Y174.341 E73.74303
G1 X91.151 Y174.778 E73.80563
G1 X90.574 Y174.578 E73.87891
G1 X89.409 Y174.019 E74.03397
G1 X88.534 Y173.423 E74.16102
G1 X88.340 Y173.293 E74.18904
G1 X87.566 Y172.575 E74.31573
G1 X87.393 Y172.416 E74.34393
G1 X86.736 Y171.592 E74.47039
G1 X86.593 Y171.415 E74.49770
G1 X86.063 Y170.497 E74.62490
G1 X85.948 Y170.300 E74.65227
G1 X85.561 Y169.312 E74.77960
G1 X85.475 Y169.098 E74.80728
G1 X85.241 Y168.066 E74.93426
G1 X85.188 Y167.840 E74.96212
G1 X85.092 Y166.539 E75.11866
G1 X85.090 Y58.777 E88.05010
G1 X85.193 Y57.427 E88.21257
G1 X85.504 Y56.119 E88.37391
G1 X86.008 Y54.887 E88.53364
G1 X86.702 Y53.741 E88.69441
G0 F9000 X88.977 Y54.672
G1 F1200 X88.534 Y55.491 E88.80615
G1 X88.231 Y56.372 E88.91795
G1 X88.078 Y57.290 E89.02962
G1 X88.077 Y57.547 E89.06047
G1 X88.078 Y58.223 E89.14159
G1 X88.231 Y59.143 E89.25350
G1 X88.534 Y60.024 E89.36530
G1 X88.977 Y60.843 E89.47704
G1 X89.550 Y61.579 E89.58897
G1 X90.235 Y62.210 E89.70073
G1 X91.015 Y62.719 E89.81249
G1 X91.870 Y63.094 E89.92453
G1 X92.773 Y63.323 E90.03632
G1 X93.676 Y63.398 E90.14505
G1 X103.226 Y63.398 E91.29105
G1 X104.128 Y63.323 E91.39966
G1 X105.031 Y63.094 E91.51145
G1 X105.886 Y62.719 E91.62349
G1 X106.666 Y62.210 E91.73525
G1 X107.351 Y61.579 E91.84702
G1 X107.924 Y60.843 E91.95895
G1 X108.367 Y60.024 E92.07068
G1 X108.670 Y59.143 E92.18248
G1 X108.673 Y59.124 E92.18479
G1 X108.656 Y59.523 E92.23271
G1 X108.694 Y60.134 E92.30617
G1 X108.779 Y60.700 E92.37485
G1 X108.798 Y60.838 E92.39157
G1 X108.980 Y61.584 E92.48372
G1 X109.390 Y62.955 E92.65544
G1 X109.739 Y64.200 E92.81059
G1 X109.784 Y64.362 E92.83077
G1 X109.809 Y64.539 E92.85222
G1 X109.790 Y64.729 E92.87513
G1 X109.780 Y64.750 E92.87793
G1 X107.993 Y65.155 E93.09780
G1 X106.010 Y65.842 E93.34964
G1 X105.509 Y66.079 E93.41615
G1 X104.115 Y66.743 E93.60144
G1 X103.644 Y67.034 E93.66787
G1 X102.331 Y67.847 E93.85319
G1 X101.894 Y68.189 E93.91978
G1 X100.680 Y69.141 E94.10491
G1 X100.283 Y69.528 E94.17144
G1 X99.181 Y70.611 E94.35685
G1 X97.854 Y72.234 E94.60843
G1 X97.552 Y72.700 E94.67506
G1 X96.713 Y73.996 E94.86033
G1 X95.775 Y75.873 E95.11213
G1 X95.049 Y77.842 E95.36396
G1 X94.544 Y79.878 E95.61568
G1 X94.270 Y81.938 E95.86506
G1 X94.252 Y82.135 E95.88879
G1 X94.254 Y82.270 E95.90500
G1 X94.159 Y83.552 E96.05926
G1 X95.198 Y83.408 E96.18513
G1 X95.264 Y83.410 E96.19305
G1 X97.410 Y83.240 E96.45138
G1 X98.120 Y83.188 E96.53681
G1 X98.880 Y83.142 E96.62817
G1 X100.381 Y83.013 E96.80896
G1 X101.337 Y82.895 E96.92455
G1 X102.411 Y82.687 E97.05582
G1 X102.920 Y82.594 E97.11792
G1 X103.326 Y82.558 E97.16683
G1 X104.352 Y82.642 E97.29036
G1 X104.551 Y81.560 E97.42238
G1 X105.005 Y79.980 E97.61965
G1 X105.686 Y78.517 E97.81330
G1 X106.590 Y77.173 E98.00766
G1 X107.688 Y75.989 E98.20144
G1 X108.962 Y74.989 E98.39579
G1 X110.374 Y74.198 E98.59000
G1 X111.893 Y73.636 E98.78436
G1 X113.478 Y73.319 E98.97833
G1 X114.998 Y73.248 E99.16092
G1 X116.171 Y73.302 E99.30183
G1 X116.516 Y73.320 E99.34329
G1 X118.099 Y73.636 E99.53700
G1 X119.620 Y74.198 E99.73158
G1 X121.032 Y74.989 E99.92579
G1 X122.306 Y75.989 E100.12014
G1 X123.404 Y77.173 E100.31392
G1 X124.308 Y78.517 E100.50828
G1 X124.989 Y79.980 E100.70193
G1 X125.443 Y81.558 E100.89897
G1 X125.634 Y82.677 E101.03520
G1 X126.319 Y82.580 E101.11822
G1 X126.662 Y82.558 E101.15946
G1 X127.069 Y82.594 E101.20849
G1 X128.162 Y82.804 E101.34205
G1 X128.982 Y82.943 E101.44185
G1 X130.422 Y83.087 E101.61552
G1 X131.603 Y83.171 E101.75759
G1 X133.910 Y83.341 E102.03518
G1 X134.624 Y83.396 E102.12112
G1 X135.833 Y83.530 E102.26709
G1 X135.739 Y82.270 E102.41871
G1 X135.724 Y81.920 E102.46075
G1 X135.435 Y79.800 E102.71750
G1 X135.297 Y79.249 E102.78566
G1 X134.907 Y77.719 E102.97513
G1 X134.148 Y75.711 E103.23273
G1 X133.168 Y73.802 E103.49023
G1 X132.855 Y73.329 E103.55829
G1 X131.977 Y72.014 E103.74804
G1 X130.594 Y70.373 E104.00556
G1 X129.033 Y68.900 E104.26311
G1 X128.581 Y68.559 E104.33106
G1 X127.316 Y67.611 E104.52075
G1 X126.828 Y67.323 E104.58875
G1 X125.464 Y66.523 E104.77851
G1 X123.503 Y65.653 E105.03595
G1 X122.963 Y65.482 E105.10392
G1 X121.456 Y65.009 E105.29346
G1 X119.353 Y64.600 E105.55054
G1 X117.948 Y64.468 E105.71989
G1 X117.999 Y64.341 E105.73631
G1 X118.144 Y64.116 E105.76843
G1 X118.739 Y63.421 E105.87822
G1 X118.857 Y63.285 E105.89983
G1 X119.465 Y62.694 E106.00158
G1 X120.331 Y61.975 E106.13664
G1 X121.139 Y61.410 E106.25496
G1 X122.466 Y60.606 E106.44114
G1 X122.288 Y59.772 E106.54348
G1 X121.028 Y59.613 E106.69588
G1 X120.206 Y59.569 E106.79466
G1 X120.024 Y59.559 E106.81653
G1 X119.339 Y59.611 E106.89897
G1 X119.178 Y59.622 E106.91833
G1 X118.782 Y59.690 E106.96655
G1 X118.220 Y59.843 E107.03644
G1 X118.074 Y59.883 E107.05461
G1 X117.537 Y60.111 E107.12462
G1 X117.402 Y60.168 E107.14220
G1 X116.828 Y60.506 E107.22214
G1 X116.378 Y60.859 E107.29077
G1 X116.263 Y60.949 E107.30829
G1 X115.846 Y61.374 E107.37974
G1 X115.624 Y61.626 E107.42004
G1 X115.754 Y61.213 E107.47200
G1 X115.820 Y60.810 E107.52100
G1 X115.828 Y60.699 E107.53436
G1 X115.817 Y60.271 E107.58574
G1 X115.729 Y59.781 E107.64548
G1 X115.550 Y59.212 E107.71706
G1 X115.294 Y58.639 E107.79237
G1 X114.885 Y57.885 E107.89530
G1 X114.513 Y57.243 E107.98434
G1 X113.769 Y57.293 E108.07382
G1 X113.496 Y57.955 E108.15975
G1 X113.283 Y58.508 E108.23086
G1 X113.015 Y59.739 E108.38204
G1 X112.951 Y60.104 E108.42651
G1 X112.786 Y62.088 E108.66541
G1 X112.250 Y60.606 E108.85453
G1 X112.039 Y59.897 E108.94329
G1 X112.003 Y59.772 E108.95890
G1 X111.874 Y59.113 E109.03948
G1 X111.836 Y58.575 E109.10421
G1 X111.870 Y58.126 E109.15824
G1 X111.958 Y57.757 E109.20376
G1 X112.161 Y57.280 E109.26597
G1 X112.535 Y56.529 E109.36665
G1 X111.945 Y55.920 E109.46840
G1 X110.867 Y56.413 E109.61064
G1 X110.292 Y56.734 E109.68967
G1 X110.165 Y56.807 E109.70725
G1 X109.770 Y57.117 E109.76750
G1 X109.384 Y57.521 E109.83455
G1 X109.055 Y58.015 E109.90578
G1 X108.851 Y58.419 E109.96009
G1 X108.762 Y58.659 E109.99080
G1 X108.711 Y58.894 E110.01966
G1 X108.823 Y58.224 E110.10117
G1 X108.824 Y57.967 E110.13201
G1 X108.823 Y57.291 E110.21313
G1 X108.670 Y56.372 E110.32493
G1 X108.367 Y55.491 E110.43673
G1 X107.924 Y54.672 E110.54847
G1 X107.351 Y53.936 E110.66040
G1 X106.666 Y53.305 E110.77216
G1 X105.886 Y52.796 E110.88392
G1 X105.031 Y52.421 E110.99596
G1 X104.128 Y52.192 E111.10775
G1 X103.226 Y52.117 E111.21636
G1 X93.676 Y52.117 E112.36236
G1 X92.773 Y52.192 E112.47109
G1 X91.870 Y52.421 E112.58288
G1 X91.015 Y52.796 E112.69492
G1 X90.235 Y53.305 E112.80669
G1 X89.550 Y53.936 E112.91845
G1 X88.977 Y54.672 E113.03038
G0 F9000 X88.079 Y57.291
G0 X88.534 Y60.023
G0 X90.236 Y62.209
G0 X92.774 Y63.322
G0 X94.239 Y83.465
G0 X104.309 Y82.586
G0 X108.946 Y76.897
G1 F1200 X107.871 Y78.019 E113.21684
G1 X107.000 Y79.305 E113.40322
G1 X106.360 Y80.721 E113.58969
G1 X105.968 Y82.225 E113.77620
G1 X105.837 Y83.773 E113.96263
G1 X105.968 Y85.321 E114.14905
G1 X106.360 Y86.825 E114.33556
G1 X107.000 Y88.241 E114.52203
G1 X107.871 Y89.527 E114.70842
G1 X108.946 Y90.649 E114.89488
G1 X110.195 Y91.574 E115.08139
G1 X111.583 Y92.273 E115.26788
G1 X113.068 Y92.728 E115.45425
G1 X114.609 Y92.926 E115.64069
G1 X116.160 Y92.859 E115.82699
G1 X117.678 Y92.532 E116.01333
G1 X119.120 Y91.953 E116.19979
G1 X120.443 Y91.138 E116.38626
G1 X121.610 Y90.112 E116.57273
G1 X122.586 Y88.902 E116.75927
G1 X123.344 Y87.546 E116.94569
G1 X123.861 Y86.081 E117.13212
G1 X124.124 Y84.550 E117.31853
G1 X124.125 Y84.258 E117.35357
G1 X124.124 Y82.997 E117.50489
G1 X123.861 Y81.465 E117.69142
G1 X123.344 Y80.000 E117.87784
G1 X122.586 Y78.644 E118.06426
G1 X121.610 Y77.435 E118.25072
G1 X120.443 Y76.409 E118.43718
G1 X119.120 Y75.594 E118.62365
G1 X117.679 Y75.015 E118.81000
G1 X116.160 Y74.687 E118.99649
G1 X114.609 Y74.621 E119.18277
G1 X113.068 Y74.818 E119.36920
G1 X111.582 Y75.273 E119.55569
G1 X110.195 Y75.973 E119.74213
G1 X108.946 Y76.897 E119.92856
G0 F9000 X107.002 Y79.306
G0 X104.254 Y84.535
G1 F1200 X102.578 Y84.354 E120.13085
G1 X100.567 Y84.123 E120.37376
G1 X100.029 Y84.060 E120.43876
G1 X99.376 Y84.005 E120.51740
G1 X98.105 Y83.946 E120.67008
G1 X97.722 Y83.930 E120.71608
G1 X97.025 Y83.950 E120.79976
G1 X96.772 Y83.956 E120.83013
G1 X95.793 Y84.055 E120.94820
G1 X95.040 Y84.150 E121.03928
G1 X94.368 Y84.223 E121.12039
G1 X94.371 Y88.413 E121.62320
G1 X94.359 Y100.085 E123.02384
G1 X94.890 Y100.825 E123.13313
G1 X95.764 Y101.970 E123.30599
G1 X96.025 Y102.306 E123.35704
G1 X96.753 Y103.112 E123.48737
G1 X97.316 Y103.701 E123.58515
G1 X98.070 Y104.380 E123.70691
G1 X98.309 Y104.593 E123.74533
G1 X98.958 Y105.077 E123.84248
G1 X99.194 Y105.255 E123.87795
G1 X99.841 Y105.649 E123.96885
G1 X100.079 Y105.797 E124.00249
G1 X100.585 Y106.045 E124.07011
G1 X100.775 Y106.140 E124.09560
G1 X101.367 Y106.367 E124.17168
G1 X101.586 Y106.452 E124.19987
G1 X102.230 Y106.625 E124.27989
G1 X103.191 Y106.817 E124.39749
G1 X104.205 Y106.952 E124.52024
G1 X106.468 Y107.150 E124.79284
G1 X107.172 Y107.210 E124.87763
G1 X110.290 Y107.382 E125.25236
G1 X112.847 Y107.487 E125.55946
G1 X113.743 Y107.525 E125.66707
G1 X114.276 Y107.542 E125.73106
G1 X114.995 Y107.578 E125.81745
G1 X117.525 Y107.467 E126.12134
G1 X118.310 Y107.443 E126.21559
G1 X119.438 Y107.394 E126.35108
G1 X122.480 Y107.233 E126.71663
G1 X124.726 Y107.048 E126.98706
G1 X125.519 Y106.984 E127.08253
G1 X126.037 Y106.926 E127.14508
G1 X127.049 Y106.773 E127.26790
G1 X127.366 Y106.724 E127.30639
G1 X128.063 Y106.545 E127.39274
G1 X128.326 Y106.478 E127.42531
G1 X128.968 Y106.235 E127.50769
G1 X129.205 Y106.147 E127.53802
G1 X129.850 Y105.830 E127.62427
G1 X130.441 Y105.477 E127.70687
G1 X130.661 Y105.347 E127.73754
G1 X131.460 Y104.773 E127.85559
G1 X132.033 Y104.288 E127.94568
G1 X132.246 Y104.111 E127.97891
G1 X132.940 Y103.429 E128.09567
G1 X133.192 Y103.183 E128.13793
G1 X133.833 Y102.452 E128.25460
G1 X134.700 Y101.371 E128.42089
G1 X135.086 Y100.850 E128.49870
G1 X135.634 Y100.083 E128.61182
G1 X135.625 Y84.241 E130.51286
G1 X134.507 Y84.080 E130.64840
G1 X133.460 Y83.983 E130.77458
G1 X132.826 Y83.941 E130.85083
G1 X132.692 Y83.935 E130.86692
G1 X131.731 Y83.949 E130.98225
G1 X131.388 Y83.952 E131.02342
G1 X130.329 Y84.033 E131.15087
G1 X128.310 Y84.254 E131.39459
G1 X127.732 Y84.320 E131.46441
G1 X125.740 Y84.537 E131.70486
G1 X125.553 Y85.676 E131.84337
G1 X125.101 Y87.262 E132.04127
G1 X124.409 Y88.757 E132.23895
G1 X123.499 Y90.122 E132.43582
G1 X122.393 Y91.323 E132.63174
G1 X121.106 Y92.346 E132.82902
G1 X119.677 Y93.156 E133.02614
G1 X118.143 Y93.735 E133.22289
G1 X116.539 Y94.068 E133.41948
G1 X115.209 Y94.137 E133.57929
