;FLAVOR:UltiGCode
;TIME:2981
;MATERIAL:7007
;MATERIAL2:0

;Layer count: 209
;LAYER:0
M107
G0 F9000 X97.550 Y102.712 Z0.300
G0 X97.550 Y104.247
;TYPE:SKIRT
G1 F1800 X97.550 Y102.712 E0.23025
G1 X102.208 Y101.560 E0.95000
G1 X108.200 Y101.437 E1.84899
G1 X108.200 Y101.485 E1.85619
G1 X115.750 Y101.399 E2.98876
G1 X115.750 Y100.948 E3.05641
G1 X132.190 Y100.948 E5.52241
G1 X132.298 Y103.748 E5.94273
G1 X144.350 Y103.748 E7.75053
G1 X144.350 Y120.492 E10.26213
G1 X138.401 Y120.989 E11.15758
G1 X137.623 Y121.248 E11.28058
G1 X131.150 Y121.248 E12.25153
G1 X131.150 Y120.553 E12.35578
G1 X131.026 Y120.622 E12.37707
G1 X129.390 Y121.052 E12.63080
G1 X128.165 Y121.024 E12.81460
G1 X128.147 Y121.025 E12.81730
G1 X126.629 Y121.004 E13.04503
G1 X124.900 Y120.970 E13.30443
G1 X124.737 Y120.964 E13.32889
G1 X124.383 Y120.978 E13.38203
G1 X123.864 Y120.971 E13.45989
G1 X123.717 Y123.705 E13.87058
G1 X108.200 Y123.455 E16.19844
G1 X108.200 Y123.868 E16.26039
G1 X104.464 Y123.395 E16.82526
G1 X104.167 Y123.390 E16.86982
G1 X104.167 Y123.357 E16.87477
G1 X97.550 Y122.519 E17.87524
G1 X97.550 Y120.349 E18.20074
G1 X97.150 Y120.149 E18.26783
G1 X97.150 Y114.255 E19.15193
G1 X95.750 Y113.675 E19.37923
G1 X95.750 Y105.923 E20.54203
G1 X96.550 Y105.723 E20.66573
G1 X96.550 Y104.990 E20.77568
G1 X97.150 Y104.790 E20.87055
G1 X97.150 Y104.447 E20.92200
G1 X97.550 Y104.247 E20.98908
G0 F9000 X98.050 Y104.556
G1 F1800 X98.050 Y103.104 E21.20688
G1 X102.274 Y102.059 E21.85958
G1 X107.700 Y101.947 E22.67365
G1 X107.700 Y101.991 E22.68025
G1 X116.250 Y101.894 E23.96283
G1 X116.250 Y101.448 E24.02973
G1 X131.709 Y101.448 E26.34858
G1 X131.850 Y105.107 E26.89784
G1 X131.850 Y104.248 E27.02669
G1 X143.850 Y104.248 E28.82669
G1 X143.850 Y120.032 E31.19429
G1 X138.299 Y120.496 E32.02985
G1 X137.542 Y120.748 E32.14952
G1 X131.650 Y120.748 E33.03332
G1 X131.650 Y119.708 E33.18932
G1 X131.307 Y119.895 E33.24792
G1 X131.307 Y119.896 E33.24807
G1 X130.838 Y120.155 E33.32844
G1 X129.331 Y120.550 E33.56212
G1 X128.166 Y120.524 E33.73692
G1 X128.143 Y120.525 E33.74037
G1 X126.638 Y120.505 E33.96614
G1 X124.914 Y120.470 E34.22479
G1 X124.747 Y120.464 E34.24986
G1 X124.377 Y120.478 E34.30540
G1 X123.390 Y120.465 E34.45346
G1 X123.243 Y123.197 E34.86385
G1 X107.700 Y122.947 E37.19561
G1 X107.700 Y123.301 E37.24871
G1 X98.050 Y122.078 E38.70778
G1 X98.050 Y120.040 E39.01348
G1 X97.650 Y119.840 E39.08057
G1 X97.650 Y113.921 E39.96842
G1 X96.250 Y113.341 E40.19572
G1 X96.250 Y106.313 E41.24992
G1 X97.050 Y106.113 E41.37362
G1 X97.050 Y105.351 E41.48792
G1 X97.650 Y105.151 E41.58279
G1 X97.650 Y104.756 E41.64204
G1 X98.050 Y104.556 E41.70912
G10
G0 F9000 X103.354 Y111.134
;TYPE:WALL-INNER
G11
G1 F1800 X103.909 Y110.806 E41.80582
G1 X105.200 Y110.579 E42.00244
G1 X105.200 Y108.435 E42.32404
G1 X105.408 Y108.436 E42.35524
G1 X105.411 Y110.496 E42.66424
G1 X106.958 Y110.496 E42.89629
G1 X106.958 Y108.429 E43.20634
G1 X107.167 Y108.429 E43.23769
G1 X107.167 Y110.500 E43.54834
G1 X112.390 Y110.518 E44.33180
G1 X113.055 Y110.452 E44.43204
G1 X113.327 Y110.428 E44.47299
G1 X116.149 Y110.293 E44.89678
G1 X119.638 Y110.201 E45.42031
G1 X121.198 Y110.163 E45.65438
G1 X121.120 Y108.820 E45.85617
G1 X121.107 Y108.597 E45.88968
G1 X124.218 Y108.581 E46.35633
G1 X124.712 Y108.589 E46.43044
G1 X125.419 Y108.559 E46.53659
G1 X128.182 Y108.512 E46.95110
G1 X128.263 Y108.499 E46.96340
G1 X128.859 Y108.496 E47.05280
G1 X129.347 Y108.626 E47.12856
G1 X129.755 Y108.849 E47.19830
G1 X130.229 Y109.403 E47.30767
G1 X130.500 Y109.851 E47.38621
G1 X130.693 Y110.323 E47.46270
G1 X130.881 Y110.915 E47.55587
G1 X130.966 Y111.436 E47.63505
G1 X131.054 Y112.001 E47.72082
G1 X131.053 Y112.628 E47.81487
G1 X131.054 Y113.051 E47.87832
G1 X130.879 Y114.131 E48.04243
G1 X130.694 Y114.705 E48.13290
G1 X130.495 Y115.192 E48.21181
G1 X130.226 Y115.632 E48.28917
G1 X129.749 Y116.190 E48.39928
G1 X129.340 Y116.413 E48.46916
G1 X128.861 Y116.539 E48.54345
G1 X128.139 Y116.523 E48.65178
G1 X128.102 Y116.524 E48.65733
G1 X126.707 Y116.505 E48.86660
G1 X125.028 Y116.471 E49.11850
G1 X124.737 Y116.462 E49.16217
G1 X124.339 Y116.477 E49.22191
G1 X121.105 Y116.435 E49.70705
G1 X121.134 Y115.922 E49.78413
G1 X121.201 Y114.835 E49.94749
G1 X118.469 Y114.776 E50.35738
G1 X116.445 Y114.728 E50.66107
G1 X115.402 Y114.705 E50.81756
G1 X112.855 Y114.644 E51.19972
G1 X112.712 Y114.629 E51.22128
G1 X112.373 Y114.632 E51.27213
G1 X111.055 Y114.601 E51.46989
G1 X110.211 Y114.579 E51.59653
G1 X107.910 Y114.523 E51.94178
G1 X107.167 Y114.580 E52.05356
G1 X107.167 Y116.552 E52.34936
G1 X106.958 Y116.552 E52.38071
G1 X106.958 Y114.531 E52.68386
G1 X106.184 Y114.480 E52.80021
G1 X105.408 Y114.519 E52.91676
G1 X105.408 Y116.543 E53.22036
G1 X105.200 Y116.542 E53.25156
G1 X105.200 Y114.407 E53.57181
G1 X103.919 Y114.172 E53.76717
G1 X103.311 Y113.796 E53.87440
G1 X102.848 Y112.908 E54.02462
G1 X102.860 Y112.014 E54.15873
G1 X103.114 Y111.559 E54.23689
G1 X103.354 Y111.134 E54.31011
G0 F9000 X102.679 Y111.313
;TYPE:WALL-OUTER
G1 F1800 X102.980 Y110.781 E54.40179
G1 X103.015 Y110.754 E54.40842
G1 X103.734 Y110.328 E54.53378
G1 X104.700 Y110.159 E54.68088
G1 X104.700 Y107.935 E55.01448
G1 X105.908 Y107.935 E55.19568
G1 X105.910 Y109.996 E55.50483
G1 X106.458 Y109.996 E55.58703
G1 X106.458 Y107.930 E55.89693
G1 X107.667 Y107.930 E56.07828
G1 X107.667 Y110.002 E56.38908
G1 X112.366 Y110.018 E57.09394
G1 X113.015 Y109.954 E57.19176
G1 X113.290 Y109.930 E57.23317
G1 X116.142 Y109.793 E57.66146
G1 X120.669 Y109.675 E58.34074
G1 X120.590 Y108.330 E58.54284
G1 X120.578 Y108.100 E58.57738
G1 X124.224 Y108.081 E59.12429
G1 X124.705 Y108.089 E59.19645
G1 X125.417 Y108.059 E59.30335
G1 X128.138 Y108.013 E59.71156
G1 X128.225 Y107.999 E59.72477
G1 X128.922 Y107.996 E59.82932
G1 X129.536 Y108.159 E59.92461
G1 X130.045 Y108.438 E60.01168
G1 X130.086 Y108.467 E60.01921
G1 X130.433 Y108.875 E60.09956
G1 X130.636 Y109.109 E60.14602
G1 X130.947 Y109.624 E60.23627
G1 X131.165 Y110.155 E60.32237
G1 X131.367 Y110.792 E60.42261
G1 X131.552 Y111.948 E60.59821
G1 X131.554 Y113.088 E60.76921
G1 X131.467 Y113.617 E60.84963
G1 X131.367 Y114.246 E60.94516
G1 X131.162 Y114.884 E61.04568
G1 X130.944 Y115.415 E61.13178
G1 X130.632 Y115.927 E61.22172
G1 X130.109 Y116.538 E61.34236
G1 X130.079 Y116.573 E61.34927
G1 X129.615 Y116.832 E61.42898
G1 X129.527 Y116.880 E61.44402
G1 X128.917 Y117.040 E61.53861
G1 X128.142 Y117.023 E61.65489
G1 X128.108 Y117.024 E61.66000
G1 X126.697 Y117.005 E61.87166
G1 X125.011 Y116.971 E62.12462
G1 X124.738 Y116.962 E62.16559
G1 X124.331 Y116.977 E62.22668
G1 X120.657 Y116.929 E62.77783
G1 X120.577 Y116.928 E62.78983
G1 X120.635 Y115.891 E62.94562
G1 X120.670 Y115.324 E63.03083
G1 X112.828 Y115.143 E64.20745
G1 X112.688 Y115.129 E64.22855
G1 X112.366 Y115.132 E64.27685
G1 X107.923 Y115.024 E64.94350
G1 X107.667 Y115.043 E64.98200
G1 X107.667 Y117.053 E65.28350
G1 X106.458 Y117.053 E65.46485
G1 X106.458 Y114.999 E65.77295
G1 X106.180 Y114.981 E65.81474
G1 X105.908 Y114.994 E65.85559
G1 X105.908 Y117.042 E66.16279
G1 X104.700 Y117.043 E66.34399
G1 X104.700 Y114.824 E66.67684
G1 X103.737 Y114.647 E66.82371
G1 X102.984 Y114.182 E66.95646
G1 X102.912 Y114.113 E66.97142
G1 X102.365 Y113.062 E67.14914
G1 X102.347 Y113.007 E67.15782
G1 X102.362 Y111.896 E67.32449
G1 X102.365 Y111.875 E67.32767
G1 X102.679 Y111.313 E67.42423
G0 F9000 X103.354 Y111.486
;TYPE:SKIN
G1 F1800 X106.172 Y114.303 E68.02192
G0 F9000 X105.499 Y114.338
G1 F1800 X103.100 Y111.939 E68.53082
G0 F9000 X103.027 Y112.573
G1 F1800 X104.566 Y114.112 E68.85729
G0 F9000 X106.927 Y114.352
G1 F1800 X103.704 Y111.128 E69.54110
G0 F9000 X104.211 Y110.929
G1 F1800 X107.649 Y114.366 E70.27030
G0 F9000 X108.347 Y114.358
G1 F1800 X104.813 Y110.824 E71.01998
G0 F9000 X105.375 Y110.678
G1 F1800 X109.072 Y114.375 E71.80423
G0 F9000 X109.797 Y114.393
G1 F1800 X106.073 Y110.669 E72.59421
G0 F9000 X106.780 Y110.669
G1 F1800 X110.522 Y114.411 E73.38801
G0 F9000 X111.246 Y114.428
G1 F1800 X107.493 Y110.675 E74.18414
G0 F9000 X108.203 Y110.678
G1 F1800 X111.971 Y114.446 E74.98345
G0 F9000 X112.685 Y114.453
G1 F1800 X108.912 Y110.680 E75.78383
G0 F9000 X109.622 Y110.683
G1 F1800 X113.419 Y114.480 E76.58929
G0 F9000 X114.144 Y114.497
G1 F1800 X110.332 Y110.686 E77.39783
G0 F9000 X111.041 Y110.688
G1 F1800 X114.868 Y114.514 E78.20956
G0 F9000 X115.591 Y114.530
G1 F1800 X111.751 Y110.691 E79.02404
G0 F9000 X112.455 Y110.687
G1 F1800 X116.315 Y114.547 E79.84287
G0 F9000 X117.038 Y114.564
G1 F1800 X113.100 Y110.625 E80.67835
G0 F9000 X113.764 Y110.582
G1 F1800 X117.762 Y114.580 E81.52645
G0 F9000 X118.486 Y114.597
G1 F1800 X114.439 Y110.550 E82.38495
G0 F9000 X115.114 Y110.517
G1 F1800 X119.210 Y114.614 E83.25395
G0 F9000 X119.933 Y114.630
G1 F1800 X115.788 Y110.485 E84.13324
G0 F9000 X116.470 Y110.459
G1 F1800 X120.657 Y114.647 E85.02154
G0 F9000 X121.381 Y114.663
G1 F1800 X117.159 Y110.442 E85.91706
G0 F9000 X117.849 Y110.424
G1 F1800 X123.718 Y116.293 E87.16206
G0 F9000 X124.429 Y116.297
G1 F1800 X118.537 Y110.406 E88.41184
G0 F9000 X119.227 Y110.388
G1 F1800 X125.136 Y116.297 E89.66532
G0 F9000 X125.855 Y116.309
G1 F1800 X119.916 Y110.370 E90.92518
G0 F9000 X120.606 Y110.353
G1 F1800 X126.575 Y116.322 E92.19139
G0 F9000 X127.294 Y116.334
G1 F1800 X121.295 Y110.335 E93.46397
G0 F9000 X121.344 Y109.677
G1 F1800 X128.013 Y116.346 E94.87868
G0 F9000 X128.734 Y116.360
G1 F1800 X121.300 Y108.926 E96.45567
G0 F9000 X121.849 Y108.767
G1 F1800 X129.310 Y116.229 E98.03849
G0 F9000 X129.730 Y115.942
G1 F1800 X122.552 Y108.764 E99.56118
G0 F9000 X123.256 Y108.760
G1 F1800 X130.056 Y115.561 E101.00378
G0 F9000 X130.329 Y115.126
G1 F1800 X123.960 Y108.757 E102.35485
G0 F9000 X124.674 Y108.764
G1 F1800 X130.536 Y114.626 E103.59837
G0 F9000 X130.707 Y114.090
G1 F1800 X125.354 Y108.737 E104.73391
G0 F9000 X126.047 Y108.723
G1 F1800 X130.806 Y113.482 E105.74345
G0 F9000 X130.878 Y112.847
G1 F1800 X126.743 Y108.712 E106.62061
G0 F9000 X127.438 Y108.699
G1 F1800 X130.878 Y112.140 E107.35045
G0 F9000 X130.768 Y111.323
G1 F1800 X128.133 Y108.687 E107.90953
G0 F9000 X128.824 Y108.671
G1 F1800 X130.523 Y110.370 E108.26994
G0 F9000 X123.001 Y116.284
G1 F1800 X121.385 Y114.667 E108.61285
G0 F9000 X121.345 Y115.335
G1 F1800 X122.284 Y116.274 E108.81204
G0 F9000 X121.568 Y116.265
G1 F1800 X121.305 Y116.002 E108.86783
G10
G0 F9000 X120.463 Y108.323
;TYPE:SUPPORT
G11
G1 F1800 X107.791 Y108.323 E110.76863
G0 F9000 X108.717 Y108.323
G0 X108.627 Y108.955
G0 X108.322 Y109.877
G1 F1800 X108.322 Y104.408 E111.58898
G0 F9000 X107.791 Y104.990
G1 F1800 X120.287 Y104.990 E113.46338
G0 F9000 X119.369 Y105.121
G0 X118.332 Y105.220
G0 X118.321 Y104.294
G1 F1800 X118.321 Y109.610 E114.26078
G0 F9000 X118.298 Y108.685
G0 X114.945 Y108.799
G0 X114.988 Y109.723
G1 F1800 X114.988 Y104.332 E115.06943
G0 F9000 X114.999 Y105.259
G0 X111.665 Y105.297
G0 X111.655 Y104.370
G1 F1800 X111.655 Y109.890 E115.89743
G10
G0 F9000 X111.655 Y115.241
G11
G1 F1800 X111.655 Y120.586 E116.69918
G0 F9000 X111.669 Y119.662
G0 X115.003 Y119.716
G0 X114.988 Y120.639
G1 F1800 X114.988 Y115.321 E117.49688
G0 F9000 X114.967 Y116.245
G0 X118.300 Y116.322
G0 X118.321 Y115.398
G1 F1800 X118.321 Y120.693 E118.29113
G0 F9000 X118.337 Y119.769
G0 X108.628 Y119.614
G0 X108.322 Y120.532
G1 F1800 X108.322 Y115.153 E119.09798
G0 F9000 X108.645 Y116.087
G0 X108.717 Y118.322
G0 X107.791 Y118.322
G1 F1800 X120.375 Y118.322 E120.98558
G10
G0 F9000 X134.074 Y118.322
G11
G1 F1800 X137.147 Y118.322 E121.44653
G0 F9000 X138.319 Y118.061
G1 F1800 X138.319 Y112.873 E122.22473
G0 F9000 X138.319 Y113.798
G0 X135.069 Y114.044
G0 X134.986 Y113.123
G1 F1800 X134.986 Y118.323 E123.00473
G0 F9000 X134.986 Y117.398
G0 X135.000 Y114.989
G0 X134.074 Y114.989
G1 F1800 X141.424 Y114.989 E124.10723
G10
G0 F9000 X141.424 Y111.656
G11
G1 F1800 X134.274 Y111.656 E125.17973
G0 F9000 X134.986 Y111.723
G1 F1800 X134.986 Y106.673 E125.93723
G0 F9000 X135.110 Y107.598
G0 X135.200 Y108.323
G0 X134.274 Y108.323
G1 F1800 X141.424 Y108.323 E127.00973
G0 F9000 X140.500 Y108.323
G0 X138.319 Y107.598
G0 X138.319 Y106.673
G1 F1800 X138.319 Y111.723 E127.76723
;LAYER:1
M106 S127
G10
G0 F9000 X131.306 Y111.998 Z0.450
;TYPE:WALL-INNER
G11
G1 F2520 X131.307 Y113.049 E127.84606
G1 X131.171 Y113.874 E127.90877
G1 X131.135 Y114.109 E127.92660
G1 X130.873 Y114.925 E127.99088
G1 X130.781 Y115.210 E128.01334
G1 X130.736 Y115.305 E128.02122
G1 X130.221 Y116.150 E128.09544
G1 X129.815 Y116.528 E128.13704
G1 X129.341 Y116.786 E128.17752
G1 X128.856 Y116.914 E128.21514
G1 X125.393 Y116.862 E128.47489
G1 X122.432 Y116.825 E128.69699
G1 X121.084 Y116.806 E128.79810
G1 X121.163 Y115.388 E128.90461
G1 X117.589 Y115.306 E129.17273
G1 X117.283 Y115.299 E129.19569
G1 X116.641 Y115.258 E129.24394
G1 X114.464 Y115.229 E129.40723
G1 X114.100 Y115.221 E129.43453
G1 X113.439 Y115.158 E129.48433
G1 X112.932 Y115.162 E129.52236
G1 X111.258 Y115.151 E129.64791
G1 X107.167 Y115.051 E129.95483
G1 X107.167 Y116.959 E130.09793
G1 X106.958 Y116.959 E130.11360
G1 X106.958 Y115.060 E130.25603
G1 X105.415 Y114.993 E130.37186
G1 X105.408 Y116.792 E130.50679
G1 X105.408 Y116.948 E130.51849
G1 X105.200 Y116.949 E130.53409
G1 X105.200 Y115.035 E130.67764
G1 X103.841 Y114.870 E130.78031
G1 X103.692 Y114.809 E130.79239
G1 X103.295 Y114.565 E130.82734
G1 X102.710 Y114.009 E130.88787
G1 X102.641 Y113.907 E130.89710
G1 X102.350 Y113.046 E130.96527
G1 X102.330 Y112.944 E130.97306
G1 X102.341 Y111.934 E131.04882
G1 X102.681 Y110.989 E131.12414
G1 X102.699 Y110.963 E131.12651
G1 X103.278 Y110.438 E131.18513
G1 X103.861 Y110.091 E131.23601
G1 X104.464 Y110.019 E131.28156
G1 X105.200 Y109.940 E131.33708
G1 X105.200 Y108.030 E131.48033
G1 X105.408 Y108.029 E131.49593
G1 X105.408 Y109.966 E131.64120
G1 X106.958 Y109.935 E131.75747
G1 X106.958 Y108.030 E131.90035
G1 X107.167 Y108.031 E131.91602
G1 X107.167 Y109.944 E132.05950
G1 X108.771 Y109.896 E132.17985
G1 X113.193 Y109.778 E132.51162
G1 X121.166 Y109.601 E133.10974
G1 X121.089 Y108.301 E133.20741
G1 X121.085 Y108.221 E133.21342
G1 X123.808 Y108.182 E133.41767
G1 X124.215 Y108.181 E133.44819
G1 X125.535 Y108.184 E133.54719
G1 X128.184 Y108.137 E133.74590
G1 X128.264 Y108.124 E133.75198
G1 X128.860 Y108.122 E133.79668
G1 X129.347 Y108.251 E133.83446
G1 X129.824 Y108.512 E133.87524
G1 X130.157 Y108.806 E133.90856
G1 X130.227 Y108.888 E133.91665
G1 X130.740 Y109.732 E133.99072
G1 X131.136 Y110.931 E134.08542
G1 X131.306 Y111.998 E134.16646
G0 F9000 X131.806 Y111.956
;TYPE:WALL-OUTER
G1 F1920 X131.807 Y113.078 E134.25061
G1 X131.665 Y113.953 E134.31709
G1 X131.623 Y114.224 E134.33766
G1 X131.245 Y115.398 E134.43016
G1 X131.178 Y115.539 E134.44187
G1 X130.626 Y116.446 E134.52150
G1 X130.512 Y116.580 E134.53470
G1 X130.103 Y116.940 E134.57556
G1 X129.530 Y117.253 E134.62453
G1 X128.915 Y117.415 E134.67223
G1 X120.559 Y117.299 E135.29899
G1 X120.635 Y115.876 E135.40587
G1 X117.260 Y115.798 E135.65906
G1 X116.622 Y115.758 E135.70700
G1 X114.453 Y115.729 E135.86969
G1 X114.070 Y115.720 E135.89843
G1 X113.417 Y115.658 E135.94762
G1 X112.933 Y115.662 E135.98392
G1 X111.246 Y115.651 E136.11045
G1 X107.667 Y115.564 E136.37895
G1 X107.667 Y117.459 E136.52108
G1 X106.458 Y117.459 E136.61175
G1 X106.458 Y115.539 E136.75575
G1 X105.913 Y115.515 E136.79667
G1 X105.909 Y117.448 E136.94164
G1 X104.700 Y117.449 E137.03232
G1 X104.700 Y115.478 E137.18014
G1 X103.761 Y115.363 E137.25109
G1 X103.711 Y115.356 E137.25488
G1 X103.467 Y115.257 E137.27463
G1 X102.984 Y114.961 E137.31712
