;FLAVOR:UltiGCode
;TIME:5570
;MATERIAL:5583
;MATERIAL2:0

;Layer count: 153
;LAYER:0
M107
G0 F12000 X118.475 Y92.982 Z0.300
;TYPE:SKIRT
G1 F1200 X119.147 Y92.388 E0.10763
G1 X119.792 Y92.005 E0.19764
G1 X119.985 Y91.936 E0.22224
G1 X120.232 Y91.672 E0.26562
G1 X121.117 Y91.080 E0.39339
G1 X122.125 Y90.694 E0.52292
G1 X123.109 Y90.545 E0.64235
G1 X123.907 Y90.569 E0.73815
G1 X124.601 Y90.699 E0.82288
G1 X125.069 Y90.852 E0.88196
G1 X125.402 Y91.005 E0.92594
G1 X125.402 Y88.164 E1.26686
G1 X142.367 Y88.164 E3.30266
G1 X142.367 Y90.979 E3.64046
G1 X143.125 Y90.706 E3.73714
G1 X143.884 Y90.567 E3.82973
G1 X144.623 Y90.547 E3.91844
G1 X145.387 Y90.641 E4.01082
G1 X146.278 Y90.915 E4.12268
G1 X146.960 Y91.266 E4.21472
G1 X147.635 Y91.760 E4.31510
G1 X147.776 Y91.923 E4.34096
G1 X148.175 Y92.120 E4.39436
G1 X148.999 Y92.665 E4.51291
G1 X149.695 Y93.507 E4.64400
G1 X150.053 Y94.290 E4.74731
G1 X150.208 Y94.895 E4.82226
G1 X150.268 Y95.543 E4.90035
G1 X150.185 Y96.419 E5.00594
G1 X149.957 Y97.114 E5.09371
G1 X149.873 Y97.314 E5.11975
G1 X149.885 Y97.401 E5.13028
G1 X150.140 Y98.402 E5.25424
G1 X151.164 Y102.629 E5.77615
G1 X150.683 Y102.629 E5.83387
G1 X150.710 Y102.877 E5.86381
G1 X150.762 Y103.847 E5.98038
G1 X150.760 Y104.356 E6.04146
G1 X150.761 Y104.813 E6.09630
G1 X150.696 Y105.820 E6.21739
G1 X150.555 Y106.836 E6.34048
G1 X150.330 Y107.859 E6.46617
G1 X150.013 Y108.877 E6.59412
G1 X149.600 Y109.882 E6.72450
G1 X149.089 Y110.856 E6.85649
G1 X148.957 Y111.060 E6.88565
G1 X148.965 Y111.097 E6.89019
G1 X148.970 Y111.846 E6.98007
G1 X148.965 Y112.523 E7.06132
G1 X148.924 Y113.296 E7.15421
G1 X148.483 Y114.466 E7.30425
G1 X148.079 Y114.931 E7.37817
G1 X148.063 Y116.419 E7.55674
G1 X148.063 Y118.740 E7.83526
G1 X148.623 Y120.834 E8.09537
G1 X148.711 Y121.586 E8.18622
G1 X148.682 Y122.249 E8.26586
G1 X148.754 Y122.637 E8.31321
G1 X148.770 Y123.315 E8.39460
G1 X148.680 Y123.991 E8.47643
G1 X148.066 Y126.058 E8.73518
G1 X147.786 Y126.144 E8.77033
G1 X147.735 Y126.378 E8.79907
G1 X147.389 Y127.404 E8.92901
G1 X147.002 Y128.268 E9.04261
G1 X146.917 Y128.452 E9.06693
G1 X146.469 Y129.234 E9.17508
G1 X146.363 Y129.421 E9.20088
G1 X145.847 Y130.157 E9.30874
G1 X145.701 Y130.368 E9.33953
G1 X145.147 Y131.028 E9.44293
G1 X144.955 Y131.258 E9.47889
G1 X144.482 Y131.742 E9.56010
G1 X144.446 Y131.778 E9.56620
G1 X144.112 Y132.109 E9.62263
G1 X143.480 Y132.663 E9.72348
G1 X143.174 Y132.907 E9.77045
G1 X142.434 Y133.458 E9.88116
G1 X141.475 Y134.065 E10.01736
G1 X141.157 Y134.252 E10.06163
G1 X140.881 Y134.391 E10.09871
G1 X140.267 Y134.701 E10.18125
G1 X139.585 Y134.991 E10.27018
G1 X139.066 Y135.201 E10.33736
G1 X138.309 Y135.447 E10.43288
G1 X137.642 Y135.635 E10.51604
G1 X137.016 Y135.777 E10.59307
G1 X136.754 Y135.835 E10.62527
G1 X136.073 Y135.932 E10.70781
G1 X135.489 Y136.009 E10.77850
G1 X134.815 Y136.046 E10.85950
G1 X134.490 Y136.058 E10.89853
G1 X134.061 Y136.069 E10.95003
G1 X134.031 Y136.069 E10.95363
G1 X133.996 Y136.070 E10.95783
G1 X133.887 Y136.069 E10.97091
G1 X133.828 Y136.070 E10.97799
G1 X133.768 Y136.068 E10.98519
G1 X133.725 Y136.069 E10.99035
G1 X133.101 Y136.051 E11.06527
G1 X132.315 Y136.012 E11.15970
G1 X131.668 Y135.928 E11.23799
G1 X131.274 Y135.876 E11.28568
G1 X130.157 Y135.644 E11.42258
G1 X129.466 Y135.450 E11.50871
G1 X128.739 Y135.216 E11.60036
G1 X127.613 Y134.755 E11.74636
G1 X126.764 Y134.329 E11.86035
G1 X126.511 Y134.194 E11.89476
G1 X125.554 Y133.609 E12.02936
G1 X124.861 Y133.114 E12.13155
G1 X124.196 Y132.579 E12.23397
G1 X122.905 Y131.527 E12.43381
G1 X122.863 Y131.306 E12.46081
G1 X122.796 Y131.234 E12.47261
G1 X122.195 Y130.519 E12.58470
G1 X121.567 Y129.650 E12.71336
G1 X121.412 Y129.430 E12.74565
G1 X120.876 Y128.494 E12.87508
G1 X120.484 Y127.641 E12.98773
G1 X120.394 Y127.450 E13.01307
G1 X120.034 Y126.379 E13.14866
G1 X119.982 Y126.144 E13.17754
G1 X119.549 Y126.011 E13.23190
G1 X118.996 Y123.444 E13.54700
G1 X119.015 Y122.637 E13.64387
G1 X119.046 Y122.469 E13.66437
G1 X118.825 Y121.658 E13.76524
G1 X119.092 Y121.296 E13.81922
G1 X119.146 Y120.834 E13.87503
G1 X119.705 Y118.743 E14.13476
G1 X119.704 Y116.471 E14.40740
G1 X119.693 Y114.935 E14.59173
G1 X119.301 Y114.462 E14.66545
G1 X118.932 Y113.569 E14.78140
G1 X118.824 Y112.963 E14.85526
G1 X118.802 Y112.619 E14.89663
G1 X118.806 Y112.241 E14.94199
G1 X118.801 Y111.691 E15.00799
G1 X118.799 Y111.357 E15.04807
G1 X118.821 Y111.074 E15.08214
G1 X118.680 Y110.856 E15.11329
G1 X118.171 Y109.882 E15.24517
G1 X117.756 Y108.879 E15.37542
G1 X117.439 Y107.859 E15.50360
G1 X117.214 Y106.836 E15.62929
G1 X117.073 Y105.820 E15.75238
G1 X117.008 Y104.819 E15.87275
G1 X117.007 Y103.839 E15.99035
G1 X117.060 Y102.877 E16.10597
G1 X117.086 Y102.629 E16.13589
G1 X116.566 Y102.629 E16.19829
G1 X117.735 Y98.019 E16.76900
G1 X117.736 Y98.019 E16.76912
G1 X117.878 Y97.446 E16.83996
G1 X117.895 Y97.308 E16.85665
G1 X117.726 Y96.885 E16.91131
G1 X117.551 Y96.200 E16.99615
G1 X117.529 Y95.892 E17.03320
G1 X117.486 Y95.638 E17.06412
G1 X117.568 Y94.850 E17.15919
G1 X117.652 Y94.546 E17.19703
G1 X117.674 Y94.455 E17.20827
G1 X117.810 Y94.055 E17.25897
G1 X118.095 Y93.507 E17.33309
G1 X118.475 Y92.982 E17.41086
G0 F12000 X112.491 Y95.271
G1 F1200 X112.581 Y95.875 E17.48414
G1 X112.599 Y96.463 E17.55473
G1 X112.503 Y97.273 E17.65261
G1 X112.502 Y97.273 E17.65273
G1 X112.459 Y97.673 E17.70101
G1 X112.456 Y97.783 E17.71421
G1 X112.460 Y98.003 E17.74062
G1 X112.534 Y98.313 E17.77886
G1 X112.689 Y98.975 E17.86045
G1 X113.674 Y103.015 E18.35945
G1 X113.186 Y103.015 E18.41801
G1 X113.227 Y103.428 E18.46782
G1 X113.275 Y104.401 E18.58472
G1 X113.264 Y105.398 E18.70437
G1 X113.186 Y106.409 E18.82605
G1 X113.031 Y107.434 E18.95045
G1 X112.790 Y108.469 E19.07797
G1 X112.453 Y109.497 E19.20779
G1 X112.020 Y110.508 E19.33977
G1 X111.487 Y111.491 E19.47395
G1 X111.353 Y111.690 E19.50274
G1 X111.358 Y111.729 E19.50746
G1 X111.354 Y112.069 E19.54826
G1 X111.358 Y112.433 E19.59194
G1 X111.353 Y113.235 E19.68819
G1 X111.208 Y114.078 E19.79083
G1 X110.816 Y114.944 E19.90490
G1 X110.473 Y115.348 E19.96850
G1 X110.470 Y119.052 E20.41298
G1 X110.470 Y119.168 E20.42690
G1 X111.019 Y121.219 E20.68168
G1 X111.108 Y121.981 E20.77374
G1 X111.083 Y122.493 E20.83526
G1 X111.105 Y122.588 E20.84696
G1 X111.089 Y122.689 E20.85923
G1 X111.151 Y123.021 E20.89976
G1 X111.167 Y123.702 E20.98150
G1 X111.078 Y124.369 E21.06225
G1 X110.475 Y126.437 E21.32074
G1 X110.164 Y126.533 E21.35980
G1 X110.121 Y126.741 E21.38529
G1 X109.853 Y127.544 E21.48688
G1 X109.766 Y127.803 E21.51966
G1 X109.370 Y128.689 E21.63612
G1 X109.014 Y129.344 E21.72558
G1 X108.754 Y129.802 E21.78878
G1 X108.368 Y130.358 E21.87000
G1 X108.096 Y130.750 E21.92725
G1 X107.596 Y131.351 E22.02107
G1 X107.508 Y131.449 E22.03687
G1 X107.451 Y131.645 E22.06137
G1 X107.080 Y132.408 E22.16318
G1 X106.530 Y133.174 E22.27634
G1 X105.414 Y134.132 E22.45283
G1 X104.599 Y134.714 E22.57301
G1 X104.026 Y135.079 E22.65454
G1 X103.316 Y135.479 E22.75233
G1 X102.464 Y135.898 E22.86626
G1 X101.620 Y136.250 E22.97600
G1 X100.937 Y136.485 E23.06267
G1 X100.317 Y136.680 E23.14067
G1 X99.612 Y136.817 E23.22685
G1 X98.799 Y136.843 E23.32446
G1 X97.960 Y136.725 E23.42613
G1 X97.174 Y136.478 E23.52500
G1 X97.133 Y136.457 E23.53052
G1 X96.872 Y136.471 E23.56189
G1 X96.280 Y136.466 E23.63293
G1 X95.817 Y136.468 E23.68849
G1 X95.521 Y136.471 E23.72401
G1 X95.344 Y136.459 E23.74530
G1 X94.543 Y136.719 E23.84636
G1 X93.610 Y136.858 E23.95956
G1 X93.363 Y136.833 E23.98935
G1 X92.858 Y136.815 E24.04999
G1 X92.161 Y136.680 E24.13518
G1 X91.212 Y136.381 E24.25458
G1 X90.447 Y136.085 E24.35301
G1 X89.713 Y135.755 E24.44958
G1 X89.061 Y135.429 E24.53706
G1 X88.396 Y135.040 E24.62951
G1 X87.597 Y134.522 E24.74377
G1 X86.780 Y133.911 E24.86620
G1 X85.871 Y133.097 E25.01262
G1 X85.239 Y132.129 E25.15135
G1 X84.970 Y131.458 E25.23810
G1 X84.702 Y131.134 E25.28855
G1 X84.701 Y131.134 E25.28867
G1 X84.381 Y130.752 E25.34847
G1 X84.010 Y130.215 E25.42680
G1 X83.723 Y129.800 E25.48735
G1 X83.294 Y129.044 E25.59165
G1 X83.168 Y128.827 E25.62177
G1 X82.837 Y128.084 E25.71937
G1 X82.712 Y127.811 E25.75540
G1 X82.416 Y126.918 E25.86830
G1 X82.325 Y126.550 E25.91379
G1 X81.976 Y126.446 E25.95749
G1 X81.393 Y124.322 E26.22179
G1 X81.306 Y123.673 E26.30037
G1 X81.337 Y122.937 E26.38877
G1 X81.392 Y122.672 E26.42125
G1 X81.314 Y122.124 E26.48767
G1 X81.372 Y122.015 E26.50249
G1 X81.369 Y121.942 E26.51125
G1 X81.475 Y121.151 E26.60702
G1 X82.007 Y119.177 E26.85235
G1 X82.007 Y115.383 E27.30763
G1 X81.995 Y115.371 E27.30967
G1 X81.528 Y114.709 E27.40689
G1 X81.137 Y113.626 E27.54506
G1 X81.120 Y112.463 E27.68463
G1 X81.121 Y111.707 E27.77535
G1 X81.123 Y111.690 E27.77741
G1 X80.990 Y111.491 E27.80613
G1 X80.457 Y110.508 E27.94031
G1 X80.024 Y109.497 E28.07229
G1 X79.687 Y108.469 E28.20211
G1 X79.446 Y107.434 E28.32963
G1 X79.291 Y106.409 E28.45403
G1 X79.213 Y105.398 E28.57571
G1 X79.202 Y104.401 E28.69536
G1 X79.250 Y103.428 E28.81226
G1 X79.291 Y103.015 E28.86207
G1 X78.848 Y103.015 E28.91523
G1 X79.967 Y98.210 E29.50726
G1 X80.016 Y98.003 E29.53278
G1 X80.020 Y97.818 E29.55499
G1 X80.000 Y97.467 E29.59718
G1 X79.941 Y97.039 E29.64902
G1 X79.878 Y96.413 E29.72452
G1 X79.914 Y95.593 E29.82302
G1 X80.264 Y94.401 E29.97209
G1 X80.944 Y93.464 E30.11102
G1 X81.698 Y92.815 E30.23040
G1 X82.005 Y92.672 E30.27105
G1 X82.536 Y92.118 E30.36313
G1 X83.328 Y91.604 E30.47643
G1 X84.029 Y91.307 E30.56779
G1 X84.717 Y91.123 E30.65325
G1 X85.440 Y91.037 E30.74062
G1 X86.223 Y91.061 E30.83463
G1 X87.121 Y91.247 E30.94467
G1 X87.756 Y91.519 E31.02757
G1 X87.756 Y88.549 E31.38397
G1 X104.721 Y88.549 E33.41977
G1 X104.721 Y90.627 E33.66913
G1 X105.089 Y90.628 E33.71329
G1 X104.975 Y91.403 E33.80729
G1 X105.523 Y91.203 E33.87729
G1 X106.281 Y91.059 E33.96988
G1 X107.043 Y91.036 E34.06136
G1 X107.824 Y91.132 E34.15579
G1 X108.737 Y91.412 E34.27039
G1 X109.399 Y91.754 E34.35980
G1 X109.791 Y92.020 E34.41665
G1 X110.176 Y92.349 E34.47742
G1 X110.477 Y92.662 E34.52953
G1 X111.109 Y93.063 E34.61935
G1 X111.783 Y93.774 E34.73691
G1 X112.200 Y94.434 E34.83059
G1 X112.491 Y95.271 E34.93693
G10
G0 F12000 X108.792 Y96.297
;TYPE:WALL-INNER
G11
G1 F1200 X108.729 Y96.828 E35.00110
G1 X108.666 Y97.409 E35.07123
G1 X108.655 Y97.753 E35.11253
G1 X108.668 Y98.488 E35.20074
G1 X108.836 Y99.191 E35.28748
G1 X108.842 Y99.215 E35.29044
G1 X108.626 Y99.215 E35.31636
G1 X109.109 Y101.403 E35.58525
G1 X109.247 Y102.155 E35.67699
G1 X109.362 Y102.951 E35.77350
G1 X109.437 Y103.712 E35.86527
G1 X109.474 Y104.461 E35.95526
G1 X109.465 Y105.235 E36.04814
G1 X109.408 Y105.981 E36.13792
G1 X109.297 Y106.718 E36.22736
G1 X109.128 Y107.441 E36.31646
G1 X108.896 Y108.150 E36.40598
G1 X108.593 Y108.857 E36.49828
G1 X108.236 Y109.515 E36.58811
G1 X107.794 Y110.175 E36.68343
G1 X107.284 Y110.806 E36.78079
G1 X106.865 Y111.280 E36.85671
G1 X107.228 Y112.005 E36.95401
G1 X107.555 Y111.978 E36.99338
G1 X107.554 Y112.069 E37.00430
G1 X107.558 Y112.437 E37.04846
G1 X107.555 Y112.874 E37.10091
G1 X107.338 Y112.879 E37.12695
G1 X106.683 Y112.869 E37.20556
G1 X106.674 Y114.005 E37.34189
G1 X106.670 Y122.123 E38.31605
G1 X107.297 Y122.123 E38.39129
G1 X107.290 Y122.213 E38.40212
G1 X107.192 Y122.341 E38.42146
G1 X107.157 Y122.563 E38.44843
G1 X106.991 Y122.713 E38.47528
G1 X107.315 Y123.262 E38.55178
G1 X107.347 Y123.354 E38.56347
G1 X107.359 Y123.418 E38.57128
G1 X106.590 Y123.658 E38.66795
G1 X106.672 Y124.170 E38.73017
G1 X106.661 Y124.448 E38.76356
G1 X106.599 Y125.011 E38.83153
G1 X106.590 Y125.100 E38.84226
G1 X106.462 Y125.667 E38.91201
G1 X106.250 Y126.336 E38.99623
G1 X106.223 Y126.418 E39.00659
G1 X105.957 Y127.012 E39.08469
G1 X105.694 Y127.495 E39.15068
G1 X105.534 Y127.777 E39.18959
G1 X105.069 Y128.446 E39.28736
G1 X104.727 Y128.857 E39.35152
G1 X104.132 Y129.521 E39.45851
G1 X103.999 Y129.676 E39.48302
G1 X103.944 Y130.098 E39.53409
G1 X103.893 Y130.274 E39.55608
G1 X103.805 Y130.454 E39.58012
G1 X103.709 Y130.587 E39.59980
G1 X103.068 Y131.138 E39.70124
G1 X102.469 Y131.566 E39.78958
G1 X101.539 Y132.118 E39.91936
G1 X100.900 Y132.433 E40.00485
G1 X100.260 Y132.700 E40.08806
G1 X99.757 Y132.873 E40.15189
G1 X99.186 Y133.029 E40.22293
G1 X99.002 Y133.034 E40.24501
G1 X98.798 Y133.006 E40.26972
G1 X98.626 Y132.952 E40.29136
G1 X98.446 Y132.859 E40.31567
G1 X98.075 Y132.582 E40.37123
G1 X97.249 Y132.645 E40.47064
G1 X96.788 Y132.670 E40.52604
G1 X96.294 Y132.666 E40.58532
G1 X95.775 Y132.668 E40.64760
G1 X95.626 Y132.670 E40.66548
G1 X95.143 Y132.638 E40.72357
G1 X94.685 Y132.605 E40.77867
G1 X94.439 Y132.553 E40.80884
G1 X94.032 Y132.858 E40.86988
G1 X93.872 Y132.942 E40.89156
G1 X93.667 Y133.008 E40.91740
G1 X93.479 Y133.035 E40.94020
G1 X93.287 Y133.028 E40.96325
G1 X93.093 Y132.990 E40.98697
G1 X92.483 Y132.798 E41.06371
G1 X91.899 Y132.572 E41.13886
G1 X91.342 Y132.322 E41.21212
G1 X90.878 Y132.089 E41.27443
G1 X90.391 Y131.804 E41.34214
G1 X89.770 Y131.402 E41.43091
G1 X89.186 Y130.966 E41.51837
G1 X88.781 Y130.603 E41.58363
G1 X88.626 Y130.365 E41.61771
G1 X88.560 Y130.202 E41.63882
G1 X88.525 Y130.051 E41.65742
G1 X88.482 Y129.668 E41.70367
G1 X87.986 Y129.137 E41.79086
G1 X87.614 Y128.693 E41.86037
G1 X87.405 Y128.444 E41.89938
G1 X86.944 Y127.778 E41.99658
G1 X86.598 Y127.167 E42.08084
G1 X86.292 Y126.501 E42.16879
G1 X86.254 Y126.418 E42.17974
G1 X86.067 Y125.854 E42.25105
G1 X85.887 Y125.099 E42.34419
G1 X85.829 Y124.553 E42.41008
G1 X85.806 Y124.162 E42.45708
G1 X85.887 Y123.659 E42.51821
G1 X85.119 Y123.421 E42.61470
G1 X85.158 Y123.269 E42.63353
G1 X85.409 Y122.844 E42.69276
G1 X85.531 Y122.752 E42.71110
G1 X85.187 Y122.211 E42.78803
G1 X85.180 Y122.123 E42.79862
G1 X85.807 Y122.123 E42.87386
G1 X85.806 Y114.002 E43.84838
G1 X85.791 Y112.894 E43.98135
G1 X84.927 Y112.870 E44.08507
G1 X84.920 Y112.443 E44.13632
G1 X84.921 Y111.995 E44.19008
G1 X85.184 Y112.051 E44.22235
G1 X85.627 Y111.323 E44.32461
G1 X84.684 Y110.178 E44.50261
G1 X84.241 Y109.515 E44.59830
G1 X83.884 Y108.857 E44.68813
G1 X83.581 Y108.150 E44.78043
G1 X83.349 Y107.441 E44.86995
G1 X83.180 Y106.718 E44.95905
G1 X83.069 Y105.981 E45.04849
G1 X83.012 Y105.235 E45.13827
G1 X83.003 Y104.461 E45.23116
G1 X83.040 Y103.712 E45.32115
G1 X83.115 Y102.951 E45.41291
G1 X83.230 Y102.155 E45.50942
G1 X83.368 Y101.402 E45.60128
G1 X83.479 Y100.891 E45.66403
G1 X83.856 Y99.215 E45.87018
G1 X83.634 Y99.215 E45.89682
G1 X83.805 Y98.488 E45.98644
G1 X83.822 Y97.747 E46.07538
G1 X83.786 Y97.108 E46.15219
G1 X83.716 Y96.602 E46.21348
G1 X83.686 Y96.304 E46.24942
G1 X83.690 Y96.222 E46.25928
G1 X83.726 Y96.100 E46.27454
G1 X83.778 Y96.038 E46.28425
G1 X83.964 Y95.951 E46.30889
G1 X84.115 Y95.920 E46.32739
G1 X84.519 Y95.941 E46.37594
G1 X84.734 Y95.358 E46.45050
G1 X84.780 Y95.269 E46.46252
G1 X84.974 Y95.066 E46.49622
G1 X85.119 Y94.972 E46.51695
G1 X85.261 Y94.912 E46.53545
G1 X85.436 Y94.865 E46.55720
G1 X85.608 Y94.844 E46.57799
G1 X85.776 Y94.849 E46.59816
G1 X85.981 Y94.892 E46.62330
G1 X86.154 Y94.967 E46.64592
G1 X86.253 Y95.062 E46.66239
G1 X86.273 Y95.090 E46.66652
G1 X86.295 Y95.144 E46.67351
G1 X86.296 Y95.176 E46.67736
G1 X86.225 Y95.731 E46.74450
G1 X86.663 Y95.993 E46.80574
G1 X86.763 Y96.088 E46.82230
G1 X86.835 Y96.194 E46.83767
G1 X86.867 Y96.273 E46.84790
G1 X86.892 Y96.387 E46.86191
G1 X86.897 Y96.452 E46.86973
G1 X86.895 Y96.535 E46.87969
G1 X86.824 Y96.858 E46.91938
G1 X86.682 Y97.151 E46.95845
G1 X86.351 Y97.630 E47.02832
G1 X85.842 Y98.272 E47.12663
G1 X86.219 Y99.750 E47.30967
G1 X87.193 Y99.019 E47.45581
G1 X87.692 Y98.690 E47.52753
G1 X88.142 Y98.446 E47.58896
G1 X88.809 Y98.141 E47.67697
G1 X89.644 Y97.829 E47.78394
G1 X90.268 Y97.105 E47.89863
G1 X90.606 Y96.644 E47.96723
G1 X90.906 Y96.190 E48.03253
G1 X91.177 Y95.666 E48.10332
G1 X91.284 Y95.376 E48.14041
G1 X91.359 Y95.070 E48.17822
G1 X91.362 Y95.030 E48.18303
G1 X91.373 Y94.984 E48.18871
G1 X91.397 Y94.667 E48.22686
G1 X91.393 Y94.612 E48.23347
G1 X91.394 Y94.566 E48.23900
G1 X91.388 Y94.506 E48.24623
G1 X91.464 Y94.454 E48.25728
G1 X91.887 Y94.451 E48.30804
