;FLAVOR:UltiGCode
;TIME:9578
;MATERIAL:7669
;MATERIAL2:0

;Layer count: 38
;LAYER:0
M107
G0 F9000 X48.611 Y95.484 Z0.300
;TYPE:SKIRT
G1 F1200 X49.454 Y95.111 E0.11062
G1 X50.314 Y94.813 E0.21984
G1 X51.181 Y94.588 E0.32733
G1 X52.042 Y94.430 E0.43237
G1 X52.891 Y94.336 E0.53487
G1 X53.756 Y94.300 E0.63876
G1 X176.232 Y94.300 E15.33588
G1 X177.003 Y94.327 E15.42846
G1 X177.755 Y94.402 E15.51915
G1 X178.602 Y94.541 E15.62215
G1 X179.468 Y94.750 E15.72905
G1 X180.330 Y95.029 E15.83777
G1 X181.181 Y95.383 E15.94838
G1 X182.004 Y95.813 E16.05981
G1 X182.786 Y96.318 E16.17151
G1 X183.401 Y96.807 E16.26580
G1 X183.607 Y96.974 E16.29762
G1 X184.197 Y97.570 E16.39826
G1 X184.661 Y98.139 E16.48636
G1 X184.833 Y98.354 E16.51940
G1 X185.322 Y99.142 E16.63069
G1 X185.701 Y99.965 E16.73942
G1 X185.970 Y100.807 E16.84549
G1 X186.146 Y101.752 E16.96084
G1 X186.175 Y117.497 E18.85024
G1 X186.175 Y122.600 E19.46260
G1 X186.129 Y123.344 E19.55205
G1 X185.970 Y124.193 E19.65570
G1 X185.701 Y125.035 E19.76178
G1 X185.322 Y125.858 E19.87050
G1 X184.838 Y126.638 E19.98066
G1 X184.266 Y127.362 E20.09138
G1 X183.674 Y127.958 E20.19219
G1 X183.079 Y128.456 E20.28530
G1 X182.882 Y128.616 E20.31575
G1 X182.187 Y129.076 E20.41576
G1 X181.389 Y129.516 E20.52512
G1 X180.546 Y129.889 E20.63574
G1 X179.686 Y130.187 E20.74496
G1 X178.819 Y130.412 E20.85244
G1 X177.958 Y130.570 E20.95749
G1 X177.109 Y130.664 E21.05999
G1 X176.244 Y130.700 E21.16388
G1 X53.768 Y130.700 E35.86100
G1 X52.997 Y130.673 E35.95358
G1 X52.245 Y130.598 E36.04427
G1 X51.398 Y130.459 E36.14726
G1 X50.532 Y130.250 E36.25417
G1 X49.670 Y129.971 E36.36289
G1 X48.819 Y129.617 E36.47349
G1 X47.996 Y129.187 E36.58492
G1 X47.214 Y128.682 E36.69663
G1 X46.599 Y128.193 E36.79091
G1 X46.393 Y128.026 E36.82274
G1 X45.803 Y127.430 E36.92337
G1 X45.339 Y126.861 E37.01148
G1 X45.167 Y126.646 E37.04452
G1 X44.678 Y125.858 E37.15581
G1 X44.299 Y125.035 E37.26453
G1 X44.030 Y124.193 E37.37061
G1 X43.854 Y123.248 E37.48596
G1 X43.825 Y107.503 E39.37536
G1 X43.825 Y102.400 E39.98772
G1 X43.871 Y101.656 E40.07717
G1 X44.030 Y100.807 E40.18082
G1 X44.299 Y99.965 E40.28689
G1 X44.678 Y99.142 E40.39562
G1 X45.162 Y98.362 E40.50578
G1 X45.734 Y97.638 E40.61650
G1 X46.326 Y97.042 E40.71730
G1 X46.921 Y96.544 E40.81041
G1 X47.118 Y96.384 E40.84087
G1 X47.813 Y95.924 E40.94088
G1 X48.611 Y95.484 E41.05023
G10
G0 F9000 X50.296 Y98.893
;TYPE:WALL-INNER
G11
G1 F1200 X50.843 Y98.652 E41.12196
G1 X51.417 Y98.453 E41.19486
G1 X52.009 Y98.299 E41.26827
G1 X52.595 Y98.191 E41.33977
G1 X53.180 Y98.127 E41.41039
G1 X53.824 Y98.100 E41.48774
G1 X176.156 Y98.100 E56.16758
G1 X176.753 Y98.121 E56.23926
G1 X177.258 Y98.171 E56.30016
G1 X177.853 Y98.269 E56.37252
G1 X178.429 Y98.408 E56.44363
G1 X179.017 Y98.598 E56.51778
G1 X179.563 Y98.825 E56.58873
G1 X180.094 Y99.103 E56.66066
G1 X180.565 Y99.407 E56.72793
G1 X181.017 Y99.766 E56.79720
G1 X181.367 Y100.112 E56.85625
G1 X181.702 Y100.524 E56.91998
G1 X181.968 Y100.944 E56.97963
G1 X182.153 Y101.346 E57.03274
G1 X182.277 Y101.734 E57.08162
G1 X182.347 Y102.108 E57.12728
G1 X182.375 Y117.500 E58.97432
G1 X182.375 Y122.479 E59.57180
G1 X182.350 Y122.875 E59.61941
G1 X182.277 Y123.266 E59.66714
G1 X182.153 Y123.654 E59.71602
G1 X181.968 Y124.056 E59.76913
G1 X181.724 Y124.449 E59.82464
G1 X181.414 Y124.841 E59.88461
G1 X181.103 Y125.155 E59.93764
G1 X180.664 Y125.522 E60.00631
G1 X180.626 Y125.553 E60.01219
G1 X180.219 Y125.823 E60.07080
G1 X179.704 Y126.107 E60.14138
G1 X179.157 Y126.348 E60.21310
G1 X178.583 Y126.547 E60.28601
G1 X177.991 Y126.701 E60.35941
G1 X177.405 Y126.809 E60.43091
G1 X176.820 Y126.873 E60.50153
G1 X176.176 Y126.900 E60.57888
G1 X53.844 Y126.900 E75.25872
G1 X53.247 Y126.879 E75.33041
G1 X52.742 Y126.829 E75.39130
G1 X52.147 Y126.731 E75.46366
G1 X51.571 Y126.592 E75.53477
G1 X50.983 Y126.402 E75.60892
G1 X50.437 Y126.175 E75.67988
G1 X49.906 Y125.897 E75.75180
G1 X49.435 Y125.593 E75.81907
G1 X48.977 Y125.229 E75.88928
G1 X48.947 Y125.204 E75.89396
G1 X48.633 Y124.888 E75.94742
G1 X48.298 Y124.476 E76.01114
G1 X48.032 Y124.056 E76.07080
G1 X47.847 Y123.654 E76.12390
G1 X47.723 Y123.266 E76.17278
G1 X47.653 Y122.892 E76.21844
G1 X47.625 Y107.500 E78.06548
G1 X47.625 Y102.521 E78.66296
G1 X47.650 Y102.125 E78.71058
G1 X47.723 Y101.734 E78.75831
G1 X47.847 Y101.346 E78.80719
G1 X48.032 Y100.944 E78.86029
G1 X48.276 Y100.551 E78.91580
G1 X48.586 Y100.159 E78.97577
G1 X48.897 Y99.845 E79.02881
G1 X49.336 Y99.478 E79.09747
G1 X49.374 Y99.447 E79.10336
G1 X49.781 Y99.177 E79.16197
G1 X50.296 Y98.893 E79.23254
G0 F9000 X50.120 Y98.534
;TYPE:WALL-OUTER
G1 F1200 X50.699 Y98.279 E79.30846
G1 X51.299 Y98.070 E79.38470
G1 X51.917 Y97.909 E79.46134
G1 X52.536 Y97.796 E79.53685
G1 X53.149 Y97.729 E79.61084
G1 X53.831 Y97.700 E79.69276
G1 X176.170 Y97.700 E94.37344
G1 X176.776 Y97.721 E94.44620
G1 X177.315 Y97.775 E94.51120
G1 X177.928 Y97.876 E94.58576
G1 X178.543 Y98.024 E94.66166
G1 X179.144 Y98.218 E94.73745
G1 X179.741 Y98.467 E94.81507
G1 X180.292 Y98.755 E94.88968
G1 X180.799 Y99.082 E94.96207
G1 X181.272 Y99.458 E95.03458
G1 X181.318 Y99.495 E95.04167
G1 X181.669 Y99.849 E95.10149
G1 X182.015 Y100.274 E95.16725
G1 X182.052 Y100.320 E95.17434
G1 X182.319 Y100.750 E95.23507
G1 X182.528 Y101.204 E95.29505
G1 X182.665 Y101.633 E95.34909
G1 X182.747 Y102.072 E95.40268
G1 X182.775 Y122.488 E97.85260
G1 X182.748 Y122.924 E97.90502
G1 X182.665 Y123.367 E97.95911
G1 X182.528 Y123.796 E98.01315
G1 X182.319 Y124.250 E98.07313
G1 X182.052 Y124.679 E98.13376
G1 X181.717 Y125.103 E98.19861
G1 X181.367 Y125.456 E98.25826
G1 X180.917 Y125.832 E98.32863
G1 X180.867 Y125.872 E98.33631
G1 X180.425 Y126.165 E98.39995
G1 X179.880 Y126.466 E98.47466
G1 X179.301 Y126.721 E98.55058
G1 X178.701 Y126.930 E98.62682
G1 X178.083 Y127.091 E98.70346
G1 X177.464 Y127.204 E98.77896
G1 X176.851 Y127.271 E98.85296
G1 X176.169 Y127.300 E98.93488
G1 X53.830 Y127.300 E113.61556
G1 X53.224 Y127.279 E113.68832
G1 X52.685 Y127.225 E113.75332
G1 X52.072 Y127.124 E113.82788
G1 X51.457 Y126.976 E113.90378
G1 X50.854 Y126.781 E113.97983
G1 X50.259 Y126.533 E114.05719
G1 X49.708 Y126.245 E114.13179
G1 X49.201 Y125.918 E114.20419
G1 X48.728 Y125.542 E114.27670
G1 X48.682 Y125.505 E114.28378
G1 X48.331 Y125.151 E114.34361
G1 X47.984 Y124.725 E114.40954
G1 X47.681 Y124.250 E114.47715
G1 X47.472 Y123.796 E114.53712
G1 X47.335 Y123.367 E114.59116
G1 X47.253 Y122.928 E114.64476
G1 X47.225 Y102.512 E117.09468
G1 X47.252 Y102.076 E117.14710
G1 X47.335 Y101.633 E117.20118
G1 X47.472 Y101.204 E117.25522
G1 X47.681 Y100.750 E117.31520
G1 X47.948 Y100.321 E117.37584
G1 X48.283 Y99.897 E117.44068
G1 X48.635 Y99.542 E117.50067
G1 X49.083 Y99.168 E117.57070
G1 X49.133 Y99.128 E117.57839
G1 X49.575 Y98.835 E117.64202
G1 X50.120 Y98.534 E117.71673
G0 F9000 X50.183 Y99.115
;TYPE:SKIN
G1 F900 X77.827 Y126.759 E122.40808
G0 F9000 X77.262 Y126.759
G1 F900 X49.822 Y99.319 E127.06480
G0 F9000 X49.481 Y99.544
G1 F900 X76.696 Y126.759 E131.68334
G0 F9000 X76.130 Y126.759
G1 F900 X49.170 Y99.798 E136.25869
G0 F9000 X50.562 Y98.928
G1 F900 X78.393 Y126.759 E140.98176
G0 F9000 X78.959 Y126.759
G1 F900 X50.959 Y98.759 E145.73352
G0 F9000 X51.379 Y98.614
G1 F900 X79.524 Y126.759 E150.50989
G0 F9000 X75.564 Y126.759
G1 F900 X48.872 Y100.066 E155.03975
G0 F9000 X48.602 Y100.362
G1 F900 X74.999 Y126.759 E159.51947
G0 F9000 X74.433 Y126.759
G1 F900 X48.357 Y100.683 E163.94472
G0 F9000 X48.143 Y101.034
G1 F900 X73.867 Y126.759 E168.31031
G0 F9000 X73.302 Y126.759
G1 F900 X47.968 Y101.425 E172.60963
G0 F9000 X47.841 Y101.864
G1 F900 X72.736 Y126.759 E176.83445
G0 F9000 X72.170 Y126.759
G1 F900 X47.774 Y102.363 E180.97459
G0 F9000 X47.765 Y102.919
G1 F900 X71.605 Y126.759 E185.02037
G0 F9000 X71.039 Y126.759
G1 F900 X47.765 Y103.485 E188.97010
G0 F9000 X47.766 Y104.052
G1 F900 X70.473 Y126.759 E192.82361
G0 F9000 X69.908 Y126.759
G1 F900 X47.767 Y104.619 E196.58098
G0 F9000 X47.768 Y105.185
G1 F900 X69.342 Y126.759 E200.24220
G0 F9000 X68.776 Y126.759
G1 F900 X47.769 Y105.752 E203.80721
G0 F9000 X47.770 Y106.318
G1 F900 X68.211 Y126.759 E207.27616
G0 F9000 X67.645 Y126.759
G1 F900 X47.770 Y106.884 E210.64906
G0 F9000 X47.771 Y107.451
G1 F900 X67.079 Y126.759 E213.92574
G0 F9000 X66.513 Y126.759
G1 F900 X47.772 Y108.017 E217.10628
G0 F9000 X47.772 Y108.584
G1 F900 X65.948 Y126.759 E220.19076
G0 F9000 X65.382 Y126.759
G1 F900 X47.773 Y109.150 E223.17911
G0 F9000 X47.774 Y109.716
G1 F900 X64.816 Y126.759 E226.07132
G0 F9000 X64.251 Y126.759
G1 F900 X47.774 Y110.283 E228.86747
G0 F9000 X47.775 Y110.849
G1 F900 X63.685 Y126.759 E231.56749
G0 F9000 X63.119 Y126.759
G1 F900 X47.777 Y111.416 E234.17120
G0 F9000 X47.777 Y111.983
G1 F900 X62.554 Y126.759 E236.67885
G0 F9000 X61.988 Y126.759
G1 F900 X47.778 Y112.549 E239.09037
G0 F9000 X47.779 Y113.115
G1 F900 X61.422 Y126.759 E241.40575
G0 F9000 X60.857 Y126.759
G1 F900 X47.779 Y113.682 E243.62507
G0 F9000 X47.780 Y114.248
G1 F900 X60.291 Y126.759 E245.74826
G0 F9000 X59.725 Y126.759
G1 F900 X47.781 Y114.815 E247.77522
G0 F9000 X47.782 Y115.381
G1 F900 X59.160 Y126.759 E249.70613
G0 F9000 X58.594 Y126.759
G1 F900 X47.782 Y115.947 E251.54099
G0 F9000 X47.783 Y116.514
G1 F900 X58.028 Y126.759 E253.27963
G0 F9000 X57.463 Y126.759
G1 F900 X47.784 Y117.080 E254.92221
G0 F9000 X47.784 Y117.647
G1 F900 X56.897 Y126.759 E256.46865
G0 F9000 X56.331 Y126.759
G1 F900 X47.786 Y118.214 E257.91878
G0 F9000 X47.786 Y118.780
G1 F900 X55.765 Y126.759 E259.27286
G0 F9000 X55.200 Y126.759
G1 F900 X47.787 Y119.346 E260.53089
G0 F9000 X47.788 Y119.913
G1 F900 X54.634 Y126.759 E261.69270
G0 F9000 X54.068 Y126.759
G1 F900 X47.789 Y120.479 E262.75836
G0 F9000 X47.789 Y121.046
G1 F900 X53.489 Y126.746 E263.72569
G0 F9000 X52.879 Y126.701
G1 F900 X47.790 Y121.612 E264.58932
G0 F9000 X47.791 Y122.178
G1 F900 X52.212 Y126.599 E265.33959
G0 F9000 X51.452 Y126.405
G1 F900 X47.791 Y122.745 E265.96079
G0 F9000 X47.928 Y123.447
G1 F900 X50.549 Y126.068 E266.40559
G0 F9000 X51.822 Y98.491
G1 F900 X80.090 Y126.759 E271.20283
G0 F9000 X80.656 Y126.759
G1 F900 X52.286 Y98.389 E276.01738
G0 F9000 X52.774 Y98.311
G1 F900 X81.221 Y126.759 E280.84508
G0 F9000 X81.787 Y126.759
G1 F900 X53.290 Y98.262 E285.68118
G0 F9000 X53.833 Y98.239
G1 F900 X82.353 Y126.759 E290.52119
G0 F9000 X82.918 Y126.759
G1 F900 X54.399 Y98.239 E295.36111
G0 F9000 X54.964 Y98.239
G1 F900 X83.484 Y126.759 E300.20111
G0 F9000 X84.050 Y126.759
G1 F900 X55.530 Y98.239 E305.04111
G0 F9000 X56.096 Y98.239
G1 F900 X84.615 Y126.759 E309.88103
G0 F9000 X85.181 Y126.759
G1 F900 X56.661 Y98.239 E314.72104
G0 F9000 X57.227 Y98.239
G1 F900 X85.747 Y126.759 E319.56104
G0 F9000 X86.312 Y126.759
G1 F900 X57.793 Y98.239 E324.40096
G0 F9000 X58.358 Y98.239
G1 F900 X86.878 Y126.759 E329.24097
G0 F9000 X87.444 Y126.759
G1 F900 X58.924 Y98.239 E334.08097
G0 F9000 X59.490 Y98.239
G1 F900 X88.010 Y126.759 E338.92098
G0 F9000 X88.575 Y126.759
G1 F900 X60.055 Y98.239 E343.76098
G0 F9000 X60.621 Y98.239
G1 F900 X89.141 Y126.759 E348.60099
G0 F9000 X89.707 Y126.759
G1 F900 X61.187 Y98.239 E353.44099
G0 F9000 X61.753 Y98.239
G1 F900 X90.272 Y126.759 E358.28091
G0 F9000 X90.838 Y126.759
G1 F900 X62.318 Y98.239 E363.12091
G0 F9000 X62.884 Y98.239
G1 F900 X91.404 Y126.759 E367.96092
G0 F9000 X91.969 Y126.759
G1 F900 X63.450 Y98.239 E372.80084
G0 F9000 X64.015 Y98.239
G1 F900 X92.535 Y126.759 E377.64084
G0 F9000 X93.101 Y126.759
G1 F900 X64.581 Y98.239 E382.48085
G0 F9000 X65.147 Y98.239
G1 F900 X93.666 Y126.759 E387.32077
G0 F9000 X94.232 Y126.759
G1 F900 X65.712 Y98.239 E392.16077
G0 F9000 X66.278 Y98.239
G1 F900 X94.798 Y126.759 E397.00078
G0 F9000 X95.363 Y126.759
G1 F900 X66.844 Y98.239 E401.84070
G0 F9000 X67.409 Y98.239
G1 F900 X95.929 Y126.759 E406.68070
G0 F9000 X96.495 Y126.759
G1 F900 X67.975 Y98.239 E411.52070
G0 F9000 X68.541 Y98.239
G1 F900 X97.061 Y126.759 E416.36071
G0 F9000 X97.626 Y126.759
G1 F900 X69.106 Y98.239 E421.20071
G0 F9000 X69.672 Y98.239
G1 F900 X98.192 Y126.759 E426.04072
G0 F9000 X98.758 Y126.759
G1 F900 X70.238 Y98.239 E430.88072
G0 F9000 X70.804 Y98.239
G1 F900 X99.323 Y126.759 E435.72064
G0 F9000 X99.889 Y126.759
G1 F900 X71.369 Y98.239 E440.56065
G0 F9000 X71.935 Y98.239
G1 F900 X100.455 Y126.759 E445.40065
G0 F9000 X101.020 Y126.759
G1 F900 X72.501 Y98.239 E450.24057
G0 F9000 X73.066 Y98.239
G1 F900 X101.586 Y126.759 E455.08058
G0 F9000 X102.152 Y126.759
G1 F900 X73.632 Y98.239 E459.92058
G0 F9000 X74.198 Y98.239
G1 F900 X102.717 Y126.759 E464.76050
G0 F9000 X103.283 Y126.759
G1 F900 X74.763 Y98.239 E469.60050
G0 F9000 X75.329 Y98.239
G1 F900 X103.849 Y126.759 E474.44051
G0 F9000 X104.414 Y126.759
G1 F900 X75.895 Y98.239 E479.28043
G0 F9000 X76.460 Y98.239
G1 F900 X104.980 Y126.759 E484.12043
G0 F9000 X105.546 Y126.759
G1 F900 X77.026 Y98.239 E488.96044
G0 F9000 X77.592 Y98.239
G1 F900 X106.111 Y126.759 E493.80036
G0 F9000 X106.677 Y126.759
G1 F900 X78.157 Y98.239 E498.64036
G0 F9000 X78.723 Y98.239
G1 F900 X107.243 Y126.759 E503.48037
G0 F9000 X107.809 Y126.759
G1 F900 X79.289 Y98.239 E508.32037
G0 F9000 X79.854 Y98.239
G1 F900 X108.374 Y126.759 E513.16037
G0 F9000 X108.940 Y126.759
G1 F900 X80.420 Y98.239 E518.00038
G0 F9000 X80.986 Y98.239
G1 F900 X109.506 Y126.759 E522.84038
G0 F9000 X110.071 Y126.759
G1 F900 X81.552 Y98.239 E527.68030
G0 F9000 X82.117 Y98.239
G1 F900 X110.637 Y126.759 E532.52031
G0 F9000 X111.203 Y126.759
G1 F900 X82.683 Y98.239 E537.36031
G0 F9000 X83.249 Y98.239
G1 F900 X111.768 Y126.759 E542.20023
G0 F9000 X112.334 Y126.759
G1 F900 X83.814 Y98.239 E547.04024
G0 F9000 X84.380 Y98.239
G1 F900 X112.900 Y126.759 E551.88024
G0 F9000 X113.465 Y126.759
G1 F900 X84.946 Y98.239 E556.72016
G0 F9000 X85.511 Y98.239
G1 F900 X114.031 Y126.759 E561.56017
G0 F9000 X114.597 Y126.759
G1 F900 X86.077 Y98.239 E566.40017
G0 F9000 X86.643 Y98.239
G1 F900 X115.162 Y126.759 E571.24009
G0 F9000 X115.728 Y126.759
G1 F900 X87.208 Y98.239 E576.08009
G0 F9000 X87.774 Y98.239
G1 F900 X116.294 Y126.759 E580.92010
G0 F9000 X116.860 Y126.759
G1 F900 X88.340 Y98.239 E585.76010
G0 F9000 X88.905 Y98.239
G1 F900 X117.425 Y126.759 E590.60011
G0 F9000 X117.991 Y126.759
G1 F900 X89.471 Y98.239 E595.44011
G0 F9000 X90.037 Y98.239
G1 F900 X118.557 Y126.759 E600.28012
G0 F9000 X119.122 Y126.759
G1 F900 X90.603 Y98.239 E605.12004
G0 F9000 X91.168 Y98.239
G1 F900 X119.688 Y126.759 E609.96004
G0 F9000 X120.254 Y126.759
G1 F900 X91.734 Y98.239 E614.80005
G0 F9000 X92.300 Y98.239
G1 F900 X120.819 Y126.759 E619.63996
G0 F9000 X121.385 Y126.759
G1 F900 X92.865 Y98.239 E624.47997
G0 F9000 X93.431 Y98.239
G1 F900 X121.951 Y126.759 E629.31997
G0 F9000 X122.516 Y126.759
G1 F900 X93.997 Y98.239 E634.15989
G0 F9000 X94.562 Y98.239
G1 F900 X123.082 Y126.759 E638.99990
G0 F9000 X123.648 Y126.759
G1 F900 X95.128 Y98.239 E643.83990
G0 F9000 X95.694 Y98.239
G1 F900 X124.213 Y126.759 E648.67982
G0 F9000 X124.779 Y126.759
G1 F900 X96.259 Y98.239 E653.51983
G0 F9000 X96.825 Y98.239
G1 F900 X125.345 Y126.759 E658.35983
G0 F9000 X125.910 Y126.759
G1 F900 X97.391 Y98.239 E663.19975
G0 F9000 X97.956 Y98.239
G1 F900 X126.476 Y126.759 E668.03976
G0 F9000 X127.042 Y126.759
G1 F900 X98.522 Y98.239 E672.87976
G0 F9000 X99.088 Y98.239
G1 F900 X127.608 Y126.759 E677.71976
G0 F9000 X128.173 Y126.759
G1 F900 X99.653 Y98.239 E682.55977
G0 F9000 X100.219 Y98.239
G1 F900 X128.739 Y126.759 E687.39977
G0 F9000 X129.305 Y126.759
G1 F900 X100.785 Y98.239 E692.23978
G0 F9000 X101.351 Y98.239
G1 F900 X129.870 Y126.759 E697.07970
G0 F9000 X130.436 Y126.759
G1 F900 X101.916 Y98.239 E701.91970
G0 F9000 X102.482 Y98.239
G1 F900 X131.002 Y126.759 E706.75971
G0 F9000 X131.567 Y126.759
G1 F900 X103.048 Y98.239 E711.59963
G0 F9000 X103.613 Y98.239
G1 F900 X132.133 Y126.759 E716.43963
G0 F9000 X132.699 Y126.759
G1 F900 X104.179 Y98.239 E721.27963
G0 F9000 X104.745 Y98.239
G1 F900 X133.264 Y126.759 E726.11955
G0 F9000 X133.830 Y126.759
G1 F900 X105.310 Y98.239 E730.95956
G0 F9000 X105.876 Y98.239
G1 F900 X134.396 Y126.759 E735.79956
G0 F9000 X134.961 Y126.759
G1 F900 X106.442 Y98.239 E740.63948
