;FLAVOR:UltiGCode
;TIME:773
;MATERIAL:1857
;MATERIAL2:0

;Layer count: 32
;LAYER:0
M107
G0 F9000 X100.712 Y98.380 Z0.300
;TYPE:SKIRT
G1 F1800 X107.643 Y98.382 E1.03965
G1 X107.971 Y98.381 E1.08885
G1 X109.318 Y98.382 E1.29090
G1 X109.467 Y98.381 E1.31325
G1 X119.508 Y98.382 E2.81940
G1 X120.520 Y98.381 E2.97120
G1 X121.863 Y98.382 E3.17265
G1 X122.012 Y98.381 E3.19500
G1 X125.205 Y98.382 E3.67395
G1 X129.287 Y98.369 E4.28625
G1 X129.287 Y121.076 E7.69230
G1 X129.295 Y125.331 E8.33056
G1 X124.270 Y125.333 E9.08431
G1 X105.354 Y125.333 E11.92171
G1 X100.712 Y125.328 E12.61801
G1 X100.712 Y98.380 E16.66021
G0 F9000 X101.212 Y98.880
G1 F1800 X107.645 Y98.882 E17.62516
G1 X107.971 Y98.881 E17.67406
G1 X109.321 Y98.882 E17.87656
G1 X109.468 Y98.881 E17.89861
G1 X119.509 Y98.882 E19.40476
G1 X120.520 Y98.881 E19.55641
G1 X121.866 Y98.882 E19.75831
G1 X122.014 Y98.881 E19.78051
G1 X125.207 Y98.882 E20.25946
G1 X128.787 Y98.871 E20.79646
G1 X128.787 Y121.076 E24.12721
G1 X128.794 Y124.831 E24.69046
G1 X123.770 Y124.833 E25.44406
G1 X105.354 Y124.833 E28.20646
G1 X101.212 Y124.828 E28.82776
G1 X101.212 Y98.880 E32.71996
G10
G0 F9000 X105.212 Y102.881
;TYPE:WALL-INNER
G11
G1 F1800 X107.655 Y102.882 E33.08641
G1 X107.976 Y102.881 E33.13456
G1 X109.344 Y102.882 E33.33976
G1 X109.485 Y102.881 E33.36091
G1 X121.890 Y102.882 E35.22166
G1 X122.030 Y102.881 E35.24266
G1 X124.787 Y102.882 E35.65621
G1 X124.787 Y120.832 E38.34871
G1 X122.920 Y120.833 E38.62876
G1 X122.775 Y120.833 E38.65051
G1 X122.775 Y109.518 E40.34776
G1 X119.770 Y109.518 E40.79851
G1 X119.770 Y120.833 E42.49576
G1 X110.230 Y120.832 E43.92676
G1 X110.230 Y109.518 E45.62386
G1 X107.225 Y109.518 E46.07461
G1 X107.225 Y120.833 E47.77186
G1 X105.212 Y120.832 E48.07381
G1 X105.212 Y102.881 E50.76646
G0 F9000 X104.712 Y102.381
;TYPE:WALL-OUTER
G1 F1800 X109.343 Y102.382 E51.46111
G1 X109.482 Y102.381 E51.48196
G1 X121.888 Y102.382 E53.34286
G1 X125.287 Y102.381 E53.85271
G1 X125.288 Y121.332 E56.69536
G1 X122.275 Y121.332 E57.14731
G1 X122.275 Y110.018 E58.84441
G1 X120.270 Y110.018 E59.14516
G1 X120.270 Y121.333 E60.84241
G1 X109.730 Y121.332 E62.42341
G1 X109.730 Y110.018 E64.12051
G1 X107.725 Y110.018 E64.42126
G1 X107.725 Y121.333 E66.11851
G1 X104.712 Y121.332 E66.57046
G1 X104.712 Y102.381 E69.41311
G0 F9000 X105.531 Y103.056
;TYPE:SKIN
G1 F1800 X119.595 Y117.120 E72.39654
G0 F9000 X119.595 Y117.827
G1 F1800 X105.386 Y103.618 E75.41072
G0 F9000 X105.386 Y104.325
G1 F1800 X119.595 Y118.534 E78.42491
G0 F9000 X119.595 Y119.241
G1 F1800 X110.404 Y110.050 E80.37461
G0 F9000 X110.404 Y110.757
G1 F1800 X119.595 Y119.948 E82.32432
G0 F9000 X119.595 Y120.655
G1 F1800 X110.404 Y111.464 E84.27402
G0 F9000 X110.404 Y112.171
G1 F1800 X118.888 Y120.656 E86.07386
G0 F9000 X118.181 Y120.656
G1 F1800 X110.404 Y112.878 E87.72371
G0 F9000 X110.404 Y113.586
G1 F1800 X117.474 Y120.656 E89.22349
G0 F9000 X116.767 Y120.656
G1 F1800 X110.404 Y114.293 E90.57328
G0 F9000 X110.404 Y115.000
G1 F1800 X116.060 Y120.656 E91.77310
G0 F9000 X115.353 Y120.656
G1 F1800 X110.404 Y115.707 E92.82294
G0 F9000 X110.404 Y116.414
G1 F1800 X114.646 Y120.656 E93.72281
G0 F9000 X113.938 Y120.656
G1 F1800 X110.404 Y117.121 E94.47259
G0 F9000 X110.404 Y117.828
G1 F1800 X113.231 Y120.656 E95.07239
G0 F9000 X112.524 Y120.656
G1 F1800 X110.404 Y118.535 E95.52222
G0 F9000 X110.404 Y119.242
G1 F1800 X111.817 Y120.656 E95.82207
G0 F9000 X111.110 Y120.656
G1 F1800 X110.404 Y119.950 E95.97183
G0 F9000 X110.121 Y109.627
G0 X107.334 Y109.627
G0 X107.049 Y120.131
G1 F1800 X105.386 Y118.467 E96.32471
G0 F9000 X105.386 Y117.760
G1 F1800 X107.049 Y119.423 E96.67749
G0 F9000 X107.049 Y118.716
G1 F1800 X105.386 Y117.053 E97.03027
G0 F9000 X105.386 Y116.346
G1 F1800 X107.049 Y118.009 E97.38304
G0 F9000 X107.049 Y117.302
G1 F1800 X105.386 Y115.639 E97.73582
G0 F9000 X105.386 Y114.932
G1 F1800 X107.049 Y116.595 E98.08859
G0 F9000 X107.049 Y115.888
G1 F1800 X105.386 Y114.225 E98.44137
G0 F9000 X105.386 Y113.518
G1 F1800 X107.049 Y115.181 E98.79414
G0 F9000 X107.049 Y114.474
G1 F1800 X105.386 Y112.811 E99.14692
G0 F9000 X105.386 Y112.104
G1 F1800 X107.049 Y113.767 E99.49969
G0 F9000 X107.049 Y113.060
G1 F1800 X105.386 Y111.396 E99.85258
G0 F9000 X105.386 Y110.689
G1 F1800 X107.049 Y112.352 E100.20535
G0 F9000 X107.049 Y111.645
G1 F1800 X105.386 Y109.982 E100.55813
G0 F9000 X105.386 Y109.275
G1 F1800 X107.049 Y110.938 E100.91090
G0 F9000 X107.049 Y110.231
G1 F1800 X105.386 Y108.568 E101.26368
G0 F9000 X105.386 Y107.861
G1 F1800 X107.049 Y109.524 E101.61645
G0 F9000 X107.574 Y109.342
G1 F1800 X105.386 Y107.154 E102.08060
G0 F9000 X105.386 Y106.447
G1 F1800 X108.281 Y109.342 E102.69472
G0 F9000 X108.989 Y109.342
G1 F1800 X105.386 Y105.740 E103.45893
G0 F9000 X105.386 Y105.032
G1 F1800 X109.696 Y109.342 E104.37322
G0 F9000 X109.774 Y103.056
G1 F1800 X119.595 Y112.877 E106.45656
G0 F9000 X119.595 Y113.584
G1 F1800 X109.066 Y103.056 E108.69000
G0 F9000 X108.359 Y103.056
G1 F1800 X119.595 Y114.291 E111.07341
G0 F9000 X119.595 Y114.998
G1 F1800 X107.652 Y103.056 E113.60679
G0 F9000 X106.945 Y103.056
G1 F1800 X119.595 Y115.706 E116.29026
G0 F9000 X119.595 Y116.413
G1 F1800 X106.238 Y103.056 E119.12371
G0 F9000 X110.481 Y103.056
G1 F1800 X119.595 Y112.170 E121.05708
G0 F9000 X119.595 Y111.463
G1 F1800 X111.188 Y103.056 E122.84048
G0 F9000 X111.895 Y103.056
G1 F1800 X119.595 Y110.756 E124.47389
G0 F9000 X119.595 Y110.049
G1 F1800 X112.602 Y103.056 E125.95733
G0 F9000 X113.309 Y103.056
G1 F1800 X119.595 Y109.342 E127.29079
G0 F9000 X120.302 Y109.342
G1 F1800 X114.016 Y103.056 E128.62426
G0 F9000 X114.723 Y103.056
G1 F1800 X121.010 Y109.342 E129.95782
G0 F9000 X121.717 Y109.342
G1 F1800 X115.431 Y103.057 E131.29118
G0 F9000 X116.138 Y103.057
G1 F1800 X122.424 Y109.342 E132.62454
G0 F9000 X122.948 Y109.867
G1 F1800 X124.611 Y111.529 E132.97721
G0 F9000 X124.611 Y112.236
G1 F1800 X122.948 Y110.574 E133.32987
G0 F9000 X122.948 Y111.281
G1 F1800 X124.611 Y112.944 E133.68265
G0 F9000 X124.611 Y113.651
G1 F1800 X122.948 Y111.988 E134.03543
G0 F9000 X122.948 Y112.695
G1 F1800 X124.611 Y114.358 E134.38820
G0 F9000 X124.611 Y115.065
G1 F1800 X122.948 Y113.402 E134.74098
G0 F9000 X122.948 Y114.110
G1 F1800 X124.611 Y115.772 E135.09365
G0 F9000 X124.611 Y116.479
G1 F1800 X122.948 Y114.817 E135.44632
G0 F9000 X122.948 Y115.524
G1 F1800 X124.611 Y117.186 E135.79899
G0 F9000 X124.611 Y117.893
G1 F1800 X122.948 Y116.231 E136.15166
G0 F9000 X122.948 Y116.938
G1 F1800 X124.611 Y118.600 E136.50432
G0 F9000 X124.611 Y119.308
G1 F1800 X122.948 Y117.645 E136.85710
G0 F9000 X122.948 Y118.352
G1 F1800 X124.611 Y120.015 E137.20988
G0 F9000 X124.546 Y120.657
G1 F1800 X122.948 Y119.059 E137.54886
G0 F9000 X122.948 Y119.766
G1 F1800 X123.839 Y120.657 E137.73787
G0 F9000 X123.132 Y120.657
G1 F1800 X122.948 Y120.474 E137.77680
G0 F9000 X124.611 Y110.822
G1 F1800 X116.845 Y103.057 E139.42411
G0 F9000 X117.552 Y103.057
G1 F1800 X124.611 Y110.115 E140.92144
G0 F9000 X124.611 Y109.408
G1 F1800 X118.260 Y103.057 E142.26869
G0 F9000 X118.967 Y103.057
G1 F1800 X124.611 Y108.701 E143.46597
G0 F9000 X124.611 Y107.994
G1 F1800 X119.674 Y103.057 E144.51326
G0 F9000 X107.334 Y109.627
G0 X105.386 Y119.175
G1 F1800 X106.867 Y120.656 E144.82743
G0 F9000 X106.160 Y120.656
G1 F1800 X105.386 Y119.882 E144.99162
G0 F9000 X107.334 Y109.627
G0 X110.121 Y109.627
G0 X120.381 Y103.057
G1 F1800 X124.611 Y107.287 E145.88894
G0 F9000 X124.611 Y106.580
G1 F1800 X121.088 Y103.057 E146.63628
G0 F9000 X121.795 Y103.057
G1 F1800 X124.611 Y105.872 E147.23354
G0 F9000 X124.611 Y105.165
G1 F1800 X122.502 Y103.057 E147.68082
G0 F9000 X123.209 Y103.057
G1 F1800 X124.611 Y104.458 E147.97812
G0 F9000 X124.611 Y103.751
G1 F1800 X123.916 Y103.057 E148.12545
;LAYER:1
M106 S127
G0 F9000 X122.028 Y102.981 Z0.450
;TYPE:WALL-INNER
G1 F2520 X124.787 Y102.982 E148.33237
G1 X124.787 Y121.113 E149.69220
G1 X122.775 Y121.112 E149.84310
G1 X122.775 Y109.518 E150.71265
G1 X119.770 Y109.518 E150.93802
G1 X119.770 Y121.113 E151.80765
G1 X110.230 Y121.112 E152.52315
G1 X110.230 Y109.518 E153.39270
G1 X107.225 Y109.518 E153.61807
G1 X107.225 Y121.113 E154.48770
G1 X105.212 Y121.112 E154.63867
G1 X105.212 Y102.981 E155.99850
G1 X107.441 Y102.982 E156.16567
G1 X107.975 Y102.981 E156.20572
G1 X109.252 Y102.982 E156.30150
G1 X109.483 Y102.981 E156.31882
G1 X121.798 Y102.982 E157.24245
G1 X122.028 Y102.981 E157.25970
G0 F9000 X121.797 Y102.482
;TYPE:WALL-OUTER
G1 F1920 X125.287 Y102.481 E157.52145
G1 X125.288 Y121.613 E158.95635
G1 X122.275 Y121.612 E159.18232
G1 X122.275 Y110.018 E160.05187
G1 X120.270 Y110.018 E160.20225
G1 X120.270 Y121.613 E161.07187
G1 X109.730 Y121.612 E161.86237
G1 X109.730 Y110.018 E162.73192
G1 X107.725 Y110.018 E162.88230
G1 X107.725 Y121.613 E163.75192
G1 X104.712 Y121.612 E163.97790
G1 X104.712 Y102.481 E165.41272
G1 X109.252 Y102.482 E165.75322
G1 X109.481 Y102.481 E165.77040
G1 X121.797 Y102.482 E166.69410
G0 F9000 X122.056 Y103.156
;TYPE:SKIN
G1 F1740 X110.404 Y114.808 E167.92998
G0 F9000 X110.404 Y115.515
G1 F1740 X122.763 Y103.156 E169.24085
G0 F9000 X123.470 Y103.156
G1 F1740 X110.404 Y116.222 E170.62671
G0 F9000 X110.404 Y116.930
G1 F1740 X124.177 Y103.156 E172.08761
G0 F9000 X124.611 Y103.430
G1 F1740 X110.404 Y117.637 E173.59449
G0 F9000 X110.404 Y118.344
G1 F1740 X124.611 Y104.137 E175.10137
G0 F9000 X124.611 Y104.844
G1 F1740 X120.113 Y109.342 E175.57845
G0 F9000 X120.820 Y109.342
G1 F1740 X124.611 Y105.551 E175.98055
G0 F9000 X124.611 Y106.259
G1 F1740 X121.527 Y109.342 E176.30760
G0 F9000 X122.234 Y109.342
G1 F1740 X124.611 Y106.966 E176.55967
G0 F9000 X124.611 Y107.673
G1 F1740 X122.941 Y109.342 E176.73675
G0 F9000 X122.949 Y110.042
G1 F1740 X124.611 Y108.380 E176.91303
G0 F9000 X124.611 Y109.087
G1 F1740 X122.949 Y110.749 E177.08931
G0 F9000 X122.949 Y111.456
G1 F1740 X124.611 Y109.794 E177.26559
G0 F9000 X124.611 Y110.501
G1 F1740 X122.949 Y112.163 E177.44187
G0 F9000 X122.949 Y112.870
G1 F1740 X124.611 Y111.208 E177.61816
G0 F9000 X124.611 Y111.915
G1 F1740 X122.949 Y113.577 E177.79444
G0 F9000 X122.949 Y114.284
G1 F1740 X124.611 Y112.623 E177.97067
G0 F9000 X124.611 Y113.330
G1 F1740 X122.949 Y114.991 E178.14690
G0 F9000 X122.949 Y115.698
G1 F1740 X124.611 Y114.037 E178.32312
G0 F9000 X124.611 Y114.744
G1 F1740 X122.949 Y116.406 E178.49941
G0 F9000 X122.949 Y117.113
G1 F1740 X124.611 Y115.451 E178.67569
G0 F9000 X124.611 Y116.158
G1 F1740 X122.949 Y117.820 E178.85197
G0 F9000 X122.949 Y118.527
G1 F1740 X124.611 Y116.865 E179.02825
G0 F9000 X124.611 Y117.572
G1 F1740 X122.949 Y119.234 E179.20453
G0 F9000 X122.949 Y119.941
G1 F1740 X124.611 Y118.279 E179.38081
G0 F9000 X124.611 Y118.986
G1 F1740 X122.949 Y120.648 E179.55710
G0 F9000 X123.367 Y120.937
G1 F1740 X124.611 Y119.694 E179.68899
G0 F9000 X122.666 Y109.627
G0 X119.879 Y109.627
G0 X110.404 Y114.101
G1 F1740 X121.349 Y103.156 E180.84988
G0 F9000 X120.642 Y103.156
G1 F1740 X110.404 Y113.394 E181.93579
G0 F9000 X110.404 Y112.687
G1 F1740 X119.935 Y103.156 E182.94670
G0 F9000 X119.228 Y103.156
G1 F1740 X110.404 Y111.980 E183.88263
G0 F9000 X110.404 Y111.273
G1 F1740 X118.520 Y103.156 E184.74351
G0 F9000 X117.813 Y103.156
G1 F1740 X110.404 Y110.566 E185.52941
G0 F9000 X110.404 Y109.858
G1 F1740 X117.106 Y103.156 E186.24026
G0 F9000 X116.399 Y103.156
G1 F1740 X110.213 Y109.343 E186.89644
G0 F9000 X109.506 Y109.343
G1 F1740 X115.692 Y103.156 E187.55262
G0 F9000 X114.986 Y103.156
G1 F1740 X108.798 Y109.343 E188.20890
G0 F9000 X108.092 Y109.342
G1 F1740 X114.279 Y103.156 E188.86508
G0 F9000 X113.571 Y103.156
G1 F1740 X107.385 Y109.342 E189.52120
G0 F9000 X107.049 Y109.678
G1 F1740 X105.387 Y111.341 E189.69754
G0 F9000 X105.387 Y112.048
G1 F1740 X107.049 Y110.385 E189.87387
G0 F9000 X107.049 Y111.092
G1 F1740 X105.387 Y112.755 E190.05021
G0 F9000 X105.387 Y113.462
G1 F1740 X107.049 Y111.799 E190.22654
G0 F9000 X107.049 Y112.507
G1 F1740 X105.387 Y114.169 E190.40282
G0 F9000 X105.387 Y114.876
G1 F1740 X107.049 Y113.214 E190.57911
G0 F9000 X107.049 Y113.921
G1 F1740 X105.387 Y115.583 E190.75539
G0 F9000 X105.387 Y116.290
G1 F1740 X107.049 Y114.628 E190.93167
G0 F9000 X107.049 Y115.335
G1 F1740 X105.387 Y116.997 E191.10795
G0 F9000 X105.387 Y117.704
G1 F1740 X107.049 Y116.042 E191.28423
G0 F9000 X107.049 Y116.749
G1 F1740 X105.387 Y118.412 E191.46057
G0 F9000 X105.387 Y119.119
G1 F1740 X107.049 Y117.456 E191.63690
G0 F9000 X107.049 Y118.163
G1 F1740 X105.387 Y119.826 E191.81324
G0 F9000 X105.387 Y120.533
G1 F1740 X107.049 Y118.871 E191.98952
G0 F9000 X107.049 Y119.578
G1 F1740 X105.690 Y120.937 E192.13366
G0 F9000 X106.397 Y120.937
G1 F1740 X107.049 Y120.285 E192.20282
G0 F9000 X107.334 Y109.627
G0 X110.121 Y109.627
G0 X110.404 Y120.465
G1 F1740 X119.594 Y111.275 E193.17756
G0 F9000 X119.594 Y110.568
G1 F1740 X110.404 Y119.758 E194.15231
G0 F9000 X110.404 Y119.051
G1 F1740 X119.594 Y109.861 E195.12706
G0 F9000 X119.594 Y111.983
G1 F1740 X110.640 Y120.937 E196.07677
G0 F9000 X111.347 Y120.937
G1 F1740 X119.594 Y112.690 E196.95150
G0 F9000 X119.594 Y113.397
G1 F1740 X112.054 Y120.937 E197.75124
G0 F9000 X112.761 Y120.937
G1 F1740 X119.594 Y114.104 E198.47599
G0 F9000 X119.594 Y114.811
G1 F1740 X113.468 Y120.937 E199.12575
G0 F9000 X114.175 Y120.937
G1 F1740 X119.594 Y115.518 E199.70052
G0 F9000 X119.594 Y116.225
G1 F1740 X114.882 Y120.937 E200.20030
G0 F9000 X115.590 Y120.937
G1 F1740 X119.594 Y116.932 E200.62504
G0 F9000 X119.594 Y117.639
G1 F1740 X116.297 Y120.937 E200.97479
G0 F9000 X117.004 Y120.937
G1 F1740 X119.594 Y118.347 E201.24951
G0 F9000 X119.594 Y119.054
G1 F1740 X117.711 Y120.937 E201.44923
G0 F9000 X118.418 Y120.937
G1 F1740 X119.594 Y119.761 E201.57396
G0 F9000 X110.121 Y109.627
G0 X107.334 Y109.627
G0 X105.387 Y110.633
G1 F1740 X112.864 Y103.156 E202.36702
G0 F9000 X112.157 Y103.156
G1 F1740 X105.387 Y109.926 E203.08508
G0 F9000 X105.387 Y109.219
G1 F1740 X111.450 Y103.156 E203.72816
G0 F9000 X110.743 Y103.156
G1 F1740 X105.387 Y108.512 E204.29625
G0 F9000 X105.387 Y107.805
G1 F1740 X110.036 Y103.156 E204.78935
G0 F9000 X109.329 Y103.156
G1 F1740 X105.387 Y107.098 E205.20747
G0 F9000 X105.387 Y106.391
G1 F1740 X108.622 Y103.156 E205.55059
G0 F9000 X107.915 Y103.156
G1 F1740 X105.387 Y105.684 E205.81872
G0 F9000 X105.387 Y104.977
G1 F1740 X107.207 Y103.156 E206.01182
G0 F9000 X106.500 Y103.156
G1 F1740 X105.387 Y104.269 E206.12987
G0 F9000 X105.387 Y103.562
G1 F1740 X105.793 Y103.156 E206.17293
G0 F9000 X119.594 Y120.468
G1 F1740 X119.125 Y120.937 E206.22268
G0 F9000 X119.879 Y109.627
G0 X122.666 Y109.627
G0 X124.073 Y120.938
G1 F1740 X124.611 Y120.401 E206.27969
;LAYER:2
M106 S255
G0 F9000 X124.787 Y121.311 Z0.600
;TYPE:WALL-INNER
G1 F3300 X122.775 Y121.310 E206.43059
G1 X122.775 Y109.518 E207.31499
G1 X119.770 Y109.518 E207.54036
G1 X119.770 Y121.311 E208.42484
G1 X110.230 Y121.310 E209.14034
G1 X110.230 Y109.518 E210.02474
G1 X107.225 Y109.518 E210.25011
G1 X107.225 Y121.310 E211.13451
G1 X105.212 Y121.310 E211.28549
G1 X105.212 Y103.080 E212.65274
G1 X107.227 Y103.081 E212.80386
G1 X107.975 Y103.080 E212.85996
G1 X109.160 Y103.081 E212.94884
G1 X109.482 Y103.080 E212.97299
G1 X121.705 Y103.081 E213.88971
G1 X122.027 Y103.080 E213.91386
G1 X124.787 Y103.081 E214.12086
G1 X124.787 Y121.311 E215.48811
G0 F9000 X125.287 Y121.811
;TYPE:WALL-OUTER
G1 F2100 X122.275 Y121.810 E215.71401
G1 X122.275 Y110.018 E216.59841
G1 X120.270 Y110.018 E216.74879
G1 X120.270 Y121.811 E217.63326
G1 X109.730 Y121.810 E218.42376
G1 X109.730 Y110.018 E219.30816
G1 X107.725 Y110.018 E219.45854
G1 X107.725 Y121.810 E220.34294
