;FLAVOR:UltiGCode
;TIME:3443
;MATERIAL:3586
;MATERIAL2:0

;Layer count: 46
;LAYER:0
M107
G0 F9000 X110.405 Y108.272 Z0.300
;TYPE:SKIRT
G1 F1200 X110.405 Y116.272 E0.96000
G1 X118.406 Y116.272 E1.92012
G1 X118.406 Y108.272 E2.88012
G1 X110.405 Y108.272 E3.84024
G0 F9000 X99.206 Y97.189
G1 F1200 X99.206 Y97.072 E3.85428
G1 X129.606 Y97.072 E7.50228
G1 X129.606 Y97.528 E7.55700
G1 X159.005 Y97.528 E11.08488
G1 X159.005 Y127.928 E14.73288
G1 X128.605 Y127.928 E18.38088
G1 X128.605 Y127.472 E18.43560
G1 X101.395 Y127.472 E21.70080
G1 X101.395 Y127.589 E21.71484
G1 X70.995 Y127.589 E25.36284
G1 X70.995 Y97.189 E29.01084
G1 X99.206 Y97.189 E32.39616
G10
G0 F9000 X97.595 Y100.989
;TYPE:WALL-INNER
G11
G1 F1200 X97.595 Y109.389 E33.40416
G1 X87.995 Y109.389 E34.55616
G1 X87.995 Y120.189 E35.85216
G1 X93.995 Y120.189 E36.57216
G1 X93.995 Y115.389 E37.14816
G1 X97.595 Y115.389 E37.58016
G1 X97.595 Y123.789 E38.58816
G1 X74.795 Y123.789 E41.32416
G1 X74.795 Y115.389 E42.33216
G1 X78.395 Y115.389 E42.76416
G1 X78.395 Y120.189 E43.34016
G1 X84.395 Y120.189 E44.06016
G1 X84.395 Y109.389 E45.35616
G1 X74.795 Y109.389 E46.50816
G1 X74.795 Y100.989 E47.51616
G1 X83.195 Y100.989 E48.52416
G1 X83.195 Y105.789 E49.10016
G1 X89.195 Y105.789 E49.82016
G1 X89.195 Y100.989 E50.39616
G1 X97.595 Y100.989 E51.40416
G0 F9000 X97.995 Y100.589
;TYPE:WALL-OUTER
G1 F1200 X97.995 Y109.789 E52.50816
G1 X88.395 Y109.789 E53.66016
G1 X88.395 Y119.789 E54.86016
G1 X93.595 Y119.789 E55.48416
G1 X93.595 Y114.989 E56.06016
G1 X97.995 Y114.989 E56.58816
G1 X97.995 Y124.189 E57.69216
G1 X74.395 Y124.189 E60.52416
G1 X74.395 Y114.989 E61.62816
G1 X78.795 Y114.989 E62.15616
G1 X78.795 Y119.789 E62.73216
G1 X83.995 Y119.789 E63.35616
G1 X83.995 Y109.789 E64.55616
G1 X74.395 Y109.789 E65.70816
G1 X74.395 Y100.589 E66.81216
G1 X83.595 Y100.589 E67.91616
G1 X83.595 Y105.389 E68.49216
G1 X88.795 Y105.389 E69.11616
G1 X88.795 Y100.589 E69.69216
G1 X97.995 Y100.589 E70.79616
G0 F9000 X97.455 Y101.698
;TYPE:SKIN
G1 F900 X96.885 Y101.128 E70.89289
G0 F9000 X96.319 Y101.128
G1 F900 X97.455 Y102.263 E71.08559
G0 F9000 X97.455 Y102.829
G1 F900 X95.754 Y101.128 E71.37426
G0 F9000 X95.188 Y101.128
G1 F900 X97.455 Y103.395 E71.75898
G0 F9000 X97.455 Y103.960
G1 F900 X94.622 Y101.128 E72.23968
G0 F9000 X94.057 Y101.128
G1 F900 X97.455 Y104.526 E72.81634
G0 F9000 X97.455 Y105.092
G1 F900 X93.491 Y101.128 E73.48905
G0 F9000 X92.925 Y101.128
G1 F900 X97.455 Y105.658 E74.25782
G0 F9000 X97.455 Y106.223
G1 F900 X92.360 Y101.128 E75.12247
G0 F9000 X91.794 Y101.128
G1 F900 X97.455 Y106.789 E76.08317
G0 F9000 X97.455 Y107.355
G1 F900 X91.228 Y101.128 E77.13993
G0 F9000 X90.663 Y101.128
G1 F900 X97.455 Y107.920 E78.29257
G0 F9000 X97.455 Y108.486
G1 F900 X90.097 Y101.128 E79.54126
G0 F9000 X89.531 Y101.128
G1 F900 X97.455 Y109.052 E80.88601
G0 F9000 X97.085 Y109.247
G1 F900 X89.335 Y101.497 E82.20123
G0 F9000 X89.335 Y102.063
G1 F900 X96.520 Y109.247 E83.42048
G0 F9000 X95.954 Y109.247
G1 F900 X89.335 Y102.628 E84.54376
G0 F9000 X89.335 Y103.194
G1 F900 X95.388 Y109.247 E85.57099
G0 F9000 X94.823 Y109.247
G1 F900 X89.335 Y103.760 E86.50225
G0 F9000 X89.335 Y104.325
G1 F900 X94.257 Y109.247 E87.33754
G0 F9000 X93.691 Y109.247
G1 F900 X89.335 Y104.891 E88.07677
G0 F9000 X89.335 Y105.457
G1 F900 X93.125 Y109.247 E88.71996
G0 F9000 X92.560 Y109.247
G1 F900 X89.240 Y105.928 E89.28330
G0 F9000 X88.674 Y105.928
G1 F900 X91.994 Y109.247 E89.84663
G0 F9000 X91.428 Y109.247
G1 F900 X88.109 Y105.928 E90.40989
G0 F9000 X87.543 Y105.928
G1 F900 X90.863 Y109.247 E90.97323
G0 F9000 X90.297 Y109.247
G1 F900 X86.977 Y105.928 E91.53656
G0 F9000 X86.411 Y105.928
G1 F900 X89.731 Y109.247 E92.09990
G0 F9000 X89.166 Y109.247
G1 F900 X85.846 Y105.928 E92.66324
G0 F9000 X85.280 Y105.928
G1 F900 X88.600 Y109.247 E93.22658
G0 F9000 X88.034 Y109.247
G1 F900 X84.714 Y105.928 E93.78991
G0 F9000 X84.149 Y105.928
G1 F900 X87.855 Y109.634 E94.41884
G0 F9000 X87.855 Y110.199
G1 F900 X83.583 Y105.928 E95.14374
G0 F9000 X83.054 Y105.399
G1 F900 X78.783 Y101.128 E95.86855
G0 F9000 X78.218 Y101.128
G1 F900 X87.855 Y110.765 E97.50401
G0 F9000 X87.855 Y111.331
G1 F900 X77.652 Y101.128 E99.23551
G0 F9000 X77.086 Y101.128
G1 F900 X87.855 Y111.896 E101.06299
G0 F9000 X87.855 Y112.462
G1 F900 X76.520 Y101.128 E102.98652
G0 F9000 X75.955 Y101.128
G1 F900 X84.074 Y109.247 E104.36436
G0 F9000 X83.509 Y109.247
G1 F900 X75.389 Y101.128 E105.74228
G0 F9000 X74.934 Y101.239
G1 F900 X82.943 Y109.247 E107.10137
G0 F9000 X82.377 Y109.247
G1 F900 X74.934 Y101.804 E108.36449
G0 F9000 X74.934 Y102.370
G1 F900 X81.812 Y109.247 E109.53164
G0 F9000 X81.246 Y109.247
G1 F900 X74.934 Y102.936 E110.60274
G0 F9000 X74.934 Y103.502
G1 F900 X80.680 Y109.247 E111.57778
G0 F9000 X80.115 Y109.247
G1 F900 X74.934 Y104.067 E112.45694
G0 F9000 X74.934 Y104.633
G1 F900 X79.549 Y109.247 E113.24005
G0 F9000 X78.983 Y109.247
G1 F900 X74.934 Y105.199 E113.92710
G0 F9000 X74.934 Y105.764
G1 F900 X78.418 Y109.247 E114.51827
G0 F9000 X77.852 Y109.247
G1 F900 X74.934 Y106.330 E115.01339
G0 F9000 X74.934 Y106.896
G1 F900 X77.286 Y109.247 E115.41245
G0 F9000 X76.721 Y109.247
G1 F900 X74.934 Y107.461 E115.71563
G0 F9000 X74.934 Y108.027
G1 F900 X76.155 Y109.247 E115.92275
G0 F9000 X75.589 Y109.247
G1 F900 X74.934 Y108.593 E116.03383
G0 F9000 X74.934 Y109.158
G1 F900 X75.024 Y109.247 E116.04901
G0 F9000 X84.336 Y109.448
G0 X84.336 Y120.130
G0 X78.454 Y120.130
G0 X75.082 Y115.528
G1 F900 X78.255 Y118.702 E116.58758
G0 F9000 X78.255 Y119.267
G1 F900 X74.934 Y115.947 E117.15108
G0 F9000 X74.934 Y116.512
G1 F900 X78.255 Y119.833 E117.71468
G0 F9000 X78.255 Y118.136
G1 F900 X75.647 Y115.528 E118.15727
G0 F9000 X76.213 Y115.528
G1 F900 X78.255 Y117.570 E118.50381
G0 F9000 X78.255 Y117.004
G1 F900 X76.779 Y115.528 E118.75429
G0 F9000 X77.344 Y115.528
G1 F900 X78.255 Y116.439 E118.90889
G0 F9000 X78.255 Y115.873
G1 F900 X77.910 Y115.528 E118.96744
G0 F9000 X74.934 Y117.078
G1 F900 X81.504 Y123.648 E120.08241
G0 F9000 X80.938 Y123.648
G1 F900 X74.934 Y117.644 E121.10132
G0 F9000 X74.934 Y118.209
G1 F900 X80.373 Y123.648 E122.02435
G0 F9000 X82.070 Y123.648
G1 F900 X78.750 Y120.328 E122.58777
G0 F9000 X79.316 Y120.328
G1 F900 X82.636 Y123.648 E123.15120
G0 F9000 X83.201 Y123.648
G1 F900 X79.881 Y120.328 E123.71462
G0 F9000 X79.807 Y123.648
G1 F900 X74.934 Y118.775 E124.54159
G0 F9000 X74.934 Y119.341
G1 F900 X79.241 Y123.648 E125.27252
G0 F9000 X78.676 Y123.648
G1 F900 X74.934 Y119.906 E125.90755
G0 F9000 X84.336 Y120.130
G0 X84.336 Y109.448
G0 X83.054 Y104.833
G1 F900 X79.349 Y101.128 E126.53631
G0 F9000 X79.915 Y101.128
G1 F900 X83.054 Y104.267 E127.06902
G0 F9000 X83.054 Y103.702
G1 F900 X80.480 Y101.128 E127.50584
G0 F9000 X81.046 Y101.128
G1 F900 X83.054 Y103.136 E127.84661
G0 F9000 X83.054 Y102.570
G1 F900 X81.612 Y101.128 E128.09133
G0 F9000 X82.177 Y101.128
G1 F900 X83.054 Y102.005 E128.24016
G0 F9000 X83.054 Y101.439
G1 F900 X82.743 Y101.128 E128.29294
G0 F9000 X83.254 Y105.730
G0 X84.534 Y109.707
G1 F900 X87.855 Y113.028 E128.85653
G0 F9000 X87.855 Y113.593
G1 F900 X84.534 Y110.273 E129.42004
G0 F9000 X84.534 Y110.838
G1 F900 X87.855 Y114.159 E129.98363
G0 F9000 X87.855 Y114.725
G1 F900 X84.534 Y111.404 E130.54722
G0 F9000 X84.534 Y111.970
G1 F900 X87.855 Y115.290 E131.11073
G0 F9000 X87.855 Y115.856
G1 F900 X84.534 Y112.536 E131.67424
G0 F9000 X84.534 Y113.101
G1 F900 X87.855 Y116.422 E132.23783
G0 F9000 X87.855 Y116.987
G1 F900 X84.534 Y113.667 E132.80134
G0 F9000 X84.534 Y114.233
G1 F900 X87.855 Y117.553 E133.36484
G0 F9000 X87.855 Y118.119
G1 F900 X84.534 Y114.798 E133.92844
G0 F9000 X84.534 Y115.364
G1 F900 X87.855 Y118.685 E134.49203
G0 F9000 X87.855 Y119.250
G1 F900 X84.534 Y115.930 E135.05554
G0 F9000 X84.534 Y116.495
G1 F900 X87.855 Y119.816 E135.61913
G0 F9000 X84.534 Y119.889
G1 F900 X88.292 Y123.648 E136.25697
G0 F9000 X87.727 Y123.648
G1 F900 X84.407 Y120.328 E136.82039
G0 F9000 X83.841 Y120.328
G1 F900 X87.161 Y123.648 E137.38381
G0 F9000 X86.595 Y123.648
G1 F900 X83.275 Y120.328 E137.94723
G0 F9000 X82.710 Y120.328
G1 F900 X86.030 Y123.648 E138.51066
G0 F9000 X85.464 Y123.648
G1 F900 X82.144 Y120.328 E139.07408
G0 F9000 X81.578 Y120.328
G1 F900 X84.898 Y123.648 E139.63750
G0 F9000 X84.333 Y123.648
G1 F900 X81.013 Y120.328 E140.20093
G0 F9000 X80.447 Y120.328
G1 F900 X83.767 Y123.648 E140.76435
G0 F9000 X84.534 Y119.324
G1 F900 X88.858 Y123.648 E141.49816
G0 F9000 X89.424 Y123.648
G1 F900 X84.534 Y118.758 E142.32802
G0 F9000 X84.534 Y118.192
G1 F900 X89.989 Y123.648 E143.25384
G0 F9000 X90.555 Y123.648
G1 F900 X84.534 Y117.627 E144.27564
G0 F9000 X84.534 Y117.061
G1 F900 X91.121 Y123.648 E145.39349
G0 F9000 X91.687 Y123.648
G1 F900 X88.367 Y120.328 E145.95692
G0 F9000 X88.932 Y120.328
G1 F900 X92.252 Y123.648 E146.52034
G0 F9000 X92.818 Y123.648
G1 F900 X89.498 Y120.328 E147.08376
G0 F9000 X90.064 Y120.328
G1 F900 X93.384 Y123.648 E147.64718
G0 F9000 X93.949 Y123.648
G1 F900 X90.629 Y120.328 E148.21061
G0 F9000 X91.195 Y120.328
G1 F900 X94.515 Y123.648 E148.77403
G0 F9000 X95.081 Y123.648
G1 F900 X91.761 Y120.328 E149.33745
G0 F9000 X92.326 Y120.328
G1 F900 X95.646 Y123.648 E149.90087
G0 F9000 X96.212 Y123.648
G1 F900 X92.892 Y120.328 E150.46430
G0 F9000 X93.458 Y120.328
G1 F900 X96.778 Y123.648 E151.02772
G0 F9000 X97.343 Y123.648
G1 F900 X94.023 Y120.328 E151.59114
G0 F9000 X94.135 Y119.873
G1 F900 X97.455 Y123.194 E152.15465
G0 F9000 X97.455 Y122.628
G1 F900 X94.135 Y119.308 E152.71807
G0 F9000 X94.135 Y118.742
G1 F900 X97.455 Y122.062 E153.28150
G0 F9000 X97.455 Y121.497
G1 F900 X94.135 Y118.176 E153.84500
G0 F9000 X94.135 Y117.610
G1 F900 X97.455 Y120.931 E154.40851
G0 F9000 X97.455 Y120.365
G1 F900 X94.135 Y117.045 E154.97193
G0 F9000 X94.135 Y116.479
G1 F900 X97.455 Y119.800 E155.53544
G0 F9000 X97.455 Y119.234
G1 F900 X94.135 Y115.913 E156.09895
G0 F9000 X94.315 Y115.528
G1 F900 X97.455 Y118.668 E156.63182
G0 F9000 X97.455 Y118.103
G1 F900 X94.881 Y115.528 E157.06873
G0 F9000 X95.446 Y115.528
G1 F900 X97.455 Y117.537 E157.40967
G0 F9000 X97.455 Y116.971
G1 F900 X96.012 Y115.528 E157.65456
G0 F9000 X96.578 Y115.528
G1 F900 X97.455 Y116.406 E157.80347
G0 F9000 X97.455 Y115.840
G1 F900 X97.143 Y115.528 E157.85642
G0 F9000 X93.936 Y120.130
G0 X88.054 Y120.130
G0 X78.110 Y123.648
G1 F900 X74.934 Y120.472 E158.39541
G0 F9000 X74.934 Y121.038
G1 F900 X77.544 Y123.648 E158.83834
G0 F9000 X76.979 Y123.648
G1 F900 X74.934 Y121.603 E159.18539
G0 F9000 X74.934 Y122.169
G1 F900 X76.413 Y123.648 E159.43638
G0 F9000 X75.847 Y123.648
G1 F900 X74.934 Y122.735 E159.59132
G0 F9000 X74.934 Y123.301
G1 F900 X75.282 Y123.648 E159.65029
G10
G0 F9000 X103.006 Y123.672
;TYPE:WALL-INNER
G11
G1 F1200 X103.006 Y115.272 E160.65829
G1 X106.605 Y115.272 E161.09017
G1 X106.605 Y120.072 E161.66617
G1 X122.206 Y120.072 E163.53829
G1 X122.206 Y104.472 E165.41029
G1 X106.605 Y104.472 E167.28241
G1 X106.605 Y109.272 E167.85841
G1 X103.006 Y109.272 E168.29029
G1 X103.006 Y100.872 E169.29829
G1 X125.806 Y100.872 E172.03429
G1 X125.806 Y123.672 E174.77029
G1 X103.006 Y123.672 E177.50629
G0 F9000 X102.606 Y124.072
;TYPE:WALL-OUTER
G1 F1200 X102.606 Y114.872 E178.61029
G1 X107.005 Y114.872 E179.13817
G1 X107.005 Y119.672 E179.71417
G1 X121.806 Y119.672 E181.49029
G1 X121.806 Y104.872 E183.26629
G1 X107.005 Y104.872 E185.04241
G1 X107.005 Y109.672 E185.61841
G1 X102.606 Y109.672 E186.14629
G1 X102.606 Y100.472 E187.25029
G1 X126.206 Y100.472 E190.08229
G1 X126.206 Y124.072 E192.91429
G1 X102.606 Y124.072 E195.74629
G0 F9000 X103.449 Y123.531
;TYPE:SKIN
G1 F900 X103.145 Y123.227 E195.79788
G0 F9000 X103.145 Y122.661
G1 F900 X104.015 Y123.531 E195.94553
G0 F9000 X104.581 Y123.531
G1 F900 X103.145 Y122.096 E196.18914
G0 F9000 X103.145 Y121.530
G1 F900 X105.146 Y123.531 E196.52872
G0 F9000 X105.712 Y123.531
G1 F900 X103.145 Y120.964 E196.96436
G0 F9000 X103.145 Y120.399
G1 F900 X106.278 Y123.531 E197.49596
G0 F9000 X106.843 Y123.531
G1 F900 X103.145 Y119.833 E198.12353
G0 F9000 X103.145 Y119.267
G1 F900 X107.409 Y123.531 E198.84715
G0 F9000 X107.975 Y123.531
G1 F900 X103.145 Y118.702 E199.66675
G0 F9000 X103.145 Y118.136
G1 F900 X108.540 Y123.531 E200.58231
G0 F9000 X109.106 Y123.531
G1 F900 X103.145 Y117.570 E201.59393
G0 F9000 X103.145 Y117.004
G1 F900 X109.672 Y123.531 E202.70159
G0 F9000 X110.237 Y123.531
G1 F900 X106.918 Y120.211 E203.26493
G0 F9000 X107.483 Y120.211
G1 F900 X110.803 Y123.531 E203.82835
G0 F9000 X111.369 Y123.531
G1 F900 X108.049 Y120.211 E204.39178
G0 F9000 X108.615 Y120.211
G1 F900 X111.935 Y123.531 E204.95520
G0 F9000 X112.500 Y123.531
G1 F900 X109.180 Y120.211 E205.51862
G0 F9000 X109.746 Y120.211
G1 F900 X113.066 Y123.531 E206.08205
G0 F9000 X113.632 Y123.531
G1 F900 X110.312 Y120.211 E206.64547
G0 F9000 X110.877 Y120.211
G1 F900 X114.197 Y123.531 E207.20889
G0 F9000 X114.763 Y123.531
G1 F900 X111.443 Y120.211 E207.77231
G0 F9000 X112.009 Y120.211
G1 F900 X115.329 Y123.531 E208.33574
G0 F9000 X115.894 Y123.531
G1 F900 X112.574 Y120.211 E208.89916
G0 F9000 X113.140 Y120.211
G1 F900 X116.460 Y123.531 E209.46258
G0 F9000 X117.026 Y123.531
G1 F900 X113.706 Y120.211 E210.02600
G0 F9000 X114.271 Y120.211
G1 F900 X117.591 Y123.531 E210.58943
G0 F9000 X118.157 Y123.531
G1 F900 X114.838 Y120.212 E211.15268
G0 F9000 X115.404 Y120.212
G1 F900 X118.723 Y123.531 E211.71593
G0 F9000 X119.288 Y123.531
G1 F900 X115.969 Y120.212 E212.27919
G0 F9000 X116.535 Y120.212
G1 F900 X119.854 Y123.531 E212.84244
G0 F9000 X120.420 Y123.531
G1 F900 X117.101 Y120.212 E213.40569
G0 F9000 X117.666 Y120.212
G1 F900 X120.985 Y123.531 E213.96894
G0 F9000 X121.551 Y123.531
G1 F900 X118.232 Y120.212 E214.53220
G0 F9000 X118.798 Y120.212
G1 F900 X122.117 Y123.531 E215.09545
G0 F9000 X122.683 Y123.531
G1 F900 X119.363 Y120.212 E215.65879
G0 F9000 X119.929 Y120.212
G1 F900 X123.248 Y123.531 E216.22204
G0 F9000 X123.814 Y123.531
G1 F900 X120.495 Y120.212 E216.78529
G0 F9000 X121.060 Y120.212
G1 F900 X124.380 Y123.531 E217.34863
G0 F9000 X124.945 Y123.531
G1 F900 X121.626 Y120.212 E217.91189
G0 F9000 X122.192 Y120.212
G1 F900 X125.511 Y123.531 E218.47514
G0 F9000 X125.665 Y123.120
G1 F900 X122.345 Y119.799 E219.03865
G0 F9000 X122.345 Y119.233
G1 F900 X125.665 Y122.554 E219.60215
G0 F9000 X125.665 Y121.988
G1 F900 X122.345 Y118.668 E220.16558
G0 F9000 X122.345 Y118.102
G1 F900 X125.665 Y121.422 E220.72900
G0 F9000 X125.665 Y120.857
G1 F900 X122.345 Y117.536 E221.29251
G0 F9000 X122.345 Y116.971
G1 F900 X125.665 Y120.291 E221.85593
G0 F9000 X125.665 Y119.725
G1 F900 X122.345 Y116.405 E222.41935
G0 F9000 X122.345 Y115.839
G1 F900 X125.665 Y119.160 E222.98286
G0 F9000 X125.665 Y118.594
G1 F900 X122.345 Y115.273 E223.54637
G0 F9000 X122.345 Y114.708
G1 F900 X125.665 Y118.028 E224.10979
G0 F9000 X125.665 Y117.463
G1 F900 X122.345 Y114.142 E224.67330
G0 F9000 X122.345 Y113.576
G1 F900 X125.665 Y116.897 E225.23680
G0 F9000 X125.665 Y116.331
G1 F900 X122.345 Y113.011 E225.80023
G0 F9000 X122.345 Y112.445
G1 F900 X125.665 Y115.766 E226.36373
G0 F9000 X125.665 Y115.200
G1 F900 X122.345 Y111.879 E226.92724
G0 F9000 X122.345 Y111.314
G1 F900 X125.665 Y114.634 E227.49066
G0 F9000 X125.665 Y114.069
G1 F900 X122.345 Y110.748 E228.05417
G0 F9000 X122.345 Y110.182
G1 F900 X125.665 Y113.503 E228.61768
G0 F9000 X125.665 Y112.937
G1 F900 X122.345 Y109.617 E229.18110
G0 F9000 X122.345 Y109.051
G1 F900 X125.665 Y112.371 E229.74453
G0 F9000 X125.665 Y111.806
G1 F900 X122.345 Y108.485 E230.30803
G0 F9000 X122.345 Y107.920
G1 F900 X125.665 Y111.240 E230.87146
G0 F9000 X125.665 Y110.674
G1 F900 X122.345 Y107.354 E231.43488
G0 F9000 X122.345 Y106.788
G1 F900 X125.665 Y110.109 E231.99839
G0 F9000 X125.665 Y109.543
G1 F900 X122.345 Y106.222 E232.56189
G0 F9000 X122.345 Y105.657
G1 F900 X125.665 Y108.977 E233.12532
G0 F9000 X125.665 Y108.412
G1 F900 X122.345 Y105.091 E233.68882
G0 F9000 X122.345 Y104.525
G1 F900 X125.665 Y107.846 E234.25233
G0 F9000 X125.665 Y107.280
G1 F900 X119.397 Y101.012 E235.31605
G0 F9000 X119.962 Y101.012
G1 F900 X125.665 Y106.715 E236.28388
G0 F9000 X125.665 Y106.149
