;FLAVOR:UltiGCode
;TIME:2537
;MATERIAL:6557
;MATERIAL2:0

;Layer count: 50
;LAYER:0
M107
G0 F9000 X80.268 Y127.848 Z0.300
;TYPE:SKIRT
G1 F1800 X108.719 Y111.421 E4.92792
G1 X137.170 Y127.848 E9.85584
G1 X137.170 Y160.700 E14.78364
G1 X108.719 Y177.127 E19.71155
G1 X80.268 Y160.700 E24.63947
G1 X80.268 Y127.848 E29.56727
G10
G0 F9000 X84.268 Y130.156
;TYPE:WALL-INNER
G11
G1 F1800 X108.719 Y116.040 E33.80225
G1 X133.170 Y130.156 E38.03723
G1 X133.170 Y158.392 E42.27263
G1 X108.719 Y172.508 E46.50761
G1 X84.268 Y158.392 E50.74259
G1 X84.268 Y130.156 E54.97799
G0 F9000 X83.768 Y129.868
;TYPE:WALL-OUTER
G1 F1800 X108.719 Y115.462 E59.29967
G1 X133.670 Y129.868 E63.62135
G1 X133.670 Y158.680 E67.94315
G1 X108.719 Y173.086 E72.26483
G1 X83.768 Y158.680 E76.58651
G1 X83.768 Y129.868 E80.90831
G0 F9000 X84.574 Y130.182
;TYPE:SKIN
G1 F1800 X120.116 Y165.724 E88.44790
G0 F9000 X120.564 Y165.465
G1 F1800 X85.022 Y129.923 E95.98750
G0 F9000 X85.470 Y129.664
G1 F1800 X121.012 Y165.207 E103.52720
G0 F9000 X121.461 Y164.948
G1 F1800 X85.919 Y129.406 E111.06680
G0 F9000 X86.366 Y129.146
G1 F1800 X121.909 Y164.689 E118.60661
G0 F9000 X122.357 Y164.430
G1 F1800 X86.815 Y128.887 E126.14631
G0 F9000 X87.263 Y128.629
G1 F1800 X122.806 Y164.171 E133.68601
G0 F9000 X123.253 Y163.912
G1 F1800 X87.711 Y128.370 E141.22561
G0 F9000 X88.159 Y128.111
G1 F1800 X123.701 Y163.653 E148.76521
G0 F9000 X124.150 Y163.394
G1 F1800 X88.608 Y127.852 E156.30480
G0 F9000 X89.056 Y127.593
G1 F1800 X124.598 Y163.135 E163.84440
G0 F9000 X125.046 Y162.877
G1 F1800 X89.504 Y127.335 E171.38400
G0 F9000 X89.953 Y127.076
G1 F1800 X125.495 Y162.618 E178.92359
G0 F9000 X125.943 Y162.359
G1 F1800 X90.401 Y126.817 E186.46319
G0 F9000 X90.849 Y126.558
G1 F1800 X126.391 Y162.100 E194.00279
G0 F9000 X126.840 Y161.841
G1 F1800 X91.298 Y126.299 E201.54238
G0 F9000 X91.746 Y126.041
G1 F1800 X127.288 Y161.583 E209.08198
G0 F9000 X127.736 Y161.324
G1 F1800 X92.194 Y125.782 E216.62158
G0 F9000 X92.643 Y125.523
G1 F1800 X128.185 Y161.065 E224.16117
G0 F9000 X128.633 Y160.806
G1 F1800 X93.091 Y125.264 E231.70077
G0 F9000 X93.539 Y125.005
G1 F1800 X129.081 Y160.547 E239.24037
G0 F9000 X129.529 Y160.289
G1 F1800 X93.987 Y124.747 E246.77996
G0 F9000 X94.436 Y124.488
G1 F1800 X129.978 Y160.030 E254.31956
G0 F9000 X130.426 Y159.771
G1 F1800 X94.884 Y124.229 E261.85916
G0 F9000 X95.332 Y123.970
G1 F1800 X130.874 Y159.512 E269.39875
G0 F9000 X131.323 Y159.253
G1 F1800 X95.781 Y123.711 E276.93835
G0 F9000 X96.229 Y123.453
G1 F1800 X131.771 Y158.995 E284.47795
G0 F9000 X132.219 Y158.736
G1 F1800 X96.677 Y123.194 E292.01755
G0 F9000 X97.126 Y122.935
G1 F1800 X132.668 Y158.477 E299.55714
G0 F9000 X132.994 Y158.097
G1 F1800 X97.574 Y122.676 E307.07096
G0 F9000 X98.022 Y122.417
G1 F1800 X132.994 Y157.389 E314.48965
G0 F9000 X132.994 Y156.682
G1 F1800 X98.470 Y122.159 E321.81319
G0 F9000 X98.919 Y121.900
G1 F1800 X132.994 Y155.975 E329.04159
G0 F9000 X132.994 Y155.268
G1 F1800 X99.367 Y121.641 E336.17495
G0 F9000 X99.815 Y121.382
G1 F1800 X132.994 Y154.561 E343.21328
G0 F9000 X132.994 Y153.854
G1 F1800 X100.264 Y121.123 E350.15647
G0 F9000 X100.712 Y120.865
G1 F1800 X132.994 Y153.147 E357.00451
G0 F9000 X132.994 Y152.440
G1 F1800 X101.160 Y120.606 E363.75752
G0 F9000 X101.608 Y120.346
G1 F1800 X132.994 Y151.733 E370.41561
G0 F9000 X132.994 Y151.025
G1 F1800 X102.056 Y120.087 E376.97855
G0 F9000 X115.643 Y120.239
G1 F1800 X132.994 Y137.590 E380.65925
G0 F9000 X132.994 Y136.883
G1 F1800 X117.316 Y121.205 E383.98506
G0 F9000 X118.989 Y122.171
G1 F1800 X132.994 Y136.176 E386.95596
G0 F9000 X132.994 Y135.469
G1 F1800 X120.662 Y123.137 E389.57198
G0 F9000 X122.335 Y124.103
G1 F1800 X132.994 Y134.762 E391.83309
G0 F9000 X132.994 Y134.055
G1 F1800 X124.009 Y125.070 E393.73910
G0 F9000 X125.682 Y126.036
G1 F1800 X132.994 Y133.348 E395.29021
G0 F9000 X132.994 Y132.641
G1 F1800 X127.355 Y127.002 E396.48642
G0 F9000 X129.028 Y127.967
G1 F1800 X132.994 Y131.934 E397.32784
G0 F9000 X132.994 Y131.226
G1 F1800 X130.702 Y128.934 E397.81405
G0 F9000 X132.375 Y129.900
G1 F1800 X132.994 Y130.519 E397.94536
G0 F9000 X132.994 Y138.298
G1 F1800 X113.970 Y119.273 E401.98106
G0 F9000 X112.297 Y118.307
G1 F1800 X132.994 Y139.005 E406.37167
G0 F9000 X132.994 Y139.712
G1 F1800 X110.623 Y117.340 E411.11738
G0 F9000 X108.950 Y116.374
G1 F1800 X132.994 Y140.419 E416.21799
G0 F9000 X132.994 Y141.126
G1 F1800 X108.333 Y116.464 E421.44948
G0 F9000 X107.884 Y116.723
G1 F1800 X132.994 Y141.833 E426.77612
G0 F9000 X132.994 Y142.540
G1 F1800 X107.436 Y116.982 E432.19779
G0 F9000 X106.988 Y117.241
G1 F1800 X132.994 Y143.247 E437.71449
G0 F9000 X132.994 Y143.954
G1 F1800 X106.539 Y117.499 E443.32645
G0 F9000 X106.091 Y117.758
G1 F1800 X132.994 Y144.662 E449.03354
G0 F9000 X132.994 Y145.369
G1 F1800 X105.643 Y118.017 E454.83567
G0 F9000 X105.194 Y118.276
G1 F1800 X132.994 Y146.076 E460.73294
G0 F9000 X132.994 Y146.783
G1 F1800 X104.746 Y118.535 E466.72525
G0 F9000 X104.298 Y118.793
G1 F1800 X132.994 Y147.490 E472.81269
G0 F9000 X132.994 Y148.197
G1 F1800 X103.849 Y119.052 E478.99528
G0 F9000 X103.401 Y119.311
G1 F1800 X132.994 Y148.904 E485.27290
G0 F9000 X132.994 Y149.611
G1 F1800 X102.953 Y119.570 E491.64556
G0 F9000 X102.505 Y119.829
G1 F1800 X132.994 Y150.318 E498.11326
G0 F9000 X119.667 Y165.983
G1 F1800 X84.442 Y130.758 E505.58561
G0 F9000 X84.442 Y131.465
G1 F1800 X119.219 Y166.242 E512.96292
G0 F9000 X118.771 Y166.501
G1 F1800 X84.442 Y132.172 E520.24520
G0 F9000 X84.442 Y132.879
G1 F1800 X118.323 Y166.759 E527.43234
G0 F9000 X117.874 Y167.018
G1 F1800 X84.442 Y133.586 E534.52434
G0 F9000 X84.442 Y134.293
G1 F1800 X117.426 Y167.277 E541.52130
G0 F9000 X116.978 Y167.536
G1 F1800 X84.442 Y135.000 E548.42323
G0 F9000 X84.442 Y135.707
G1 F1800 X116.529 Y167.795 E555.23002
G0 F9000 X116.081 Y168.053
G1 F1800 X84.442 Y136.415 E561.94156
G0 F9000 X84.442 Y137.122
G1 F1800 X115.633 Y168.312 E568.55806
G0 F9000 X115.184 Y168.571
G1 F1800 X84.442 Y137.829 E575.07943
G0 F9000 X84.442 Y138.536
G1 F1800 X114.736 Y168.830 E581.50575
G0 F9000 X114.288 Y169.089
G1 F1800 X84.442 Y139.243 E587.83705
G0 F9000 X84.442 Y139.950
G1 F1800 X113.839 Y169.347 E594.07309
G0 F9000 X113.391 Y169.606
G1 F1800 X84.442 Y140.657 E600.21410
G0 F9000 X84.442 Y141.364
G1 F1800 X112.943 Y169.865 E606.26008
G0 F9000 X112.495 Y170.124
G1 F1800 X84.442 Y142.071 E612.21102
G0 F9000 X84.442 Y142.779
G1 F1800 X112.046 Y170.383 E618.06671
G0 F9000 X111.598 Y170.641
G1 F1800 X84.442 Y143.486 E623.82726
G0 F9000 X84.442 Y144.193
G1 F1800 X111.150 Y170.900 E629.49278
G0 F9000 X110.701 Y171.159
G1 F1800 X84.442 Y144.900 E635.06315
G0 F9000 X84.442 Y145.607
G1 F1800 X110.253 Y171.418 E640.53849
G0 F9000 X109.805 Y171.677
G1 F1800 X84.442 Y146.314 E645.91880
G0 F9000 X84.442 Y147.021
G1 F1800 X109.356 Y171.935 E651.20385
G0 F9000 X108.908 Y172.194
G1 F1800 X84.442 Y147.728 E656.39388
G0 F9000 X84.442 Y148.435
G1 F1800 X107.755 Y171.748 E661.33931
G0 F9000 X106.082 Y170.782
G1 F1800 X84.442 Y149.142 E665.92985
G0 F9000 X84.442 Y149.850
G1 F1800 X104.409 Y169.816 E670.16538
G0 F9000 X102.736 Y168.850
G1 F1800 X84.442 Y150.557 E674.04602
G0 F9000 X84.442 Y151.264
G1 F1800 X101.063 Y167.884 E677.57176
G0 F9000 X99.390 Y166.918
G1 F1800 X84.442 Y151.971 E680.74260
G0 F9000 X84.442 Y152.678
G1 F1800 X97.717 Y165.953 E683.55866
G0 F9000 X96.044 Y164.987
G1 F1800 X84.442 Y153.385 E686.01981
G0 F9000 X84.442 Y154.092
G1 F1800 X94.370 Y164.020 E688.12586
G0 F9000 X92.697 Y163.054
G1 F1800 X84.442 Y154.799 E689.87701
G0 F9000 X84.442 Y155.506
G1 F1800 X91.024 Y162.088 E691.27326
G0 F9000 X89.351 Y161.122
G1 F1800 X84.442 Y156.214 E692.31451
G0 F9000 X84.442 Y156.921
G1 F1800 X87.678 Y160.156 E693.00087
G0 F9000 X86.005 Y159.190
G1 F1800 X84.442 Y157.628 E693.33232
;LAYER:1
M106 S127
G0 F9000 X84.268 Y158.391 Z0.450
;TYPE:WALL-INNER
G1 F2520 X84.268 Y130.157 E695.44987
G1 X108.719 Y116.041 E697.56736
G1 X133.170 Y130.157 E699.68485
G1 X133.170 Y158.391 E701.80240
G1 X108.719 Y172.507 E703.91989
G1 X84.268 Y158.391 E706.03738
G0 F9000 X83.768 Y158.679
;TYPE:WALL-OUTER
G1 F1920 X83.768 Y129.869 E708.19813
G1 X108.719 Y115.463 E710.35897
G1 X133.670 Y129.869 E712.51981
G1 X133.670 Y158.679 E714.68056
G1 X108.719 Y173.085 E716.84140
G1 X83.768 Y158.679 E719.00224
G0 F9000 X84.543 Y158.347
;TYPE:SKIN
G1 F1740 X120.085 Y122.805 E722.77204
G0 F9000 X120.534 Y123.064
G1 F1740 X84.992 Y158.606 E726.54183
G0 F9000 X85.440 Y158.864
G1 F1740 X120.982 Y123.322 E730.31163
G0 F9000 X121.430 Y123.581
G1 F1740 X85.888 Y159.123 E734.08143
G0 F9000 X86.337 Y159.382
G1 F1740 X121.879 Y123.840 E737.85123
G0 F9000 X122.327 Y124.099
G1 F1740 X86.785 Y159.641 E741.62103
G0 F9000 X87.233 Y159.900
G1 F1740 X122.775 Y124.358 E745.39083
G0 F9000 X123.223 Y124.616
G1 F1740 X87.681 Y160.158 E749.16063
G0 F9000 X88.130 Y160.417
G1 F1740 X123.672 Y124.875 E752.93042
G0 F9000 X124.120 Y125.134
G1 F1740 X88.578 Y160.676 E756.70022
G0 F9000 X89.026 Y160.935
G1 F1740 X124.568 Y125.393 E760.47002
G0 F9000 X125.017 Y125.652
G1 F1740 X89.475 Y161.194 E764.23982
G0 F9000 X89.922 Y161.453
G1 F1740 X125.465 Y125.910 E768.00972
G0 F9000 X125.913 Y126.169
G1 F1740 X90.371 Y161.712 E771.77957
G0 F9000 X90.819 Y161.971
G1 F1740 X126.361 Y126.429 E775.54937
G0 F9000 X126.809 Y126.688
G1 F1740 X91.267 Y162.230 E779.31917
G0 F9000 X91.715 Y162.488
G1 F1740 X127.258 Y126.946 E783.08902
G0 F9000 X127.706 Y127.205
G1 F1740 X92.164 Y162.747 E786.85882
G0 F9000 X92.612 Y163.006
G1 F1740 X128.154 Y127.464 E790.62862
G0 F9000 X128.602 Y127.723
G1 F1740 X93.060 Y163.265 E794.39842
G0 F9000 X93.509 Y163.524
G1 F1740 X129.051 Y127.982 E798.16822
G0 F9000 X129.499 Y128.240
G1 F1740 X93.957 Y163.782 E801.93801
G0 F9000 X94.405 Y164.041
G1 F1740 X129.947 Y128.499 E805.70781
G0 F9000 X130.396 Y128.758
G1 F1740 X94.854 Y164.300 E809.47761
G0 F9000 X95.302 Y164.559
G1 F1740 X130.844 Y129.017 E813.24741
G0 F9000 X131.292 Y129.276
G1 F1740 X95.750 Y164.818 E817.01721
G0 F9000 X96.199 Y165.076
G1 F1740 X131.741 Y129.534 E820.78701
G0 F9000 X132.189 Y129.793
G1 F1740 X96.647 Y165.335 E824.55680
G0 F9000 X97.095 Y165.594
G1 F1740 X132.637 Y130.052 E828.32660
G0 F9000 X132.994 Y130.403
G1 F1740 X97.543 Y165.853 E832.08670
G0 F9000 X97.992 Y166.112
G1 F1740 X132.994 Y131.110 E835.79922
G0 F9000 X132.994 Y131.817
G1 F1740 X98.440 Y166.370 E839.46417
G0 F9000 X98.888 Y166.629
G1 F1740 X132.994 Y132.524 E843.08161
G0 F9000 X132.994 Y133.231
G1 F1740 X99.337 Y166.888 E846.65147
G0 F9000 X99.785 Y167.147
G1 F1740 X132.994 Y133.938 E850.17382
G0 F9000 X132.994 Y134.645
G1 F1740 X100.233 Y167.406 E853.64865
G0 F9000 X100.682 Y167.664
G1 F1740 X132.994 Y135.352 E857.07585
G0 F9000 X132.994 Y136.060
G1 F1740 X101.130 Y167.923 E860.45548
G0 F9000 X101.578 Y168.182
G1 F1740 X132.994 Y136.767 E863.78760
G0 F9000 X132.994 Y137.474
G1 F1740 X102.027 Y168.441 E867.07215
G0 F9000 X102.475 Y168.700
G1 F1740 X132.994 Y138.181 E870.30918
G0 F9000 X132.994 Y138.888
G1 F1740 X102.923 Y168.958 E873.49864
G0 F9000 X103.371 Y169.217
G1 F1740 X132.994 Y139.595 E876.64058
G0 F9000 X132.994 Y140.302
G1 F1740 X103.820 Y169.476 E879.73495
G0 F9000 X104.268 Y169.735
G1 F1740 X132.994 Y141.009 E882.78180
G0 F9000 X132.994 Y141.716
G1 F1740 X104.716 Y169.994 E885.78113
G0 F9000 X105.165 Y170.252
G1 F1740 X132.994 Y142.424 E888.73279
G0 F9000 X132.994 Y143.131
G1 F1740 X105.613 Y170.511 E891.63693
G0 F9000 X106.061 Y170.770
G1 F1740 X132.994 Y143.838 E894.49355
G0 F9000 X132.994 Y144.545
G1 F1740 X106.510 Y171.029 E897.30261
G0 F9000 X106.958 Y171.288
G1 F1740 X132.994 Y145.252 E900.06414
G0 F9000 X132.994 Y145.959
G1 F1740 X107.405 Y171.547 E902.77821
G0 F9000 X107.854 Y171.806
G1 F1740 X132.994 Y146.666 E905.44471
G0 F9000 X132.994 Y147.373
G1 F1740 X108.302 Y172.065 E908.06369
G0 F9000 X108.842 Y172.232
G1 F1740 X132.994 Y148.080 E910.62540
G0 F9000 X132.994 Y148.787
G1 F1740 X110.515 Y171.266 E913.00966
G0 F9000 X112.188 Y170.301
G1 F1740 X132.994 Y149.495 E915.21647
G0 F9000 X132.994 Y150.202
G1 F1740 X113.861 Y169.335 E917.24583
G0 F9000 X115.534 Y168.369
G1 F1740 X132.994 Y150.909 E919.09774
G0 F9000 X132.994 Y151.616
G1 F1740 X117.207 Y167.403 E920.77221
G0 F9000 X118.880 Y166.437
G1 F1740 X132.994 Y152.323 E922.26922
G0 F9000 X132.994 Y153.030
G1 F1740 X120.553 Y165.471 E923.58879
G0 F9000 X122.226 Y164.505
G1 F1740 X132.994 Y153.737 E924.73091
G0 F9000 X132.994 Y154.444
G1 F1740 X123.899 Y163.539 E925.69558
G0 F9000 X125.572 Y162.573
G1 F1740 X132.994 Y155.151 E926.48280
G0 F9000 X132.994 Y155.859
G1 F1740 X127.245 Y161.607 E927.09252
G0 F9000 X128.919 Y160.641
G1 F1740 X132.994 Y156.566 E927.52474
G0 F9000 X132.994 Y157.273
G1 F1740 X130.592 Y159.675 E927.77951
G0 F9000 X132.265 Y158.709
G1 F1740 X132.994 Y157.980 E927.85683
G0 F9000 X119.637 Y122.546
G1 F1740 X84.443 Y157.740 E931.58972
G0 F9000 X84.443 Y157.033
G1 F1740 X119.189 Y122.287 E935.27509
G0 F9000 X118.740 Y122.028
G1 F1740 X84.443 Y156.326 E938.91289
G0 F9000 X84.443 Y155.619
G1 F1740 X118.292 Y121.770 E942.50312
G0 F9000 X117.844 Y121.511
G1 F1740 X84.443 Y154.912 E946.04583
G0 F9000 X84.443 Y154.205
G1 F1740 X117.395 Y121.252 E949.54097
G0 F9000 X116.947 Y120.993
G1 F1740 X84.443 Y153.498 E952.98859
G0 F9000 X84.443 Y152.790
G1 F1740 X116.499 Y120.734 E956.38864
G0 F9000 X116.051 Y120.476
G1 F1740 X84.443 Y152.083 E959.74113
G0 F9000 X84.443 Y151.376
G1 F1740 X115.603 Y120.216 E963.04614
G0 F9000 X100.950 Y120.727
G1 F1740 X84.443 Y137.234 E964.79697
G0 F9000 X84.443 Y137.941
G1 F1740 X102.623 Y119.761 E966.72525
G0 F9000 X104.296 Y118.796
G1 F1740 X84.443 Y138.648 E968.83093
G0 F9000 X84.443 Y139.355
G1 F1740 X105.969 Y117.830 E971.11405
G0 F9000 X107.642 Y116.864
G1 F1740 X84.443 Y140.063 E973.57468
G0 F9000 X84.443 Y140.770
G1 F1740 X108.878 Y116.334 E976.16646
G0 F9000 X109.327 Y116.593
G1 F1740 X84.443 Y141.477 E978.80580
G0 F9000 X84.443 Y142.184
G1 F1740 X109.775 Y116.852 E981.49267
G0 F9000 X110.223 Y117.111
G1 F1740 X84.443 Y142.891 E984.22705
G0 F9000 X84.443 Y143.598
G1 F1740 X110.672 Y117.369 E987.00905
G0 F9000 X111.120 Y117.628
G1 F1740 X84.443 Y144.305 E989.83858
G0 F9000 X84.443 Y145.012
G1 F1740 X111.568 Y117.887 E992.71562
G0 F9000 X112.017 Y118.146
G1 F1740 X84.443 Y145.719 E995.64023
G0 F9000 X84.443 Y146.426
G1 F1740 X112.465 Y118.405 E998.61236
G0 F9000 X112.913 Y118.663
G1 F1740 X84.443 Y147.134 E1001.63211
G0 F9000 X84.443 Y147.841
G1 F1740 X113.361 Y118.922 E1004.69938
G0 F9000 X113.810 Y119.181
G1 F1740 X84.443 Y148.548 E1007.81422
G0 F9000 X84.443 Y149.255
G1 F1740 X114.258 Y119.440 E1010.97658
G0 F9000 X114.706 Y119.699
G1 F1740 X84.443 Y149.962 E1014.18646
G0 F9000 X84.443 Y150.669
G1 F1740 X115.155 Y119.957 E1017.44396
G0 F9000 X99.277 Y121.693
G1 F1740 X84.443 Y136.527 E1019.01734
G0 F9000 X84.443 Y135.820
G1 F1740 X97.604 Y122.659 E1020.41327
G0 F9000 X95.931 Y123.625
G1 F1740 X84.443 Y135.113 E1021.63176
G0 F9000 X84.443 Y134.406
G1 F1740 X94.258 Y124.591 E1022.67280
G0 F9000 X92.585 Y125.557
G1 F1740 X84.443 Y133.699 E1023.53639
G0 F9000 X84.443 Y132.991
G1 F1740 X90.912 Y126.523 E1024.22248
G0 F9000 X89.238 Y127.489
G1 F1740 X84.443 Y132.284 E1024.73106
G0 F9000 X84.443 Y131.577
G1 F1740 X87.565 Y128.455 E1025.06220
G0 F9000 X85.892 Y129.421
G1 F1740 X84.443 Y130.870 E1025.21589
;LAYER:2
M106 S255
G0 F9000 X84.268 Y130.157 Z0.600
;TYPE:WALL-INNER
G1 F3300 X108.719 Y116.041 E1027.33338
G1 X133.170 Y130.157 E1029.45087
G1 X133.170 Y158.391 E1031.56842
G1 X108.719 Y172.507 E1033.68591
G1 X84.268 Y158.391 E1035.80340
G1 X84.268 Y130.157 E1037.92095
G0 F9000 X83.768 Y129.869
;TYPE:WALL-OUTER
G1 F2100 X108.719 Y115.463 E1040.08179
G1 X133.670 Y129.869 E1042.24263
G1 X133.670 Y158.679 E1044.40338
G1 X108.719 Y173.085 E1046.56422
G1 X83.768 Y158.679 E1048.72506
G1 X83.768 Y129.869 E1050.88581
G0 F9000 X84.574 Y130.183
;TYPE:SKIN
G1 F1800 X120.115 Y165.723 E1054.65545
G0 F9000 X120.563 Y165.465
G1 F1800 X85.023 Y129.924 E1058.42509
G0 F9000 X85.471 Y129.665
G1 F1800 X121.011 Y165.205 E1062.19467
G0 F9000 X121.459 Y164.946
G1 F1800 X85.919 Y129.406 E1065.96426
