;FLAVOR:UltiGCode
;TIME:1308
;MATERIAL:559
;MATERIAL2:0

;Layer count: 83
;LAYER:0
M107
G0 F9000 X105.867 Y99.319 Z0.300
G0 X105.449 Y99.783
;TYPE:SKIRT
G1 F1200 X105.867 Y99.319 E0.07494
G1 X107.672 Y98.009 E0.34257
G1 X108.175 Y97.643 E0.41722
G1 X110.213 Y96.736 E0.68491
G1 X110.781 Y96.483 E0.75952
G1 X113.574 Y95.889 E1.10218
G1 X116.426 Y95.889 E1.44442
G1 X119.217 Y96.482 E1.78682
G1 X121.257 Y97.390 E2.05477
G1 X121.826 Y97.644 E2.12954
G1 X123.630 Y98.954 E2.39708
G1 X124.135 Y99.321 E2.47199
G1 X125.625 Y100.977 E2.73931
G1 X126.044 Y101.441 E2.81433
G1 X127.154 Y103.366 E3.08099
G1 X127.469 Y103.909 E3.15632
G1 X128.158 Y106.030 E3.42393
G1 X128.351 Y106.624 E3.49888
G1 X128.585 Y108.840 E3.76627
G1 X128.651 Y109.463 E3.84145
G1 X128.351 Y112.305 E4.18439
G1 X127.968 Y113.482 E4.33292
G1 X129.714 Y115.051 E4.61461
G1 X131.563 Y115.450 E4.84159
G1 X131.563 Y116.713 E4.99315
G1 X132.201 Y117.287 E5.09614
G1 X134.228 Y119.155 E5.42691
G1 X134.039 Y119.589 E5.48372
G1 X136.019 Y122.279 E5.88453
G1 X135.386 Y122.982 E5.99805
G1 X135.552 Y123.557 E6.06987
G1 X135.238 Y130.098 E6.85570
G1 X129.400 Y127.118 E7.64225
G1 X128.274 Y125.946 E7.83728
G1 X128.006 Y125.815 E7.87307
G1 X125.370 Y126.387 E8.19676
G1 X121.127 Y127.825 E8.73436
G1 X121.127 Y127.824 E8.73448
G1 X120.608 Y128.002 E8.80032
G1 X120.098 Y128.228 E8.86726
G1 X119.731 Y128.305 E8.91226
G1 X119.394 Y128.393 E8.95406
G1 X118.567 Y128.538 E9.05481
G1 X117.127 Y128.536 E9.22761
G1 X115.652 Y128.225 E9.40850
G1 X114.998 Y127.933 E9.49445
G1 X114.347 Y128.223 E9.57997
G1 X112.884 Y128.535 E9.75948
G1 X112.320 Y128.538 E9.82716
G1 X111.429 Y128.536 E9.93408
G1 X110.514 Y128.376 E10.04555
G1 X110.325 Y128.316 E10.06934
G1 X109.892 Y128.221 E10.12254
G1 X109.403 Y128.006 E10.18664
G1 X105.414 Y126.647 E10.69234
G1 X104.880 Y126.464 E10.76007
G1 X104.666 Y126.396 E10.78702
G1 X101.988 Y125.814 E11.11588
G1 X101.731 Y125.943 E11.15039
G1 X101.286 Y126.405 E11.22736
G1 X100.597 Y127.119 E11.34643
G1 X94.778 Y130.090 E12.13046
G1 X94.446 Y123.561 E12.91495
G1 X94.610 Y122.994 E12.98578
G1 X93.981 Y122.301 E13.09809
G1 X96.254 Y119.184 E13.56102
G1 X97.124 Y118.028 E13.73463
G1 X97.440 Y117.619 E13.79666
G1 X98.437 Y116.719 E13.95783
G1 X98.437 Y115.452 E14.10987
G1 X100.283 Y115.052 E14.33653
G1 X102.029 Y113.476 E14.61878
G1 X101.649 Y112.305 E14.76652
G1 X101.349 Y109.465 E15.10921
G1 X101.583 Y107.244 E15.37721
G1 X101.649 Y106.624 E15.45203
G1 X102.338 Y104.504 E15.71953
G1 X102.531 Y103.912 E15.79425
G1 X103.646 Y101.978 E16.06213
G1 X103.959 Y101.439 E16.13693
G1 X105.449 Y99.783 E16.40425
G0 F9000 X105.746 Y100.051
G1 F1200 X106.136 Y99.618 E16.47418
G1 X107.907 Y98.332 E16.73681
G1 X108.376 Y97.992 E16.80633
G1 X110.376 Y97.101 E17.06907
G1 X110.376 Y97.102 E17.06919
G1 X110.905 Y96.865 E17.13875
G1 X113.616 Y96.289 E17.47133
G1 X116.384 Y96.289 E17.80349
G1 X119.093 Y96.865 E18.13584
G1 X121.094 Y97.755 E18.39864
G1 X121.624 Y97.992 E18.46830
G1 X123.395 Y99.277 E18.73087
G1 X123.866 Y99.620 E18.80079
G1 X125.328 Y101.245 E19.06310
G1 X125.718 Y101.678 E19.13303
G1 X126.808 Y103.567 E19.39474
G1 X127.101 Y104.073 E19.46490
G1 X127.777 Y106.154 E19.72747
G1 X127.958 Y106.708 E19.79741
G1 X128.187 Y108.882 E20.05973
G1 X128.249 Y109.463 E20.12985
G1 X127.958 Y112.221 E20.46264
G1 X127.508 Y113.606 E20.63740
G1 X129.526 Y115.420 E20.96301
G1 X131.163 Y115.773 E21.16397
G1 X131.163 Y116.892 E21.29825
G1 X131.932 Y117.583 E21.42231
G1 X133.748 Y119.256 E21.71861
G1 X133.580 Y119.642 E21.76913
G1 X135.504 Y122.254 E22.15842
G1 X134.940 Y122.881 E22.25962
G1 X135.149 Y123.604 E22.34993
G1 X134.868 Y129.460 E23.05346
G1 X129.642 Y126.793 E23.75753
G1 X128.512 Y125.618 E23.95315
G1 X128.062 Y125.398 E24.01326
G1 X128.045 Y125.397 E24.01530
G1 X125.264 Y126.001 E24.35680
G1 X120.999 Y127.446 E24.89718
G1 X120.450 Y127.633 E24.96677
G1 X119.975 Y127.845 E25.02919
G1 X119.641 Y127.914 E25.07012
G1 X119.309 Y128.002 E25.11134
G1 X118.533 Y128.138 E25.20587
G1 X117.169 Y128.137 E25.36955
G1 X115.777 Y127.843 E25.54028
G1 X114.999 Y127.495 E25.64255
G1 X114.223 Y127.841 E25.74451
G1 X112.840 Y128.135 E25.91418
G1 X112.319 Y128.138 E25.97670
G1 X111.464 Y128.137 E26.07930
G1 X110.609 Y127.986 E26.18349
G1 X110.429 Y127.929 E26.20615
G1 X110.017 Y127.839 E26.25675
G1 X109.543 Y127.631 E26.31887
G1 X105.543 Y126.268 E26.82597
G1 X104.978 Y126.076 E26.89758
G1 X104.769 Y126.009 E26.92391
G1 X101.956 Y125.398 E27.26934
G1 X101.924 Y125.399 E27.27319
G1 X101.490 Y125.616 E27.33141
G1 X100.998 Y126.127 E27.41654
G1 X100.356 Y126.794 E27.52763
G1 X95.146 Y129.453 E28.22955
G1 X94.849 Y123.608 E28.93185
G1 X95.057 Y122.890 E29.02155
G1 X94.496 Y122.273 E29.12162
G1 X96.576 Y119.422 E29.54511
G1 X97.442 Y118.271 E29.71796
G1 X97.735 Y117.892 E29.77545
G1 X98.837 Y116.897 E29.95362
G1 X98.837 Y115.775 E30.08826
G1 X100.472 Y115.421 E30.28900
G1 X102.490 Y113.599 E30.61526
G1 X102.042 Y112.221 E30.78914
G1 X101.751 Y109.465 E31.12170
G1 X101.981 Y107.286 E31.38463
G1 X102.042 Y106.708 E31.45438
G1 X102.718 Y104.628 E31.71683
G1 X102.898 Y104.075 E31.78662
G1 X103.992 Y102.179 E32.04929
G1 X104.284 Y101.676 E32.11909
G1 X105.746 Y100.051 E32.38139
G10
G0 F9000 X108.690 Y102.459
;TYPE:WALL-INNER
G11
G1 F1200 X110.287 Y101.300 E32.61818
G1 X112.086 Y100.499 E32.85449
G1 X114.016 Y100.089 E33.09126
G1 X115.984 Y100.089 E33.32742
G1 X117.914 Y100.499 E33.56419
G1 X119.713 Y101.300 E33.80050
G1 X121.310 Y102.459 E34.03729
G1 X122.625 Y103.921 E34.27326
G1 X123.521 Y105.473 E34.48831
G1 X123.611 Y105.629 E34.50992
G1 X124.221 Y107.504 E34.74653
G1 X124.427 Y109.465 E34.98314
G1 X124.221 Y111.424 E35.21952
G1 X123.611 Y113.299 E35.45612
G1 X122.625 Y115.008 E35.69289
G1 X121.310 Y116.470 E35.92886
G1 X120.643 Y116.953 E36.02768
G1 X120.147 Y117.312 E36.10115
G1 X120.468 Y118.169 E36.21097
G1 X123.119 Y117.928 E36.53040
G1 X124.026 Y118.121 E36.64168
G1 X127.363 Y118.841 E37.05133
G1 X127.363 Y118.963 E37.06597
G1 X127.901 Y119.068 E37.13175
G1 X129.361 Y120.381 E37.36738
G1 X130.094 Y121.315 E37.50985
G1 X130.815 Y122.294 E37.65575
G1 X130.912 Y122.631 E37.69784
G1 X130.786 Y122.500 E37.71965
G1 X129.596 Y121.918 E37.87861
G1 X129.041 Y121.630 E37.95364
G1 X127.705 Y121.583 E38.11406
G1 X124.245 Y122.334 E38.53893
G1 X119.779 Y123.847 E39.10477
G1 X119.070 Y124.089 E39.19467
G1 X118.804 Y124.208 E39.22964
G1 X118.202 Y124.338 E39.30354
G1 X117.568 Y124.337 E39.37962
G1 X116.959 Y124.208 E39.45433
G1 X116.497 Y124.003 E39.51498
G1 X116.387 Y123.954 E39.52943
G1 X115.981 Y123.658 E39.58972
G1 X115.885 Y123.589 E39.60391
G1 X114.998 Y122.611 E39.76235
G1 X114.119 Y123.584 E39.91970
G1 X113.608 Y123.955 E39.99547
G1 X113.043 Y124.207 E40.06971
G1 X112.429 Y124.337 E40.14503
G1 X112.311 Y124.338 E40.15919
G1 X111.799 Y124.337 E40.22063
G1 X111.520 Y124.288 E40.25462
G1 X111.416 Y124.255 E40.26771
G1 X111.201 Y124.208 E40.29412
G1 X110.929 Y124.088 E40.32980
G1 X106.189 Y122.473 E40.93071
G1 X105.751 Y122.334 E40.98585
G1 X102.703 Y121.671 E41.36016
G1 X102.293 Y121.584 E41.41046
G1 X100.962 Y121.631 E41.57028
G1 X99.654 Y122.285 E41.74576
G1 X99.216 Y122.499 E41.80426
G1 X99.089 Y122.631 E41.82624
G1 X99.188 Y122.290 E41.86885
G1 X99.632 Y121.681 E41.95929
G1 X100.462 Y120.578 E42.12494
G1 X100.536 Y120.482 E42.13949
G1 X102.104 Y119.067 E42.39293
G1 X102.637 Y118.964 E42.45808
G1 X102.637 Y118.840 E42.47296
G1 X105.750 Y118.165 E42.85520
G1 X106.716 Y117.960 E42.97370
G1 X107.324 Y118.018 E43.04699
G1 X107.333 Y117.969 E43.05297
G1 X109.532 Y118.169 E43.31794
G1 X109.853 Y117.313 E43.42764
G1 X108.690 Y116.470 E43.60001
G1 X107.375 Y115.008 E43.83598
G1 X106.389 Y113.299 E44.07274
G1 X105.779 Y111.424 E44.30935
G1 X105.573 Y109.465 E44.54573
G1 X105.779 Y107.504 E44.78234
G1 X106.388 Y105.631 E45.01868
G1 X107.281 Y104.082 E45.23324
G1 X107.373 Y103.923 E45.25528
G1 X108.690 Y102.459 E45.49159
G0 F9000 X108.955 Y102.751
G1 F1200 X107.692 Y104.154 E45.71812
G1 X106.747 Y105.791 E45.94494
G1 X106.164 Y107.587 E46.17153
G1 X105.966 Y109.465 E46.39814
G1 X106.135 Y111.076 E46.59252
G1 X106.164 Y111.344 E46.62487
G1 X106.663 Y112.883 E46.81901
G1 X106.747 Y113.139 E46.85134
G1 X107.557 Y114.540 E47.04554
G1 X107.692 Y114.774 E47.07796
G1 X108.955 Y116.178 E47.30458
G1 X110.483 Y117.289 E47.53128
G1 X111.962 Y117.946 E47.72549
G1 X112.208 Y118.056 E47.75782
G1 X114.056 Y118.449 E47.98454
G1 X115.944 Y118.449 E48.21110
G1 X117.791 Y118.056 E48.43770
G1 X119.271 Y117.398 E48.63206
G1 X119.517 Y117.288 E48.66440
G1 X121.045 Y116.178 E48.89104
G1 X122.308 Y114.775 E49.11757
G1 X123.119 Y113.372 E49.31203
G1 X123.253 Y113.138 E49.34439
G1 X123.753 Y111.599 E49.53857
G1 X123.836 Y111.344 E49.57075
G1 X124.006 Y109.734 E49.76502
G1 X124.034 Y109.466 E49.79736
G1 X123.836 Y107.587 E50.02409
G1 X123.253 Y105.791 E50.25068
G1 X122.308 Y104.154 E50.47750
G1 X121.045 Y102.751 E50.70403
G1 X119.517 Y101.641 E50.93066
G1 X117.791 Y100.872 E51.15741
G1 X115.944 Y100.480 E51.38399
G1 X114.056 Y100.480 E51.61055
G1 X112.209 Y100.872 E51.83712
G1 X110.483 Y101.641 E52.06387
G1 X108.955 Y102.751 E52.29051
G0 F9000 X109.224 Y103.050
;TYPE:WALL-OUTER
G1 F1200 X108.017 Y104.391 E52.50701
G1 X107.114 Y105.954 E52.72362
G1 X106.557 Y107.670 E52.94012
G1 X106.368 Y109.465 E53.15671
G1 X106.557 Y111.260 E53.37330
G1 X107.114 Y112.975 E53.58968
G1 X108.017 Y114.538 E53.80629
G1 X109.224 Y115.879 E54.02280
G1 X110.684 Y116.940 E54.23937
G1 X112.333 Y117.673 E54.45592
G1 X114.098 Y118.049 E54.67247
G1 X115.902 Y118.049 E54.88895
G1 X117.667 Y117.673 E55.10551
G1 X119.316 Y116.940 E55.32206
G1 X120.776 Y115.879 E55.53863
G1 X121.983 Y114.538 E55.75514
G1 X122.886 Y112.975 E55.97175
G1 X123.443 Y111.260 E56.18813
G1 X123.632 Y109.465 E56.40472
G1 X123.443 Y107.670 E56.62131
G1 X122.886 Y105.954 E56.83781
G1 X121.983 Y104.391 E57.05442
G1 X120.776 Y103.050 E57.27092
G1 X119.316 Y101.989 E57.48750
G1 X117.667 Y101.255 E57.70410
G1 X115.902 Y100.880 E57.92063
G1 X114.098 Y100.880 E58.13711
G1 X112.333 Y101.255 E58.35363
G1 X110.684 Y101.989 E58.57023
G1 X109.224 Y103.050 E58.78681
G0 F9000 X108.425 Y102.158
G1 F1200 X110.084 Y100.953 E59.03286
G1 X111.962 Y100.117 E59.27954
G1 X113.975 Y99.689 E59.52650
G1 X116.025 Y99.689 E59.77250
G1 X118.038 Y100.117 E60.01946
G1 X119.916 Y100.953 E60.26614
G1 X121.575 Y102.158 E60.51219
G1 X122.954 Y103.689 E60.75945
G1 X123.979 Y105.467 E61.00573
G1 X124.614 Y107.420 E61.25216
G1 X124.830 Y109.465 E61.49893
G1 X124.614 Y111.510 E61.74569
G1 X123.979 Y113.462 E61.99202
G1 X122.954 Y115.240 E62.23829
G1 X121.575 Y116.771 E62.48555
G1 X120.628 Y117.458 E62.62594
G1 X120.735 Y117.743 E62.66248
G1 X123.140 Y117.524 E62.95227
G1 X127.763 Y118.518 E63.51971
G1 X127.763 Y118.634 E63.53363
G1 X128.085 Y118.697 E63.57300
G1 X129.642 Y120.096 E63.82418
G1 X129.666 Y120.118 E63.82809
G1 X130.417 Y121.078 E63.97435
G1 X131.179 Y122.115 E64.12878
G1 X131.725 Y124.005 E64.36485
G1 X131.724 Y124.038 E64.36881
G1 X131.697 Y124.025 E64.37241
G1 X130.547 Y122.828 E64.57160
G1 X129.412 Y122.273 E64.72321
G1 X128.937 Y122.027 E64.78740
G1 X127.741 Y121.984 E64.93101
G1 X124.352 Y122.720 E65.34717
G1 X119.216 Y124.462 E65.99798
G1 X118.927 Y124.590 E66.03591
G1 X118.237 Y124.738 E66.12059
G1 X117.527 Y124.737 E66.20579
G1 X116.835 Y124.591 E66.29066
G1 X116.335 Y124.368 E66.35636
G1 X116.188 Y124.303 E66.37564
G1 X115.746 Y123.982 E66.44119
G1 X115.616 Y123.889 E66.46038
G1 X115.271 Y123.505 E66.52232
G1 X114.999 Y123.206 E66.57083
G1 X114.387 Y123.884 E66.68043
G1 X113.811 Y124.302 E66.76583
G1 X113.167 Y124.589 E66.85044
G1 X112.471 Y124.737 E66.93583
G1 X112.312 Y124.738 E66.95491
G1 X111.764 Y124.737 E67.02067
G1 X111.426 Y124.678 E67.06184
G1 X111.077 Y124.591 E67.10500
G1 X110.784 Y124.461 E67.14347
G1 X106.064 Y122.853 E67.74183
G1 X105.648 Y122.721 E67.79421
G1 X102.258 Y121.985 E68.21048
G1 X101.063 Y122.028 E68.35398
G1 X99.835 Y122.642 E68.51873
G1 X99.455 Y122.828 E68.56950
G1 X98.303 Y124.025 E68.76886
G1 X98.275 Y124.038 E68.77256
G1 X98.274 Y124.006 E68.77640
G1 X98.822 Y122.112 E69.01300
G1 X99.309 Y121.445 E69.11211
G1 X100.145 Y120.333 E69.27905
G1 X100.239 Y120.211 E69.29753
G1 X101.917 Y118.696 E69.56882
G1 X102.237 Y118.634 E69.60794
G1 X102.237 Y118.517 E69.62198
G1 X106.693 Y117.556 E70.16899
G1 X106.999 Y117.585 E70.20587
G1 X107.008 Y117.537 E70.21173
G1 X109.265 Y117.743 E70.48370
G1 X109.372 Y117.458 E70.52023
G1 X108.425 Y116.771 E70.66063
G1 X107.046 Y115.240 E70.90788
G1 X106.021 Y113.462 E71.15416
G1 X105.386 Y111.510 E71.40048
G1 X105.170 Y109.465 E71.64725
G1 X105.386 Y107.420 E71.89401
G1 X106.021 Y105.467 E72.14045
G1 X107.046 Y103.689 E72.38672
G1 X108.425 Y102.158 E72.63398
G0 F9000 X108.622 Y102.385
G0 X106.749 Y105.791
G0 X105.967 Y109.465
G0 X106.749 Y113.138
G0 X108.957 Y116.177
G0 X110.143 Y117.214
;TYPE:SKIN
G1 F900 X116.999 Y124.070 E73.79748
G0 F9000 X117.690 Y124.196
G1 F900 X111.298 Y117.803 E74.88233
G0 F9000 X112.272 Y118.211
G1 F900 X118.245 Y124.184 E75.89598
G0 F9000 X118.709 Y124.083
G1 F900 X112.990 Y118.364 E76.86653
G0 F9000 X113.709 Y118.517
G1 F900 X119.115 Y123.923 E77.78395
G0 F9000 X119.538 Y123.781
G1 F900 X114.345 Y118.588 E78.66524
G0 F9000 X114.911 Y118.588
G1 F900 X119.960 Y123.637 E79.52208
G0 F9000 X114.887 Y122.524
G1 F900 X109.912 Y117.549 E80.36636
G0 F9000 X109.758 Y117.960
G1 F900 X114.619 Y122.821 E81.19130
G0 F9000 X114.350 Y123.118
G1 F900 X109.542 Y118.310 E82.00725
G0 F9000 X108.919 Y118.253
G1 F900 X114.081 Y123.415 E82.88327
G0 F9000 X113.765 Y123.665
G1 F900 X108.297 Y118.197 E83.81122
G0 F9000 X107.675 Y118.140
G1 F900 X113.419 Y123.884 E84.78601
G0 F9000 X113.028 Y124.059
G1 F900 X107.106 Y118.137 E85.79100
G0 F9000 X106.542 Y118.139
G1 F900 X112.566 Y124.163 E86.81331
G0 F9000 X112.033 Y124.196
G1 F900 X106.077 Y118.239 E87.82416
G0 F9000 X105.612 Y118.339
G1 F900 X111.374 Y124.102 E88.80209
G0 F9000 X110.498 Y123.791
G1 F900 X105.147 Y118.441 E89.71010
G0 F9000 X104.682 Y118.541
G1 F900 X109.640 Y123.499 E90.55150
G0 F9000 X108.782 Y123.207
G1 F900 X104.216 Y118.641 E91.32638
G0 F9000 X103.751 Y118.742
G1 F900 X107.925 Y122.915 E92.03464
G0 F9000 X107.066 Y122.622
G1 F900 X103.286 Y118.842 E92.67613
G0 F9000 X102.821 Y118.943
G1 F900 X106.209 Y122.331 E93.25109
G0 F9000 X105.433 Y122.121
G1 F900 X102.453 Y119.141 E93.75682
G0 F9000 X102.049 Y119.303
G1 F900 X104.711 Y121.965 E94.20857
G0 F9000 X103.989 Y121.808
G1 F900 X101.752 Y119.571 E94.58820
G0 F9000 X101.455 Y119.840
G1 F900 X103.267 Y121.652 E94.89571
G0 F9000 X102.544 Y121.495
G1 F900 X101.157 Y120.108 E95.13109
G0 F9000 X100.861 Y120.377
G1 F900 X101.940 Y121.456 E95.31421
G0 F9000 X101.393 Y121.475
G1 F900 X100.576 Y120.657 E95.45294
G0 F9000 X100.334 Y120.981
G1 F900 X100.682 Y121.613 E95.54406
G1 X99.971 Y121.467 E95.61222
G1 X99.928 Y121.990 E95.65740
G1 X99.608 Y121.953 E95.69606
G0 F9000 X115.476 Y118.588
G1 F900 X120.383 Y123.494 E96.52872
G0 F9000 X120.805 Y123.351
G1 F900 X116.027 Y118.573 E97.33957
G0 F9000 X116.494 Y118.474
G1 F900 X121.228 Y123.208 E98.14296
G0 F9000 X121.650 Y123.064
G1 F900 X116.961 Y118.375 E98.93871
G0 F9000 X117.427 Y118.275
G1 F900 X122.073 Y122.922 E99.72724
G0 F9000 X122.495 Y122.778
G1 F900 X117.884 Y118.167 E100.50976
G0 F9000 X118.276 Y117.993
G1 F900 X122.918 Y122.635 E101.29753
G0 F9000 X123.340 Y122.492
G1 F900 X118.667 Y117.818 E102.09065
G0 F9000 X119.059 Y117.644
G1 F900 X123.763 Y122.349 E102.88903
G0 F9000 X124.185 Y122.205
G1 F900 X119.450 Y117.470 E103.69259
G0 F9000 X119.800 Y117.255
