;FLAVOR:UltiGCode
;TIME:8986
;MATERIAL:8889
;MATERIAL2:0

;Layer count: 218
;LAYER:0
M107
G0 F9000 X32.232 Y31.026 Z0.300
;TYPE:SKIRT
G1 F1200 X69.132 Y31.025 E4.42800
G1 X69.132 Y57.085 E7.55520
G1 X32.232 Y57.085 E11.98320
G1 X32.232 Y31.026 E15.11028
G0 F9000 X102.422 Y61.164
G1 F1200 X196.534 Y61.164 E26.40372
G1 X196.534 Y66.457 E27.03888
G1 X196.536 Y72.564 E27.77172
G1 X102.424 Y72.564 E39.06516
G1 X102.424 Y67.271 E39.70032
G1 X102.422 Y61.164 E40.43316
G0 F9000 X110.634 Y101.276
G1 F1200 X110.906 Y101.223 E40.46641
G1 X111.770 Y101.154 E40.57042
G1 X112.030 Y101.140 E40.60167
G1 X112.857 Y101.178 E40.70101
G1 X113.118 Y101.196 E40.73241
G1 X113.957 Y101.342 E40.83460
G1 X114.212 Y101.394 E40.86583
G1 X115.008 Y101.641 E40.96584
G1 X115.822 Y101.910 E41.06872
G1 X116.416 Y102.048 E41.14190
G1 X117.024 Y102.131 E41.21553
G1 X117.507 Y102.152 E41.27355
G1 X118.020 Y101.857 E41.34456
G1 X118.906 Y101.493 E41.45951
G1 X119.833 Y101.254 E41.57438
G1 X120.779 Y101.141 E41.68871
G1 X121.735 Y101.156 E41.80344
G1 X124.089 Y101.515 E42.08919
G1 X125.096 Y103.484 E42.35458
G1 X125.836 Y104.965 E42.55325
G1 X124.798 Y107.032 E42.83081
G1 X124.259 Y107.829 E42.94626
G1 X123.612 Y108.548 E43.06233
G1 X122.196 Y109.752 E43.28538
G1 X120.386 Y109.749 E43.50258
G1 X120.268 Y109.750 E43.51674
G1 X119.781 Y109.748 E43.57518
G1 X119.203 Y109.752 E43.64454
G1 X118.532 Y109.751 E43.72506
G1 X114.905 Y109.755 E44.16030
G1 X113.974 Y109.753 E44.27202
G1 X113.293 Y109.755 E44.35374
G1 X112.788 Y109.754 E44.41434
G1 X112.498 Y109.756 E44.44914
G1 X112.009 Y109.753 E44.50782
G1 X111.740 Y109.754 E44.54010
G1 X111.516 Y109.751 E44.56698
G1 X111.247 Y109.753 E44.59926
G1 X111.013 Y109.750 E44.62735
G1 X110.719 Y109.751 E44.66263
G1 X110.520 Y109.749 E44.68651
G1 X110.163 Y109.751 E44.72935
G1 X109.717 Y109.750 E44.78287
G1 X109.537 Y109.752 E44.80447
G1 X108.894 Y109.751 E44.88163
G1 X107.930 Y109.749 E44.99731
G1 X105.790 Y109.738 E45.25411
G1 X104.008 Y106.308 E45.71795
G1 X105.296 Y104.456 E45.98865
G1 X106.012 Y103.655 E46.11757
G1 X106.682 Y103.069 E46.22439
G1 X106.862 Y102.914 E46.25289
G1 X107.734 Y102.332 E46.37870
G1 X108.699 Y101.844 E46.50846
G1 X109.727 Y101.477 E46.63945
G1 X110.634 Y101.276 E46.75093
G0 F9000 X159.494 Y107.582
G1 F1200 X161.188 Y106.342 E47.00285
G1 X160.252 Y104.492 E47.25165
G1 X161.254 Y102.549 E47.51398
G1 X162.034 Y101.057 E47.71602
G1 X164.370 Y100.705 E47.99950
G1 X165.327 Y100.690 E48.11435
G1 X166.274 Y100.805 E48.22883
G1 X167.194 Y101.043 E48.34286
G1 X168.078 Y101.404 E48.45745
G1 X168.593 Y101.700 E48.52873
G1 X169.080 Y101.679 E48.58722
G1 X169.691 Y101.597 E48.66120
G1 X170.299 Y101.457 E48.73607
G1 X171.053 Y101.210 E48.83128
G1 X171.863 Y100.959 E48.93304
G1 X172.928 Y100.761 E49.06303
G1 X173.833 Y100.709 E49.17181
G1 X174.112 Y100.694 E49.20534
G1 X174.967 Y100.763 E49.30827
G1 X175.227 Y100.785 E49.33958
G1 X176.041 Y100.956 E49.43939
G1 X176.295 Y101.010 E49.47056
G1 X177.333 Y101.368 E49.60232
G1 X178.092 Y101.743 E49.70391
G1 X178.327 Y101.861 E49.73546
G1 X179.029 Y102.327 E49.83657
G1 X179.244 Y102.472 E49.86769
G1 X179.872 Y103.013 E49.96716
G1 X180.071 Y103.185 E49.99872
G1 X180.756 Y103.947 E50.12168
G1 X181.278 Y104.684 E50.23005
G1 X181.435 Y104.914 E50.26347
G1 X181.905 Y105.819 E50.38584
G1 X182.289 Y106.830 E50.51562
G1 X182.548 Y107.900 E50.64773
G1 X182.647 Y108.804 E50.75686
G1 X182.675 Y109.080 E50.79015
G1 X182.653 Y109.937 E50.89302
G1 X182.644 Y110.197 E50.92424
G1 X182.489 Y111.198 E51.04579
G1 X182.200 Y112.245 E51.17613
G1 X181.836 Y113.113 E51.28908
G1 X181.484 Y113.894 E51.39188
G1 X181.274 Y114.500 E51.46884
G1 X181.129 Y115.089 E51.54163
G1 X181.056 Y115.574 E51.60048
G1 X181.295 Y116.117 E51.67168
G1 X181.560 Y117.034 E51.78622
G1 X181.698 Y117.979 E51.90082
G1 X181.709 Y118.929 E52.01483
G1 X181.594 Y119.876 E52.12930
G1 X180.991 Y122.174 E52.41440
G1 X178.955 Y122.962 E52.67638
G1 X177.382 Y123.565 E52.87854
G1 X175.649 Y122.440 E53.12647
G1 X174.251 Y123.973 E53.37544
G1 X172.078 Y123.723 E53.63792
G1 X170.410 Y123.523 E53.83951
G1 X169.396 Y121.725 E54.08722
G1 X167.446 Y122.429 E54.33600
G1 X165.644 Y121.205 E54.59741
G1 X164.252 Y120.254 E54.79971
G1 X164.193 Y118.185 E55.04809
G1 X162.138 Y117.908 E55.29692
G1 X161.112 Y115.981 E55.55889
G1 X161.113 Y115.981 E55.55901
G1 X160.312 Y114.514 E55.75959
G1 X161.230 Y112.634 E56.01065
G1 X159.540 Y111.428 E56.25979
G1 X159.528 Y109.249 E56.52127
G1 X159.494 Y107.582 E56.72135
G0 F9000 X193.337 Y173.832
G1 F1200 X193.337 Y179.135 E57.35771
G1 X193.339 Y185.232 E58.08935
G1 X99.316 Y185.232 E69.37211
G1 X99.315 Y173.832 E70.74011
G1 X193.337 Y173.832 E82.02275
G0 F9000 X74.890 Y137.046
G1 F1200 X37.990 Y137.046 E86.45075
G1 X37.990 Y110.987 E89.57783
G1 X74.890 Y110.986 E94.00583
G1 X74.890 Y137.046 E97.13303
G10
G0 F9000 X65.332 Y53.285
;TYPE:WALL-INNER
G11
G1 F1200 X36.032 Y53.285 E100.64903
G1 X36.032 Y34.826 E102.86411
G1 X65.332 Y34.825 E106.38011
G1 X65.332 Y53.285 E108.59531
G0 F9000 X65.732 Y53.685
;TYPE:WALL-OUTER
G1 F1200 X35.632 Y53.685 E112.20731
G1 X35.632 Y34.426 E114.51839
G1 X65.732 Y34.425 E118.13039
G1 X65.732 Y53.685 E120.44159
G0 F9000 X65.191 Y53.028
;TYPE:SKIN
G1 F900 X47.128 Y34.966 E123.50690
G0 F9000 X46.562 Y34.966
G1 F900 X64.740 Y53.144 E126.59181
G0 F9000 X64.174 Y53.144
G1 F900 X45.997 Y34.966 E129.67663
G0 F9000 X45.431 Y34.966
G1 F900 X63.609 Y53.144 E132.76154
G0 F9000 X63.043 Y53.144
G1 F900 X44.865 Y34.966 E135.84645
G0 F9000 X44.300 Y34.966
G1 F900 X62.477 Y53.144 E138.93128
G0 F9000 X61.912 Y53.144
G1 F900 X43.734 Y34.966 E142.01618
G0 F9000 X43.168 Y34.966
G1 F900 X61.346 Y53.144 E145.10109
G0 F9000 X60.780 Y53.144
G1 F900 X42.603 Y34.966 E148.18592
G0 F9000 X42.037 Y34.966
G1 F900 X60.215 Y53.144 E151.27083
G0 F9000 X65.191 Y52.463
G1 F900 X47.694 Y34.966 E154.24017
G0 F9000 X48.260 Y34.966
G1 F900 X65.191 Y51.897 E157.11345
G0 F9000 X65.191 Y51.331
G1 F900 X48.825 Y34.966 E159.89077
G0 F9000 X49.391 Y34.966
G1 F900 X65.191 Y50.766 E162.57212
G0 F9000 X65.191 Y50.200
G1 F900 X49.957 Y34.966 E165.15741
G0 F9000 X50.522 Y34.966
G1 F900 X65.191 Y49.634 E167.64674
G0 F9000 X65.191 Y49.068
G1 F900 X51.087 Y34.965 E170.04018
G0 F9000 X51.653 Y34.965
G1 F900 X65.191 Y48.503 E172.33766
G0 F9000 X65.191 Y47.937
G1 F900 X52.219 Y34.965 E174.53908
G0 F9000 X52.784 Y34.965
G1 F900 X65.191 Y47.371 E176.64453
G0 F9000 X65.191 Y46.806
G1 F900 X53.350 Y34.965 E178.65402
G0 F9000 X53.916 Y34.965
G1 F900 X65.191 Y46.240 E180.56745
G0 F9000 X65.191 Y45.674
G1 F900 X54.481 Y34.965 E182.38491
G0 F9000 X55.047 Y34.965
G1 F900 X65.191 Y45.109 E184.10640
G0 F9000 X65.191 Y44.543
G1 F900 X55.613 Y34.965 E185.73185
G0 F9000 X56.178 Y34.965
G1 F900 X65.191 Y43.977 E187.26132
G0 F9000 X65.191 Y43.412
G1 F900 X56.744 Y34.965 E188.69482
G0 F9000 X57.310 Y34.965
G1 F900 X65.191 Y42.846 E190.03227
G0 F9000 X65.191 Y42.280
G1 F900 X57.875 Y34.965 E191.27375
G0 F9000 X58.441 Y34.965
G1 F900 X65.191 Y41.715 E192.41927
G0 F9000 X65.191 Y41.149
G1 F900 X59.007 Y34.965 E193.46872
G0 F9000 X59.573 Y34.965
G1 F900 X65.191 Y40.583 E194.42213
G0 F9000 X65.191 Y40.018
G1 F900 X60.138 Y34.965 E195.27965
G0 F9000 X60.704 Y34.965
G1 F900 X65.191 Y39.452 E196.04112
G0 F9000 X65.191 Y38.886
G1 F900 X61.270 Y34.965 E196.70654
G0 F9000 X61.835 Y34.965
G1 F900 X65.191 Y38.320 E197.27599
G0 F9000 X65.191 Y37.755
G1 F900 X62.401 Y34.965 E197.74946
G0 F9000 X62.967 Y34.965
G1 F900 X65.191 Y37.189 E198.12689
G0 F9000 X65.191 Y36.623
G1 F900 X63.532 Y34.965 E198.40835
G0 F9000 X64.098 Y34.965
G1 F900 X65.191 Y36.058 E198.59383
G0 F9000 X65.191 Y35.492
G1 F900 X64.664 Y34.965 E198.68327
G0 F9000 X59.649 Y53.144
G1 F900 X41.471 Y34.966 E201.76818
G0 F9000 X40.906 Y34.966
G1 F900 X59.083 Y53.144 E204.85300
G0 F9000 X58.518 Y53.144
G1 F900 X40.340 Y34.966 E207.93791
G0 F9000 X39.774 Y34.966
G1 F900 X57.952 Y53.144 E211.02282
G0 F9000 X57.386 Y53.144
G1 F900 X39.209 Y34.966 E214.10764
G0 F9000 X38.643 Y34.966
G1 F900 X56.820 Y53.144 E217.19247
G0 F9000 X56.255 Y53.144
G1 F900 X38.077 Y34.966 E220.27738
G0 F9000 X37.512 Y34.966
G1 F900 X55.689 Y53.144 E223.36220
G0 F9000 X55.123 Y53.144
G1 F900 X36.946 Y34.966 E226.44703
G0 F9000 X36.380 Y34.966
G1 F900 X54.558 Y53.144 E229.53193
G0 F9000 X53.992 Y53.144
G1 F900 X36.171 Y35.322 E232.55634
G0 F9000 X36.171 Y35.888
G1 F900 X53.426 Y53.144 E235.48470
G0 F9000 X52.861 Y53.144
G1 F900 X36.171 Y36.454 E238.31709
G0 F9000 X36.171 Y37.019
G1 F900 X52.295 Y53.144 E241.05350
G0 F9000 X51.729 Y53.144
G1 F900 X36.171 Y37.585 E243.69387
G0 F9000 X36.171 Y38.151
G1 F900 X51.164 Y53.144 E246.23827
G0 F9000 X50.598 Y53.144
G1 F900 X36.171 Y38.716 E248.68669
G0 F9000 X36.171 Y39.282
G1 F900 X50.032 Y53.144 E251.03907
G0 F9000 X49.467 Y53.144
G1 F900 X36.171 Y39.848 E253.29547
G0 F9000 X36.171 Y40.413
G1 F900 X48.901 Y53.144 E255.45591
G0 F9000 X48.335 Y53.144
G1 F900 X36.171 Y40.979 E257.52030
G0 F9000 X36.171 Y41.545
G1 F900 X47.770 Y53.144 E259.48871
G0 F9000 X47.204 Y53.144
G1 F900 X36.171 Y42.111 E261.36107
G0 F9000 X36.171 Y42.676
G1 F900 X46.638 Y53.144 E263.13747
G0 F9000 X46.072 Y53.144
G1 F900 X36.171 Y43.242 E264.81781
G0 F9000 X36.171 Y43.808
G1 F900 X45.507 Y53.144 E266.40218
G0 F9000 X44.941 Y53.144
G1 F900 X36.171 Y44.373 E267.89058
G0 F9000 X36.171 Y44.939
G1 F900 X44.375 Y53.144 E269.28293
G0 F9000 X43.810 Y53.144
G1 F900 X36.171 Y45.505 E270.57931
G0 F9000 X36.171 Y46.070
G1 F900 X43.244 Y53.144 E271.77973
G0 F9000 X42.678 Y53.144
G1 F900 X36.171 Y46.636 E272.88409
G0 F9000 X36.171 Y47.202
G1 F900 X42.113 Y53.144 E273.89248
G0 F9000 X41.547 Y53.144
G1 F900 X36.171 Y47.767 E274.80490
G0 F9000 X36.171 Y48.333
G1 F900 X40.981 Y53.144 E275.62127
G0 F9000 X40.416 Y53.144
G1 F900 X36.171 Y48.899 E276.34167
G0 F9000 X36.171 Y49.464
G1 F900 X39.850 Y53.144 E276.96610
G0 F9000 X39.284 Y53.144
G1 F900 X36.171 Y50.030 E277.49448
G0 F9000 X36.171 Y50.596
G1 F900 X38.719 Y53.144 E277.92689
G0 F9000 X38.153 Y53.144
G1 F900 X36.171 Y51.162 E278.26324
G0 F9000 X36.171 Y51.727
G1 F900 X37.587 Y53.144 E278.50363
G0 F9000 X37.021 Y53.144
G1 F900 X36.171 Y52.293 E278.64797
G0 F9000 X36.171 Y52.859
G1 F900 X36.456 Y53.144 E278.69633
G10
G0 F9000 X106.223 Y64.964
;TYPE:WALL-INNER
G11
G1 F1200 X192.734 Y64.964 E289.07765
G1 X192.735 Y68.764 E289.53365
G1 X106.224 Y68.764 E299.91497
G1 X106.223 Y64.964 E300.37097
G0 F9000 X105.823 Y64.564
;TYPE:WALL-OUTER
G1 F1200 X193.134 Y64.564 E310.84829
G1 X193.135 Y69.164 E311.40029
G1 X105.824 Y69.164 E321.87761
G1 X105.823 Y64.564 E322.42961
G0 F9000 X106.362 Y65.350
;TYPE:SKIN
G1 F900 X109.636 Y68.624 E322.98523
G0 F9000 X110.201 Y68.624
G1 F900 X106.681 Y65.104 E323.58259
G0 F9000 X107.247 Y65.104
G1 F900 X110.767 Y68.624 E324.17996
G0 F9000 X111.333 Y68.624
G1 F900 X107.813 Y65.104 E324.77732
G0 F9000 X108.378 Y65.104
G1 F900 X111.898 Y68.624 E325.37469
G0 F9000 X112.464 Y68.624
G1 F900 X108.944 Y65.104 E325.97205
G0 F9000 X109.510 Y65.104
G1 F900 X113.030 Y68.624 E326.56941
G0 F9000 X113.595 Y68.624
G1 F900 X110.076 Y65.104 E327.16669
G0 F9000 X110.641 Y65.104
G1 F900 X114.161 Y68.624 E327.76406
G0 F9000 X114.727 Y68.624
G1 F900 X111.207 Y65.104 E328.36142
G0 F9000 X111.773 Y65.104
G1 F900 X115.293 Y68.624 E328.95878
G0 F9000 X115.858 Y68.624
G1 F900 X112.338 Y65.104 E329.55615
G0 F9000 X112.904 Y65.104
G1 F900 X116.424 Y68.624 E330.15351
G0 F9000 X116.990 Y68.624
G1 F900 X113.470 Y65.104 E330.75087
G0 F9000 X114.035 Y65.104
G1 F900 X117.555 Y68.624 E331.34824
G0 F9000 X118.121 Y68.624
G1 F900 X114.601 Y65.104 E331.94560
G0 F9000 X115.167 Y65.104
G1 F900 X118.687 Y68.624 E332.54297
G0 F9000 X119.252 Y68.624
G1 F900 X115.732 Y65.104 E333.14033
G0 F9000 X116.298 Y65.104
G1 F900 X119.818 Y68.624 E333.73769
G0 F9000 X120.384 Y68.624
G1 F900 X116.864 Y65.104 E334.33506
G0 F9000 X117.429 Y65.104
G1 F900 X120.949 Y68.624 E334.93242
G0 F9000 X121.515 Y68.624
G1 F900 X117.995 Y65.104 E335.52979
G0 F9000 X118.561 Y65.104
G1 F900 X122.081 Y68.624 E336.12715
G0 F9000 X122.646 Y68.624
G1 F900 X119.126 Y65.104 E336.72451
G0 F9000 X119.692 Y65.104
G1 F900 X123.212 Y68.624 E337.32188
G0 F9000 X123.778 Y68.624
G1 F900 X120.258 Y65.104 E337.91924
G0 F9000 X120.824 Y65.104
G1 F900 X124.344 Y68.624 E338.51660
G0 F9000 X124.909 Y68.624
G1 F900 X121.389 Y65.104 E339.11397
G0 F9000 X121.955 Y65.104
G1 F900 X125.475 Y68.624 E339.71133
G0 F9000 X126.041 Y68.624
G1 F900 X122.521 Y65.104 E340.30870
G0 F9000 X123.086 Y65.104
G1 F900 X126.606 Y68.624 E340.90606
G0 F9000 X127.172 Y68.624
G1 F900 X123.652 Y65.104 E341.50342
G0 F9000 X124.218 Y65.104
G1 F900 X127.738 Y68.624 E342.10079
G0 F9000 X128.303 Y68.624
G1 F900 X124.783 Y65.104 E342.69815
G0 F9000 X125.349 Y65.104
G1 F900 X128.869 Y68.624 E343.29551
G0 F9000 X129.435 Y68.624
G1 F900 X125.915 Y65.104 E343.89288
G0 F9000 X126.480 Y65.104
G1 F900 X130.000 Y68.624 E344.49024
G0 F9000 X130.566 Y68.624
G1 F900 X127.046 Y65.104 E345.08761
G0 F9000 X127.612 Y65.104
G1 F900 X131.132 Y68.624 E345.68497
G0 F9000 X131.697 Y68.624
G1 F900 X128.177 Y65.104 E346.28233
G0 F9000 X128.743 Y65.104
G1 F900 X132.263 Y68.624 E346.87970
G0 F9000 X132.829 Y68.624
G1 F900 X129.309 Y65.104 E347.47706
G0 F9000 X129.875 Y65.104
G1 F900 X133.394 Y68.624 E348.07434
G0 F9000 X133.960 Y68.624
G1 F900 X130.440 Y65.104 E348.67170
G0 F9000 X131.006 Y65.104
G1 F900 X134.526 Y68.624 E349.26907
G0 F9000 X135.092 Y68.624
G1 F900 X131.572 Y65.104 E349.86643
G0 F9000 X132.137 Y65.104
G1 F900 X135.657 Y68.624 E350.46380
G0 F9000 X136.223 Y68.624
G1 F900 X132.703 Y65.104 E351.06116
G0 F9000 X133.269 Y65.104
G1 F900 X136.789 Y68.624 E351.65852
G0 F9000 X137.354 Y68.624
G1 F900 X133.834 Y65.104 E352.25589
G0 F9000 X134.400 Y65.104
G1 F900 X137.920 Y68.624 E352.85325
G0 F9000 X138.486 Y68.624
G1 F900 X134.966 Y65.104 E353.45061
G0 F9000 X135.531 Y65.104
G1 F900 X139.051 Y68.624 E354.04798
G0 F9000 X139.617 Y68.624
G1 F900 X136.097 Y65.104 E354.64534
G0 F9000 X136.663 Y65.104
G1 F900 X140.183 Y68.624 E355.24271
G0 F9000 X140.748 Y68.624
G1 F900 X137.228 Y65.104 E355.84007
G0 F9000 X137.794 Y65.104
G1 F900 X141.314 Y68.624 E356.43743
G0 F9000 X141.880 Y68.624
G1 F900 X138.360 Y65.104 E357.03480
G0 F9000 X138.925 Y65.104
G1 F900 X142.445 Y68.624 E357.63216
G0 F9000 X143.011 Y68.624
G1 F900 X139.491 Y65.104 E358.22952
G0 F9000 X140.057 Y65.104
G1 F900 X143.577 Y68.624 E358.82689
G0 F9000 X144.143 Y68.624
G1 F900 X140.623 Y65.104 E359.42425
G0 F9000 X141.188 Y65.104
G1 F900 X144.708 Y68.624 E360.02162
G0 F9000 X145.274 Y68.624
G1 F900 X141.754 Y65.104 E360.61898
G0 F9000 X142.320 Y65.104
G1 F900 X145.840 Y68.624 E361.21634
G0 F9000 X146.405 Y68.624
G1 F900 X142.885 Y65.104 E361.81371
G0 F9000 X143.451 Y65.104
G1 F900 X146.971 Y68.624 E362.41107
G0 F9000 X147.537 Y68.624
G1 F900 X144.017 Y65.104 E363.00844
G0 F9000 X144.582 Y65.104
G1 F900 X148.102 Y68.624 E363.60580
G0 F9000 X148.668 Y68.624
G1 F900 X145.148 Y65.104 E364.20316
G0 F9000 X145.714 Y65.104
G1 F900 X149.234 Y68.624 E364.80053
G0 F9000 X149.799 Y68.624
G1 F900 X146.279 Y65.104 E365.39789
G0 F9000 X146.845 Y65.104
G1 F900 X150.365 Y68.624 E365.99525
G0 F9000 X150.931 Y68.624
G1 F900 X147.411 Y65.104 E366.59262
G0 F9000 X147.976 Y65.104
G1 F900 X151.496 Y68.624 E367.18998
G0 F9000 X152.062 Y68.624
G1 F900 X148.542 Y65.104 E367.78735
G0 F9000 X149.108 Y65.104
G1 F900 X152.628 Y68.624 E368.38471
G0 F9000 X153.193 Y68.624
G1 F900 X149.673 Y65.104 E368.98207
G0 F9000 X150.239 Y65.104
G1 F900 X153.759 Y68.624 E369.57944
G0 F9000 X154.325 Y68.624
G1 F900 X150.805 Y65.104 E370.17680
G0 F9000 X151.371 Y65.104
G1 F900 X154.891 Y68.624 E370.77416
G0 F9000 X155.456 Y68.624
G1 F900 X151.936 Y65.104 E371.37153
G0 F9000 X152.502 Y65.104
G1 F900 X156.022 Y68.624 E371.96889
G0 F9000 X156.588 Y68.624
G1 F900 X153.068 Y65.104 E372.56626
G0 F9000 X153.633 Y65.104
G1 F900 X157.153 Y68.624 E373.16362
G0 F9000 X157.719 Y68.624
G1 F900 X154.199 Y65.104 E373.76098
G0 F9000 X154.765 Y65.104
G1 F900 X158.285 Y68.624 E374.35835
G0 F9000 X158.850 Y68.624
G1 F900 X155.330 Y65.104 E374.95571
G0 F9000 X155.896 Y65.104
