;FLAVOR:UltiGCode
;TIME:133
;MATERIAL:155
;MATERIAL2:0

;Layer count: 18
;LAYER:0
M107
G0 F9000 X76.424 Y106.881 Z0.300
;TYPE:SKIRT
G1 F1200 X79.535 Y106.261 E0.38066
G1 X100.913 Y103.206 E2.97208
G1 X105.011 Y103.206 E3.46384
G1 X106.838 Y103.512 E3.68614
G1 X112.495 Y105.395 E4.40160
G1 X112.390 Y106.396 E4.52238
G1 X112.419 Y106.411 E4.52629
G1 X153.589 Y106.627 E9.46676
G1 X153.589 Y109.291 E9.78644
G1 X153.789 Y109.491 E9.82038
G1 X153.789 Y109.891 E9.86838
G1 X153.989 Y110.091 E9.90232
G1 X153.989 Y110.491 E9.95032
G1 X154.189 Y110.691 E9.98426
G1 X154.189 Y111.091 E10.03226
G1 X154.389 Y111.291 E10.06621
G1 X154.389 Y111.691 E10.11421
G1 X154.589 Y111.891 E10.14815
G1 X154.589 Y112.291 E10.19615
G1 X154.789 Y112.491 E10.23009
G1 X154.789 Y118.288 E10.92573
G1 X130.165 Y121.806 E13.91061
G1 X126.069 Y121.806 E14.40213
G1 X124.567 Y121.556 E14.58485
G1 X121.951 Y121.185 E14.90191
G1 X121.480 Y120.714 E14.98184
G1 X117.602 Y119.423 E15.47231
G1 X117.683 Y118.600 E15.57155
G1 X76.289 Y118.385 E20.53890
G1 X76.289 Y115.521 E20.88258
G1 X76.089 Y115.321 E20.91652
G1 X76.089 Y114.721 E20.98852
G1 X75.889 Y114.521 E21.02246
G1 X75.889 Y114.121 E21.07046
G1 X75.689 Y113.921 E21.10440
G1 X75.689 Y113.321 E21.17640
G1 X75.489 Y113.121 E21.21034
G1 X75.489 Y112.522 E21.28222
G1 X74.894 Y111.927 E21.38320
G1 X76.424 Y106.881 E22.01594
G10
G0 F9000 X78.647 Y109.027
;TYPE:SUPPORT
G11
G1 F1200 X78.647 Y114.287 E22.64714
G0 F9000 X78.428 Y113.305
G1 F1200 X152.048 Y113.305 E31.48154
G0 F9000 X151.289 Y113.305
G0 X151.489 Y115.503
G0 X152.248 Y115.971
G1 F1200 X100.676 Y115.971 E37.67018
G0 F9000 X100.679 Y115.212
G0 X102.644 Y115.223
G0 X102.641 Y115.982
G1 F1200 X102.641 Y105.746 E38.89850
G0 F9000 X102.641 Y106.506
G0 X105.181 Y106.579
G0 X105.307 Y105.832
G1 F1200 X105.307 Y115.995 E40.11806
G0 F9000 X105.311 Y115.236
G0 X107.977 Y115.250
G0 X107.973 Y116.009
G1 F1200 X107.973 Y106.567 E41.25110
G0 F9000 X107.733 Y107.287
G0 X108.916 Y107.893
G0 X109.669 Y107.973
G1 F1200 X85.499 Y107.973 E44.15150
G0 F9000 X86.645 Y107.810
G1 F1200 X86.645 Y115.899 E45.12218
G0 F9000 X86.648 Y115.140
G0 X83.982 Y115.126
G0 X83.979 Y115.885
G1 F1200 X83.979 Y108.191 E46.04546
G0 F9000 X84.086 Y108.943
G0 X81.419 Y109.324
G0 X81.313 Y108.572
G1 F1200 X81.313 Y115.871 E46.92134
G0 F9000 X81.316 Y115.112
G0 X89.314 Y115.153
G0 X89.311 Y115.913
G1 F1200 X89.311 Y107.429 E47.93942
G0 F9000 X89.418 Y108.181
G0 X92.084 Y107.800
G0 X91.977 Y107.048
G1 F1200 X91.977 Y115.927 E49.00490
G0 F9000 X91.980 Y115.167
G0 X94.646 Y115.181
G0 X94.643 Y115.940
G1 F1200 X94.643 Y106.667 E50.11766
G0 F9000 X94.751 Y107.419
G0 X97.417 Y107.038
G0 X97.309 Y106.286
G1 F1200 X97.309 Y115.954 E51.27782
G0 F9000 X97.312 Y115.195
G0 X99.978 Y115.209
G0 X99.975 Y115.968
G1 F1200 X99.975 Y105.905 E52.48538
G0 F9000 X100.083 Y106.657
G0 X110.399 Y109.177
G0 X110.639 Y108.457
G1 F1200 X110.639 Y116.023 E53.39330
G0 F9000 X110.643 Y115.264
G0 X113.309 Y115.278
G0 X113.305 Y116.037
G1 F1200 X113.305 Y108.956 E54.24302
G0 F9000 X113.301 Y109.715
G0 X115.967 Y109.729
G0 X115.971 Y108.970
G1 F1200 X115.971 Y116.051 E55.09274
G0 F9000 X115.975 Y115.292
G0 X118.668 Y115.211
G0 X118.976 Y115.471
G0 X118.637 Y116.150
G1 F1200 X118.637 Y108.984 E55.95266
G0 F9000 X118.633 Y109.743
G0 X121.299 Y109.757
G0 X121.303 Y108.998
G1 F1200 X121.303 Y117.978 E57.03026
G0 F9000 X121.543 Y117.258
G0 X123.314 Y117.747
G0 X123.522 Y118.090
G0 X122.996 Y118.637
G1 F1200 X134.379 Y118.637 E58.39622
G0 F9000 X134.633 Y118.602
G1 F1200 X134.633 Y109.068 E59.54030
G0 F9000 X134.630 Y109.827
G0 X131.964 Y109.813
G0 X131.967 Y109.054
G1 F1200 X131.967 Y118.983 E60.73178
G0 F9000 X131.859 Y118.231
G0 X129.301 Y118.506
G0 X129.301 Y119.266
G1 F1200 X129.301 Y109.040 E61.95890
G0 F9000 X129.298 Y109.799
G0 X126.631 Y109.785
G0 X126.635 Y109.026
G1 F1200 X126.635 Y119.266 E63.18770
G0 F9000 X126.635 Y118.506
G0 X124.077 Y118.154
G0 X123.969 Y118.905
G1 F1200 X123.969 Y109.012 E64.37486
G0 F9000 X123.965 Y109.771
G0 X137.296 Y109.841
G0 X137.299 Y109.082
G1 F1200 X137.299 Y118.222 E65.47166
G0 F9000 X137.191 Y117.469
G0 X139.858 Y117.088
G0 X139.965 Y117.841
G1 F1200 X139.965 Y109.096 E66.52106
G0 F9000 X139.962 Y109.855
G0 X142.628 Y109.869
G0 X142.631 Y109.110
G1 F1200 X142.631 Y117.460 E67.52306
G0 F9000 X142.524 Y116.708
G0 X145.190 Y116.327
G0 X145.297 Y117.079
G1 F1200 X145.297 Y109.123 E68.47778
G0 F9000 X145.294 Y109.883
G0 X147.960 Y109.897
G0 X147.963 Y109.137
G1 F1200 X147.963 Y116.698 E69.38510
G0 F9000 X147.856 Y115.946
G0 X150.522 Y115.565
G0 X150.629 Y116.317
G1 F1200 X150.629 Y109.151 E70.24502
G0 F9000 X150.379 Y109.909
G0 X150.205 Y110.692
G0 X150.489 Y110.826
G0 X151.248 Y110.639
G1 F1200 X77.938 Y110.639 E79.04222
;LAYER:1
M106 S127
G0 F9000 X78.647 Y110.370 Z0.400
;TYPE:SUPPORT
G1 F1620 X78.647 Y111.838 E79.10094
G0 F9000 X78.767 Y111.734
G0 X81.335 Y109.336
G0 X81.313 Y109.178
G1 F1620 X81.313 Y115.271 E79.34466
G0 F9000 X81.313 Y115.112
G0 X83.979 Y115.126
G0 X83.979 Y115.285
G1 F1620 X83.979 Y108.797 E79.60418
G0 F9000 X84.001 Y108.955
G0 X86.667 Y108.574
G0 X86.645 Y108.416
G1 F1620 X86.645 Y115.299 E79.87950
G0 F9000 X86.645 Y115.140
G0 X89.311 Y115.153
G0 X89.311 Y115.313
G1 F1620 X89.311 Y108.035 E80.17062
G0 F9000 X89.333 Y108.193
G0 X92.000 Y107.812
G0 X91.977 Y107.654
G1 F1620 X91.977 Y115.327 E80.47754
G0 F9000 X91.977 Y115.167
G0 X94.643 Y115.181
G0 X94.643 Y115.340
G1 F1620 X94.643 Y107.273 E80.80022
G0 F9000 X94.666 Y107.431
G0 X97.332 Y107.051
G0 X97.309 Y106.892
G1 F1620 X97.309 Y115.354 E81.13870
G0 F9000 X97.309 Y115.195
G0 X99.975 Y115.209
G0 X99.975 Y115.368
G1 F1620 X99.975 Y106.511 E81.49298
G0 F9000 X99.998 Y106.670
G0 X102.641 Y106.506
G0 X102.641 Y106.346
G1 F1620 X102.641 Y115.382 E81.85442
G0 F9000 X102.641 Y115.223
G0 X105.307 Y115.236
G0 X105.307 Y115.396
G1 F1620 X105.307 Y106.440 E82.21266
G0 F9000 X105.281 Y106.596
G0 X107.923 Y107.350
G0 X107.973 Y107.200
G1 F1620 X107.973 Y115.409 E82.54102
G0 F9000 X107.974 Y115.250
G0 X110.640 Y115.264
G0 X110.639 Y115.423
G1 F1620 X110.639 Y109.089 E82.79438
G0 F9000 X110.589 Y109.240
G0 X111.610 Y109.801
G0 X113.304 Y109.715
G0 X113.305 Y109.556
G1 F1620 X113.305 Y115.437 E83.02962
G0 F9000 X113.306 Y115.278
G0 X115.972 Y115.292
G0 X115.971 Y115.451
G1 F1620 X115.971 Y109.570 E83.26486
G0 F9000 X115.970 Y109.729
G0 X118.636 Y109.743
G0 X118.637 Y109.584
G1 F1620 X118.637 Y115.480 E83.50070
G0 F9000 X118.708 Y115.337
G0 X121.353 Y116.461
G0 X121.303 Y116.611
G1 F1620 X121.303 Y109.598 E83.78122
G0 F9000 X121.302 Y109.757
G0 X123.969 Y109.771
G0 X123.969 Y109.612
G1 F1620 X123.969 Y118.116 E84.12138
G0 F9000 X124.000 Y117.960
G0 X126.635 Y118.306
G0 X126.635 Y118.466
G1 F1620 X126.635 Y109.626 E84.47498
G0 F9000 X126.635 Y109.785
G0 X129.301 Y109.799
G0 X129.301 Y109.640
G1 F1620 X129.301 Y118.466 E84.82802
G0 F9000 X129.301 Y118.306
G0 X131.956 Y118.060
G0 X131.967 Y118.220
G1 F1620 X131.967 Y109.654 E85.17066
G0 F9000 X131.967 Y109.813
G0 X134.633 Y109.827
G0 X134.633 Y109.668
G1 F1620 X134.633 Y117.996 E85.50378
G0 F9000 X134.610 Y117.837
G0 X137.276 Y117.456
G0 X137.299 Y117.615
G1 F1620 X137.299 Y109.682 E85.82110
G0 F9000 X137.299 Y109.841
G0 X139.965 Y109.855
G0 X139.965 Y109.696
G1 F1620 X139.965 Y117.235 E86.12266
G0 F9000 X139.942 Y117.075
G0 X142.608 Y116.694
G0 X142.631 Y116.854
G1 F1620 X142.631 Y109.710 E86.40842
G0 F9000 X142.631 Y109.869
G0 X145.297 Y109.883
G0 X145.297 Y109.724
G1 F1620 X145.297 Y116.473 E86.67838
G0 F9000 X145.275 Y116.313
G0 X147.941 Y115.933
G0 X147.963 Y116.092
G1 F1620 X147.963 Y109.737 E86.93258
G0 F9000 X147.963 Y109.897
G0 X150.511 Y110.878
G0 X150.629 Y110.772
G1 F1620 X150.629 Y115.711 E87.13014
;LAYER:2
M106 S255
G0 F9000 X150.629 Y115.686 Z0.500
;TYPE:SUPPORT
G1 F2100 X150.629 Y110.772 E87.32670
G0 F9000 X150.511 Y110.878
G0 X147.963 Y109.897
G0 X147.963 Y109.737
G1 F2100 X147.963 Y116.092 E87.58090
G0 F9000 X147.941 Y115.934
G0 X145.275 Y116.315
G0 X145.297 Y116.473
G1 F2100 X145.297 Y109.724 E87.85086
G0 F9000 X145.297 Y109.883
G0 X142.631 Y109.869
G0 X142.631 Y109.710
G1 F2100 X142.631 Y116.854 E88.13662
G0 F9000 X142.609 Y116.695
G0 X139.943 Y117.076
G0 X139.965 Y117.235
G1 F2100 X139.965 Y109.696 E88.43818
G0 F9000 X139.965 Y109.855
G0 X137.299 Y109.841
G0 X137.299 Y109.682
G1 F2100 X137.299 Y117.615 E88.75550
G0 F9000 X137.277 Y117.457
G0 X134.621 Y117.682
G0 X134.633 Y117.843
G1 F2100 X134.633 Y109.668 E89.08250
G0 F9000 X134.633 Y109.827
G0 X131.967 Y109.813
G0 X131.967 Y109.654
G1 F2100 X131.967 Y118.085 E89.41974
G0 F9000 X131.963 Y117.925
G0 X129.297 Y118.010
G0 X129.301 Y118.170
G1 F2100 X129.301 Y109.640 E89.76094
G0 F9000 X129.301 Y109.799
G0 X126.635 Y109.785
G0 X126.635 Y109.626
G1 F2100 X126.635 Y118.256 E90.10614
G0 F9000 X126.630 Y118.096
G0 X123.994 Y117.716
G0 X123.969 Y117.873
G1 F2100 X123.969 Y109.612 E90.43658
G0 F9000 X123.969 Y109.771
G0 X121.302 Y109.757
G0 X121.303 Y109.598
G1 F2100 X121.303 Y116.611 E90.71710
G0 F9000 X121.352 Y116.461
G0 X118.708 Y115.337
G0 X118.637 Y115.480
G1 F2100 X118.637 Y109.584 E90.95294
G0 F9000 X118.636 Y109.743
G0 X115.970 Y109.729
G0 X115.971 Y109.570
G1 F2100 X115.971 Y115.451 E91.18818
G0 F9000 X115.972 Y115.292
G0 X113.306 Y115.278
G0 X113.305 Y115.437
G1 F2100 X113.305 Y109.556 E91.42342
G0 F9000 X113.304 Y109.715
G0 X111.610 Y109.801
G0 X110.589 Y109.240
G0 X110.639 Y109.089
G1 F2100 X110.639 Y115.423 E91.67678
G0 F9000 X110.640 Y115.264
G0 X107.974 Y115.250
G0 X107.973 Y115.409
G1 F2100 X107.973 Y107.200 E92.00514
G0 F9000 X107.923 Y107.350
G0 X105.281 Y106.596
G0 X105.307 Y106.440
G1 F2100 X105.307 Y115.396 E92.36338
G0 F9000 X105.307 Y115.236
G0 X102.641 Y115.223
G0 X102.641 Y115.382
G1 F2100 X102.641 Y106.346 E92.72482
G0 F9000 X102.641 Y106.506
G0 X99.998 Y106.670
G0 X99.975 Y106.511
G1 F2100 X99.975 Y115.368 E93.07910
G0 F9000 X99.975 Y115.209
G0 X97.309 Y115.195
G0 X97.309 Y115.354
G1 F2100 X97.309 Y106.892 E93.41758
G0 F9000 X97.332 Y107.051
G0 X94.666 Y107.431
G0 X94.643 Y107.273
G1 F2100 X94.643 Y115.340 E93.74026
G0 F9000 X94.643 Y115.181
G0 X91.977 Y115.167
G0 X91.977 Y115.327
G1 F2100 X91.977 Y107.654 E94.04718
G0 F9000 X92.000 Y107.812
G0 X89.333 Y108.193
G0 X89.311 Y108.035
G1 F2100 X89.311 Y115.313 E94.33830
G0 F9000 X89.311 Y115.153
G0 X86.645 Y115.140
G0 X86.645 Y115.299
G1 F2100 X86.645 Y108.416 E94.61362
G0 F9000 X86.667 Y108.574
G0 X84.001 Y108.955
G0 X83.979 Y108.797
G1 F2100 X83.979 Y115.285 E94.87314
G0 F9000 X83.979 Y115.126
G0 X81.313 Y115.112
G0 X81.313 Y115.271
G1 F2100 X81.313 Y109.178 E95.11686
G0 F9000 X81.335 Y109.336
G0 X78.799 Y110.417
G0 X78.647 Y110.370
G1 F2100 X78.647 Y111.838 E95.17558
;LAYER:3
G0 F9000 X78.647 Y111.838 Z0.600
;TYPE:SUPPORT
G1 F2520 X78.647 Y110.370 E95.23430
G0 F9000 X78.799 Y110.417
G0 X81.335 Y109.336
G0 X81.313 Y109.178
G1 F2520 X81.313 Y115.271 E95.47802
G0 F9000 X81.313 Y115.112
G0 X83.979 Y115.126
G0 X83.979 Y115.285
G1 F2520 X83.979 Y108.797 E95.73754
G0 F9000 X84.001 Y108.955
G0 X86.667 Y108.574
G0 X86.645 Y108.416
G1 F2520 X86.645 Y115.299 E96.01286
G0 F9000 X86.645 Y115.140
G0 X89.311 Y115.153
G0 X89.311 Y115.313
G1 F2520 X89.311 Y108.035 E96.30398
G0 F9000 X89.333 Y108.193
G0 X92.000 Y107.812
G0 X91.977 Y107.654
G1 F2520 X91.977 Y115.327 E96.61090
G0 F9000 X91.977 Y115.167
G0 X94.643 Y115.181
G0 X94.643 Y115.340
G1 F2520 X94.643 Y107.273 E96.93358
G0 F9000 X94.666 Y107.431
G0 X97.332 Y107.051
G0 X97.309 Y106.892
G1 F2520 X97.309 Y115.354 E97.27206
G0 F9000 X97.309 Y115.195
G0 X99.975 Y115.209
G0 X99.975 Y115.368
G1 F2520 X99.975 Y106.511 E97.62634
G0 F9000 X99.998 Y106.670
G0 X102.641 Y106.506
G0 X102.641 Y106.346
G1 F2520 X102.641 Y115.382 E97.98778
G0 F9000 X102.641 Y115.223
G0 X105.307 Y115.236
G0 X105.307 Y115.396
G1 F2520 X105.307 Y106.440 E98.34602
G0 F9000 X105.281 Y106.596
G0 X107.923 Y107.350
G0 X107.973 Y107.200
G1 F2520 X107.973 Y115.409 E98.67438
G0 F9000 X107.974 Y115.250
G0 X110.640 Y115.264
G0 X110.639 Y115.423
G1 F2520 X110.639 Y109.089 E98.92774
G0 F9000 X110.589 Y109.240
G0 X111.610 Y109.801
G0 X113.304 Y109.715
G0 X113.305 Y109.556
G1 F2520 X113.305 Y115.437 E99.16298
G0 F9000 X113.306 Y115.278
G0 X115.972 Y115.292
G0 X115.971 Y115.451
G1 F2520 X115.971 Y109.570 E99.39822
G0 F9000 X115.970 Y109.729
G0 X118.636 Y109.743
G0 X118.637 Y109.584
G1 F2520 X118.637 Y115.480 E99.63406
G0 F9000 X118.708 Y115.337
G0 X121.353 Y116.462
G0 X121.303 Y116.612
G1 F2520 X121.303 Y109.598 E99.91462
G0 F9000 X121.302 Y109.757
G0 X123.969 Y109.771
G0 X123.969 Y109.612
G1 F2520 X123.969 Y117.498 E100.23006
G0 F9000 X123.992 Y117.341
G0 X126.645 Y117.724
G0 X126.635 Y117.882
G1 F2520 X126.635 Y109.626 E100.56030
G0 F9000 X126.635 Y109.785
G0 X129.301 Y109.799
G0 X129.301 Y109.640
G1 F2520 X129.301 Y118.049 E100.89666
G0 F9000 X129.312 Y117.891
G0 X131.953 Y117.762
G0 X131.967 Y117.919
G1 F2520 X131.967 Y109.654 E101.22726
G0 F9000 X131.967 Y109.813
G0 X134.633 Y109.827
G0 X134.633 Y109.668
G1 F2520 X134.633 Y117.646 E101.54638
G0 F9000 X134.616 Y117.477
G0 X137.285 Y117.210
G0 X137.299 Y117.372
G1 F2520 X137.299 Y109.682 E101.85398
G0 F9000 X137.299 Y109.841
G0 X139.965 Y109.855
G0 X139.965 Y109.696
G1 F2520 X139.965 Y117.149 E102.15210
G0 F9000 X139.954 Y116.989
G0 X142.608 Y116.694
G0 X142.631 Y116.854
G1 F2520 X142.631 Y109.710 E102.43786
G0 F9000 X142.631 Y109.869
G0 X145.297 Y109.883
G0 X145.297 Y109.724
G1 F2520 X145.297 Y116.473 E102.70782
G0 F9000 X145.275 Y116.313
G0 X147.941 Y115.932
G0 X147.963 Y116.091
G1 F2520 X147.963 Y109.737 E102.96198
G0 F9000 X147.963 Y109.897
G0 X150.511 Y110.878
G0 X150.629 Y110.772
G1 F2520 X150.629 Y115.653 E103.15722
;LAYER:4
G0 F9000 X150.629 Y115.529 Z0.700
;TYPE:SUPPORT
G1 F2580 X150.629 Y110.772 E103.34750
G0 F9000 X150.511 Y110.878
G0 X147.963 Y109.897
G0 X147.963 Y109.737
G1 F2580 X147.963 Y116.092 E103.60170
G0 F9000 X147.940 Y115.933
G0 X145.274 Y116.314
G0 X145.297 Y116.473
G1 F2580 X145.297 Y109.724 E103.87166
G0 F9000 X145.297 Y109.883
G0 X142.631 Y109.869
G0 X142.631 Y109.710
G1 F2580 X142.631 Y116.734 E104.15262
G0 F9000 X142.623 Y116.574
G0 X139.951 Y116.724
G0 X139.965 Y116.885
G1 F2580 X139.965 Y109.696 E104.44018
G0 F9000 X139.965 Y109.855
G0 X137.299 Y109.841
G0 X137.299 Y109.682
G1 F2580 X137.299 Y117.165 E104.73950
G0 F9000 X137.282 Y117.000
G0 X134.624 Y117.213
G0 X134.633 Y117.373
G1 F2580 X134.633 Y109.668 E105.04770
G0 F9000 X134.633 Y109.827
G0 X131.967 Y109.813
G0 X131.967 Y109.654
G1 F2580 X131.967 Y117.613 E105.36606
G0 F9000 X131.948 Y117.453
G0 X129.295 Y117.602
G0 X129.301 Y117.762
G1 F2580 X129.301 Y109.640 E105.69094
G0 F9000 X129.301 Y109.799
G0 X126.635 Y109.785
G0 X126.635 Y109.626
G1 F2580 X126.635 Y117.849 E106.01986
G0 F9000 X126.667 Y117.694
G0 X124.019 Y117.217
G0 X123.969 Y117.368
G1 F2580 X123.969 Y109.612 E106.33010
G0 F9000 X123.969 Y109.771
G0 X121.302 Y109.757
G0 X121.303 Y109.598
G1 F2580 X121.303 Y116.503 E106.60630
G0 F9000 X121.334 Y116.347
G0 X118.637 Y115.094
G0 X118.637 Y115.255
G1 F2580 X118.637 Y109.584 E106.83314
G0 F9000 X118.636 Y109.743
G0 X115.970 Y109.729
G0 X115.971 Y109.570
G1 F2580 X115.971 Y115.255 E107.06054
G0 F9000 X115.971 Y115.106
G0 X113.305 Y115.106
G0 X113.305 Y115.256
G1 F2580 X113.305 Y109.556 E107.28854
G0 F9000 X113.304 Y109.715
G0 X111.610 Y109.801
G0 X110.589 Y109.240
G0 X110.639 Y109.089
G1 F2580 X110.639 Y115.257 E107.53526
G0 F9000 X110.639 Y115.106
G0 X107.973 Y115.106
G0 X107.973 Y115.258
