;FLAVOR:UltiGCode
;TIME:365
;MATERIAL:825
;MATERIAL2:0

;Layer count: 36
;LAYER:0
M107
G0 F9000 X106.100 Y101.860 Z0.300
;TYPE:SKIRT
G1 F1800 X106.926 Y101.198 E0.15878
G1 X107.824 Y100.782 E0.30723
G1 X108.640 Y100.585 E0.43315
G1 X109.459 Y100.524 E0.55634
G1 X110.518 Y100.644 E0.71621
G1 X111.347 Y100.892 E0.84600
G1 X113.309 Y101.766 E1.16818
G1 X113.903 Y100.394 E1.39244
G1 X114.153 Y99.819 E1.48649
G1 X115.260 Y97.677 E1.84816
G1 X116.492 Y95.652 E2.20371
G1 X119.030 Y92.233 E2.84242
G1 X129.251 Y92.233 E4.37557
G1 X124.208 Y102.326 E6.06798
G1 X124.166 Y102.410 E6.08207
G1 X122.849 Y107.238 E6.83273
G1 X122.384 Y112.506 E7.62600
G1 X122.830 Y117.662 E8.40229
G1 X124.087 Y122.378 E9.13439
G1 X129.220 Y132.767 E10.87257
G1 X119.039 Y132.767 E12.39972
G1 X116.749 Y129.706 E12.97314
G1 X116.539 Y129.425 E13.02576
G1 X115.304 Y127.400 E13.38154
G1 X114.233 Y125.339 E13.72994
G1 X113.923 Y124.660 E13.84191
G1 X113.620 Y123.967 E13.95536
G1 X113.302 Y123.237 E14.07480
G1 X111.594 Y123.998 E14.35528
G1 X110.945 Y124.249 E14.45965
G1 X110.028 Y124.432 E14.59991
G1 X109.301 Y124.471 E14.70912
G1 X108.450 Y124.386 E14.83741
G1 X107.622 Y124.139 E14.96701
G1 X106.832 Y123.737 E15.09997
G1 X106.033 Y123.074 E15.25571
G1 X105.326 Y122.119 E15.43395
G1 X104.871 Y120.836 E15.63814
G1 X104.782 Y119.905 E15.77843
G1 X104.781 Y117.771 E16.09853
G1 X104.405 Y117.454 E16.17230
G1 X103.640 Y116.362 E16.37229
G1 X103.296 Y115.498 E16.51179
G1 X103.079 Y114.519 E16.66220
G1 X103.065 Y112.633 E16.94511
G1 X103.065 Y111.051 E17.18241
G1 X103.111 Y110.341 E17.28913
G1 X103.259 Y109.636 E17.39719
G1 X103.546 Y108.833 E17.52510
G1 X104.213 Y107.755 E17.71525
G1 X104.782 Y107.236 E17.83077
G1 X104.781 Y105.570 E18.08067
G1 X104.806 Y104.597 E18.22667
G1 X105.057 Y103.531 E18.39094
G1 X105.483 Y102.649 E18.53786
G1 X106.100 Y101.860 E18.68810
G0 F9000 X106.458 Y102.214
G1 F1800 X107.192 Y101.627 E18.82908
G1 X107.990 Y101.257 E18.96102
G1 X108.717 Y101.081 E19.07322
G1 X109.449 Y101.026 E19.18333
G1 X110.417 Y101.136 E19.32947
G1 X111.173 Y101.362 E19.44783
G1 X113.566 Y102.428 E19.84078
G1 X114.362 Y100.593 E20.14081
G1 X114.605 Y100.034 E20.23224
G1 X115.696 Y97.922 E20.58881
G1 X116.907 Y95.932 E20.93824
G1 X119.282 Y92.733 E21.53588
G1 X128.442 Y92.733 E22.90988
G1 X123.760 Y102.102 E24.48094
G1 X123.696 Y102.230 E24.50240
G1 X122.355 Y107.144 E25.26646
G1 X121.883 Y112.505 E26.07372
G1 X122.336 Y117.749 E26.86325
G1 X123.617 Y122.552 E27.60888
G1 X128.416 Y132.267 E29.23423
G1 X119.289 Y132.267 E30.60328
G1 X116.954 Y129.144 E31.18819
G1 X115.739 Y127.154 E31.53793
G1 X114.683 Y125.120 E31.88170
G1 X114.380 Y124.456 E31.99118
G1 X114.078 Y123.767 E32.10402
G1 X113.753 Y123.019 E32.22635
G1 X113.572 Y122.569 E32.29911
G1 X111.402 Y123.536 E32.65547
G1 X110.805 Y123.767 E32.75149
G1 X109.965 Y123.935 E32.87998
G1 X109.313 Y123.970 E32.97792
G1 X108.548 Y123.893 E33.09325
G1 X107.808 Y123.672 E33.20910
G1 X107.109 Y123.317 E33.32669
G1 X106.399 Y122.728 E33.46507
G1 X105.772 Y121.882 E33.62302
G1 X105.363 Y120.727 E33.80681
G1 X105.282 Y119.881 E33.93429
G1 X105.281 Y117.538 E34.28574
G1 X104.776 Y117.113 E34.38475
G1 X104.083 Y116.123 E34.56602
G1 X103.775 Y115.351 E34.69069
G1 X103.579 Y114.463 E34.82710
G1 X103.565 Y112.631 E35.10191
G1 X103.565 Y111.067 E35.33651
G1 X103.608 Y110.409 E35.43542
G1 X103.742 Y109.772 E35.53306
G1 X103.999 Y109.051 E35.64787
G1 X104.601 Y108.078 E35.81950
G1 X105.282 Y107.457 E35.95775
G1 X105.281 Y105.577 E36.23975
G1 X105.305 Y104.661 E36.37719
G1 X105.531 Y103.699 E36.52542
G1 X105.910 Y102.915 E36.65604
G1 X106.458 Y102.214 E36.78951
G10
G0 F9000 X109.371 Y105.043
;TYPE:WALL-INNER
G11
G1 F1800 X109.610 Y105.070 E36.82559
G1 X109.786 Y105.123 E36.85316
G1 X110.412 Y105.402 E36.95596
G1 X110.412 Y119.598 E39.08536
G1 X109.863 Y119.843 E39.17554
G1 X109.682 Y119.913 E39.20465
G1 X109.468 Y119.956 E39.23739
G1 X109.405 Y119.959 E39.24685
G1 X109.332 Y119.952 E39.25785
G1 X109.298 Y119.858 E39.27285
G1 X109.281 Y116.321 E39.80340
G1 X109.282 Y115.919 E39.86370
G1 X109.244 Y115.611 E39.91025
G1 X109.100 Y115.231 E39.97121
G1 X108.795 Y114.853 E40.04406
G1 X108.627 Y114.727 E40.07556
G1 X108.120 Y114.488 E40.15964
G1 X107.742 Y114.376 E40.21878
G1 X107.627 Y114.212 E40.24882
G1 X107.575 Y114.012 E40.27982
G1 X107.565 Y112.619 E40.48877
G1 X107.565 Y111.191 E40.70297
G1 X107.580 Y110.956 E40.73830
G1 X107.622 Y110.798 E40.76282
G1 X107.710 Y110.656 E40.78788
G1 X107.772 Y110.603 E40.80011
G1 X107.825 Y110.582 E40.80866
G1 X108.292 Y110.457 E40.88118
G1 X108.535 Y110.336 E40.92190
G1 X108.732 Y110.200 E40.95781
G1 X109.037 Y109.872 E41.02499
G1 X109.208 Y109.508 E41.08531
G1 X109.277 Y109.179 E41.13574
G1 X109.283 Y109.016 E41.16021
G1 X109.281 Y105.638 E41.66691
G1 X109.293 Y105.175 E41.73638
G1 X109.323 Y105.049 E41.75581
G1 X109.371 Y105.043 E41.76306
G0 F9000 X108.781 Y105.625
;TYPE:WALL-OUTER
G1 F1800 X108.794 Y105.110 E41.84034
G1 X108.849 Y104.877 E41.87625
G1 X108.898 Y104.775 E41.89322
G1 X108.965 Y104.690 E41.90946
G1 X109.046 Y104.625 E41.92503
G1 X109.149 Y104.577 E41.94208
G1 X109.264 Y104.549 E41.95983
G1 X109.381 Y104.541 E41.97743
G1 X109.708 Y104.578 E42.02679
G1 X109.961 Y104.653 E42.06637
G1 X110.912 Y105.077 E42.22256
G1 X110.912 Y119.923 E44.44946
G1 X110.058 Y120.303 E44.58967
G1 X109.823 Y120.394 E44.62747
G1 X109.530 Y120.453 E44.67230
G1 X109.394 Y120.460 E44.69273
G1 X109.229 Y120.443 E44.71761
G1 X109.111 Y120.408 E44.73607
G1 X109.043 Y120.374 E44.74747
G1 X108.960 Y120.305 E44.76366
G1 X108.896 Y120.219 E44.77974
G1 X108.806 Y119.964 E44.82031
G1 X108.782 Y119.712 E44.85828
G1 X108.782 Y115.949 E45.42273
G1 X108.755 Y115.732 E45.45553
G1 X108.661 Y115.483 E45.49545
G1 X108.445 Y115.216 E45.54696
G1 X108.368 Y115.158 E45.56142
G1 X107.943 Y114.957 E45.63194
G1 X107.544 Y114.842 E45.69423
G1 X107.380 Y114.730 E45.72402
G1 X107.183 Y114.448 E45.77562
G1 X107.132 Y114.321 E45.79615
G1 X107.076 Y114.067 E45.83516
G1 X107.065 Y112.619 E46.05237
G1 X107.065 Y111.173 E46.26927
G1 X107.083 Y110.890 E46.31181
G1 X107.119 Y110.719 E46.33802
G1 X107.169 Y110.581 E46.36003
G1 X107.322 Y110.334 E46.40362
G1 X107.464 Y110.204 E46.43249
G1 X107.560 Y110.148 E46.44917
G1 X108.114 Y109.987 E46.53570
G1 X108.280 Y109.904 E46.56354
G1 X108.403 Y109.819 E46.58597
G1 X108.618 Y109.589 E46.63320
G1 X108.731 Y109.348 E46.67312
G1 X108.779 Y109.118 E46.70837
G1 X108.783 Y109.007 E46.72503
G1 X108.781 Y105.625 E47.23233
G0 F9000 X109.456 Y105.567
;TYPE:SKIN
G1 F1800 X110.236 Y106.347 E47.39779
G0 F9000 X110.236 Y107.054
G1 F1800 X109.455 Y106.273 E47.56346
G0 F9000 X109.455 Y106.981
G1 F1800 X110.236 Y107.761 E47.72903
G0 F9000 X110.236 Y108.468
G1 F1800 X109.455 Y107.688 E47.89460
G0 F9000 X109.456 Y108.395
G1 F1800 X110.236 Y109.175 E48.06007
G0 F9000 X110.236 Y109.882
G1 F1800 X109.453 Y109.100 E48.22606
G0 F9000 X109.322 Y109.675
G1 F1800 X110.236 Y110.590 E48.42005
G0 F9000 X110.236 Y111.297
G1 F1800 X109.051 Y110.112 E48.67143
G0 F9000 X108.679 Y110.447
G1 F1800 X110.236 Y112.004 E49.00172
G0 F9000 X110.236 Y112.711
G1 F1800 X108.190 Y110.665 E49.43574
G0 F9000 X107.763 Y110.945
G1 F1800 X110.236 Y113.418 E49.96034
G0 F9000 X110.236 Y114.125
G1 F1800 X107.741 Y111.630 E50.48961
G0 F9000 X107.743 Y112.340
G1 F1800 X110.236 Y114.832 E51.01835
G0 F9000 X110.236 Y115.539
G1 F1800 X107.746 Y113.050 E51.54646
G0 F9000 X107.748 Y113.759
G1 F1800 X108.429 Y114.440 E51.69092
G0 F9000 X109.327 Y115.337
G1 F1800 X110.236 Y116.246 E51.88375
G0 F9000 X110.236 Y116.954
G1 F1800 X109.458 Y116.175 E52.04889
G0 F9000 X109.460 Y116.885
G1 F1800 X110.236 Y117.661 E52.21351
G0 F9000 X110.236 Y118.368
G1 F1800 X109.462 Y117.594 E52.37770
G0 F9000 X109.465 Y118.304
G1 F1800 X110.236 Y119.075 E52.54125
G0 F9000 X110.029 Y119.575
G1 F1800 X109.468 Y119.014 E52.66026
G0 F9000 X110.236 Y105.640
G1 F1800 X110.011 Y105.415 E52.70798
G10
G0 F9000 X117.411 Y103.616
;TYPE:WALL-INNER
G11
G1 F1800 X118.221 Y101.748 E53.01339
G1 X119.180 Y99.892 E53.32676
G1 X120.232 Y98.164 E53.63022
G1 X121.294 Y96.733 E53.89752
G1 X121.972 Y96.733 E53.99922
G1 X119.942 Y100.794 E54.68024
G1 X118.483 Y106.142 E55.51175
G1 X118.403 Y106.432 E55.55688
G1 X117.895 Y112.189 E56.42378
G1 X117.867 Y112.498 E56.47032
G1 X118.355 Y118.139 E57.31963
G1 X118.382 Y118.443 E57.36541
G1 X119.856 Y123.971 E58.22359
G1 X121.978 Y128.267 E58.94231
G1 X121.293 Y128.267 E59.04506
G1 X120.269 Y126.897 E59.30162
G1 X119.230 Y125.195 E59.60073
G1 X118.271 Y123.349 E59.91277
G1 X118.029 Y122.818 E60.00030
G1 X117.744 Y122.166 E60.10703
G1 X117.439 Y121.465 E60.22171
G1 X117.411 Y121.394 E60.23315
G1 X117.411 Y103.616 E62.89985
G0 F9000 X116.911 Y103.512
;TYPE:WALL-OUTER
G1 F1800 X117.764 Y101.544 E63.22159
G1 X118.745 Y99.645 E63.54220
G1 X119.815 Y97.887 E63.85091
G1 X121.043 Y96.233 E64.15991
G1 X122.780 Y96.233 E64.42046
G1 X120.411 Y100.973 E65.21532
G1 X118.897 Y106.522 E66.07809
G1 X118.369 Y112.500 E66.97828
G1 X118.876 Y118.355 E67.85982
G1 X120.326 Y123.794 E68.70416
G1 X122.783 Y128.767 E69.53619
G1 X121.042 Y128.767 E69.79734
G1 X119.852 Y127.176 E70.09536
G1 X118.793 Y125.440 E70.40039
G1 X117.827 Y123.580 E70.71477
G1 X117.574 Y123.026 E70.80613
G1 X116.980 Y121.664 E71.02901
G1 X116.911 Y121.492 E71.05681
G1 X116.911 Y103.512 E73.75381
G0 F9000 X117.584 Y103.796
;TYPE:SKIN
G1 F1800 X118.650 Y104.861 E73.97984
G0 F9000 X118.801 Y104.306
G1 F1800 X117.755 Y103.259 E74.20183
G0 F9000 X117.968 Y102.765
G1 F1800 X118.953 Y103.750 E74.41078
G0 F9000 X119.105 Y103.195
G1 F1800 X118.182 Y102.273 E74.60647
G0 F9000 X118.399 Y101.782
G1 F1800 X119.256 Y102.639 E74.78827
G0 F9000 X119.408 Y102.084
G1 F1800 X118.640 Y101.316 E74.95119
G0 F9000 X118.880 Y100.849
G1 F1800 X119.635 Y101.250 E75.09532
G1 X119.244 Y100.152 E75.22015
G1 X119.911 Y100.465 E75.33067
G0 F9000 X117.584 Y104.503
G1 F1800 X118.498 Y105.416 E75.52445
G0 F9000 X118.347 Y105.972
G1 F1800 X117.584 Y105.210 E75.68620
G0 F9000 X117.584 Y105.917
G1 F1800 X117.900 Y106.586 E75.82027
G1 X117.871 Y107.265 E75.94219
G1 X117.843 Y107.943 E76.05192
G1 X117.814 Y108.621 E76.14944
G1 X117.785 Y109.300 E76.23466
G1 X117.756 Y109.979 E76.30765
G1 X117.727 Y110.657 E76.36832
G1 X117.699 Y111.335 E76.41697
G1 X117.757 Y111.746 E76.47924
G0 F9000 X117.585 Y112.989
G1 F1800 X117.666 Y113.423 E76.51354
G1 X117.700 Y114.164 E76.56227
G1 X117.733 Y114.905 E76.62525
G1 X117.767 Y115.645 E76.70236
G1 X117.800 Y116.386 E76.79382
G1 X117.834 Y117.127 E76.89952
G1 X117.868 Y117.868 E77.01947
G1 X118.242 Y118.595 E77.14210
G0 F9000 X117.585 Y118.646
G1 F1800 X118.499 Y119.559 E77.33589
G0 F9000 X117.585 Y119.353
G1 F1800 X118.756 Y120.524 E77.58429
G0 F9000 X119.013 Y121.488
G1 F1800 X117.585 Y120.060 E77.88722
G0 F9000 X117.585 Y120.767
G1 F1800 X119.270 Y122.452 E78.24466
G0 F9000 X119.527 Y123.417
G1 F1800 X117.672 Y121.561 E78.63827
G0 F9000 X118.219 Y122.815
G1 F1800 X119.941 Y124.537 E79.00356
G0 F9000 X118.925 Y124.228
G1 F1800 X120.632 Y125.935 E79.36567
G0 F9000 X119.826 Y125.836
G1 F1800 X121.323 Y127.333 E79.68323
G0 F9000 X119.904 Y123.953
G0 X118.432 Y118.433
G0 X117.945 Y112.195
G0 X118.532 Y106.156
G0 X120.146 Y99.994
G1 F1800 X119.767 Y99.261 E79.79191
G1 X120.499 Y99.286 E79.89364
G1 X120.306 Y98.386 E79.98863
G1 X120.970 Y98.343 E80.07527
G1 X120.895 Y97.561 E80.14786
G1 X121.441 Y97.399 E80.20646
G1 X121.348 Y96.952 E80.27495
;LAYER:1
M106 S127
G10
G0 F9000 X110.412 Y105.402 Z0.450
;TYPE:WALL-INNER
G11
G1 F2520 X110.412 Y119.598 E81.33965
G1 X109.938 Y119.809 E81.37856
G1 X109.656 Y119.918 E81.40124
G1 X109.465 Y119.956 E81.41584
G1 X109.399 Y119.959 E81.42080
G1 X109.322 Y119.950 E81.42661
G1 X109.287 Y119.779 E81.43970
G1 X109.281 Y119.184 E81.48433
G1 X109.281 Y116.519 E81.68420
G1 X109.284 Y115.999 E81.72320
G1 X109.277 Y115.826 E81.73619
G1 X109.214 Y115.500 E81.76109
G1 X109.061 Y115.171 E81.78830
G1 X108.833 Y114.888 E81.81556
G1 X108.492 Y114.637 E81.84732
G1 X108.137 Y114.491 E81.87611
G1 X107.756 Y114.388 E81.90571
G1 X107.711 Y114.348 E81.91022
G1 X107.603 Y114.136 E81.92807
G1 X107.575 Y114.012 E81.93760
G1 X107.565 Y112.697 E82.03623
G1 X107.565 Y111.275 E82.14288
G1 X107.574 Y110.993 E82.16404
G1 X107.596 Y110.877 E82.17289
G1 X107.629 Y110.782 E82.18044
G1 X107.701 Y110.660 E82.19106
G1 X107.792 Y110.598 E82.19932
G1 X107.878 Y110.568 E82.20615
G1 X108.302 Y110.455 E82.23906
G1 X108.633 Y110.275 E82.26732
G1 X108.858 Y110.084 E82.28946
G1 X109.053 Y109.838 E82.31300
G1 X109.193 Y109.555 E82.33668
G1 X109.269 Y109.252 E82.36011
G1 X109.283 Y109.032 E82.37664
G1 X109.281 Y108.484 E82.41774
G1 X109.281 Y105.818 E82.61769
G1 X109.282 Y105.268 E82.65894
G1 X109.293 Y105.158 E82.66723
G1 X109.324 Y105.053 E82.67544
G1 X109.367 Y105.044 E82.67874
G1 X109.660 Y105.082 E82.70090
G1 X109.776 Y105.118 E82.71001
G1 X110.412 Y105.402 E82.76225
G0 F9000 X109.951 Y104.649
;TYPE:WALL-OUTER
G1 F1920 X110.912 Y105.077 E82.84115
G1 X110.912 Y119.923 E83.95460
G1 X110.133 Y120.269 E84.01853
G1 X109.793 Y120.401 E84.04588
G1 X109.532 Y120.453 E84.06584
G1 X109.387 Y120.460 E84.07673
G1 X109.265 Y120.451 E84.08590
G1 X109.139 Y120.420 E84.09563
G1 X109.041 Y120.372 E84.10382
G1 X108.960 Y120.305 E84.11170
G1 X108.889 Y120.210 E84.12060
G1 X108.844 Y120.107 E84.12903
G1 X108.788 Y119.831 E84.15015
G1 X108.781 Y119.184 E84.19868
G1 X108.782 Y115.996 E84.43778
G1 X108.779 Y115.885 E84.44610
G1 X108.735 Y115.655 E84.46367
G1 X108.633 Y115.437 E84.48172
G1 X108.484 Y115.252 E84.49953
G1 X108.245 Y115.076 E84.52180
G1 X107.983 Y114.968 E84.54305
G1 X107.658 Y114.891 E84.56810
G1 X107.459 Y114.793 E84.58474
G1 X107.307 Y114.654 E84.60018
G1 X107.129 Y114.306 E84.62950
G1 X107.076 Y114.067 E84.64786
G1 X107.065 Y112.697 E84.75061
G1 X107.065 Y111.259 E84.85846
G1 X107.075 Y110.940 E84.88240
G1 X107.112 Y110.746 E84.89721
G1 X107.172 Y110.573 E84.91095
G1 X107.300 Y110.356 E84.92984
G1 X107.368 Y110.283 E84.93732
G1 X107.564 Y110.148 E84.95517
G1 X108.116 Y109.987 E84.99830
G1 X108.349 Y109.860 E85.01820
G1 X108.497 Y109.735 E85.03273
G1 X108.628 Y109.569 E85.04859
G1 X108.721 Y109.382 E85.06425
G1 X108.773 Y109.175 E85.08026
G1 X108.783 Y109.017 E85.09213
G1 X108.781 Y105.817 E85.33213
G1 X108.782 Y105.250 E85.37466
G1 X108.800 Y105.064 E85.38867
G1 X108.849 Y104.878 E85.40310
G1 X108.895 Y104.783 E85.41102
G1 X109.016 Y104.649 E85.42456
G1 X109.150 Y104.578 E85.43593
G1 X109.317 Y104.544 E85.44871
G1 X109.377 Y104.541 E85.45322
G1 X109.770 Y104.592 E85.48294
G1 X109.951 Y104.649 E85.49717
G0 F9000 X109.933 Y105.380
;TYPE:SKIN
G1 F1740 X109.456 Y105.857 E85.54777
G0 F9000 X109.456 Y106.564
G1 F1740 X110.235 Y105.785 E85.63039
G0 F9000 X110.235 Y106.492
G1 F1740 X109.457 Y107.270 E85.71291
G0 F9000 X109.457 Y107.978
G1 F1740 X110.235 Y107.199 E85.79548
G0 F9000 X110.235 Y107.906
G1 F1740 X109.457 Y108.685 E85.87806
G0 F9000 X109.398 Y109.450
G1 F1740 X110.235 Y108.613 E85.96683
G0 F9000 X110.235 Y109.320
G1 F1740 X107.741 Y111.814 E86.23136
G0 F9000 X107.744 Y112.519
G1 F1740 X110.235 Y110.027 E86.49563
G0 F9000 X110.235 Y110.735
G1 F1740 X107.747 Y113.223 E86.75952
G0 F9000 X107.749 Y113.928
G1 F1740 X110.235 Y111.442 E87.02320
G0 F9000 X110.235 Y112.149
G1 F1740 X108.089 Y114.296 E87.25087
G0 F9000 X108.595 Y114.496
G1 F1740 X110.235 Y112.856 E87.42482
G0 F9000 X110.235 Y113.563
G1 F1740 X108.993 Y114.805 E87.55655
G0 F9000 X109.280 Y115.225
G1 F1740 X110.235 Y114.270 E87.65784
G0 F9000 X110.235 Y114.977
G1 F1740 X109.444 Y115.768 E87.74174
G0 F9000 X109.456 Y116.464
