;FLAVOR:UltiGCode
;TIME:4869
;MATERIAL:10022
;MATERIAL2:0

;Layer count: 35
;LAYER:0
M107
G0 F9000 X151.509 Y101.674 Z0.300
;TYPE:SKIRT
G1 F1800 X152.163 Y100.771 E0.16724
G1 X153.002 Y100.067 E0.33153
G1 X153.999 Y99.584 E0.49770
G1 X155.096 Y99.361 E0.66562
G1 X156.288 Y99.420 E0.84464
G1 X157.298 Y99.783 E1.00563
G1 X158.016 Y100.103 E1.12354
G1 X158.620 Y100.371 E1.22266
G1 X158.620 Y100.372 E1.22281
G1 X159.383 Y100.709 E1.34792
G1 X159.851 Y99.661 E1.52008
G1 X160.489 Y98.089 E1.77456
G1 X161.479 Y96.239 E2.08930
G1 X161.735 Y95.763 E2.17037
G1 X163.535 Y92.993 E2.66589
G1 X165.911 Y91.779 E3.06612
G1 X166.943 Y91.251 E3.24000
G1 X170.750 Y91.251 E3.81105
G1 X171.743 Y91.386 E3.96137
G1 X172.880 Y91.886 E4.14769
G1 X173.830 Y92.672 E4.33264
G1 X174.520 Y93.668 E4.51438
G1 X174.919 Y94.818 E4.69697
G1 X174.994 Y96.053 E4.88256
G1 X174.725 Y97.260 E5.06806
G1 X174.384 Y97.894 E5.17604
G1 X172.781 Y101.108 E5.71477
G1 X172.062 Y102.546 E5.95593
G1 X170.758 Y107.347 E6.70217
G1 X170.365 Y111.819 E7.37556
G1 X170.303 Y112.527 E7.48217
G1 X170.755 Y117.697 E8.26062
G1 X171.887 Y121.874 E8.90978
G1 X172.057 Y122.498 E9.00679
G1 X174.379 Y127.171 E9.78950
G1 X174.711 Y127.819 E9.89872
G1 X174.957 Y129.025 E10.08334
G1 X174.864 Y130.248 E10.26732
G1 X174.453 Y131.380 E10.44797
G1 X173.753 Y132.364 E10.62911
G1 X172.799 Y133.139 E10.81347
G1 X171.670 Y133.620 E10.99755
G1 X170.704 Y133.749 E11.14374
G1 X166.944 Y133.749 E11.70774
G1 X164.643 Y132.574 E12.09529
G1 X163.535 Y132.006 E12.28205
G1 X162.047 Y129.720 E12.69120
G1 X161.761 Y129.281 E12.76979
G1 X160.811 Y127.520 E13.06992
G1 X160.543 Y127.023 E13.15462
G1 X159.885 Y125.409 E13.41607
G1 X159.381 Y124.291 E13.60002
G1 X158.718 Y124.585 E13.70881
G1 X158.026 Y124.891 E13.82230
G1 X158.026 Y124.892 E13.82245
G1 X157.488 Y125.132 E13.91082
G1 X156.997 Y125.348 E13.99128
G1 X156.175 Y125.588 E14.11973
G1 X155.078 Y125.639 E14.28446
G1 X153.981 Y125.411 E14.45252
G1 X152.998 Y124.929 E14.61675
G1 X152.151 Y124.220 E14.78243
G1 X151.496 Y123.303 E14.95147
G1 X151.096 Y122.266 E15.11819
G1 X150.986 Y121.382 E15.25181
G1 X150.986 Y119.067 E15.59906
G1 X150.816 Y118.951 E15.62993
G1 X150.166 Y118.170 E15.78235
G1 X149.798 Y117.728 E15.86862
G1 X149.390 Y116.797 E16.02109
G1 X149.161 Y116.275 E16.10659
G1 X148.983 Y114.965 E16.30490
G1 X148.983 Y110.030 E17.04515
G1 X149.168 Y108.697 E17.24702
G1 X149.584 Y107.764 E17.40025
G1 X149.820 Y107.238 E17.48672
G1 X150.839 Y106.028 E17.72401
G1 X150.986 Y105.929 E17.75060
G1 X150.986 Y103.616 E18.09755
G1 X151.099 Y102.716 E18.23361
G1 X151.509 Y101.674 E18.40157
G0 F9000 X149.292 Y101.108
G1 F1800 X148.573 Y102.546 E18.64273
G1 X147.269 Y107.347 E19.38897
G1 X146.876 Y111.819 E20.06236
G1 X146.814 Y112.527 E20.16896
G1 X147.266 Y117.697 E20.94742
G1 X148.398 Y121.874 E21.59657
G1 X148.568 Y122.498 E21.69358
G1 X149.279 Y123.930 E21.93340
G1 X150.875 Y127.140 E22.47113
G1 X151.223 Y127.823 E22.58612
G1 X151.468 Y129.025 E22.77012
G1 X151.375 Y130.248 E22.95410
G1 X150.964 Y131.380 E23.13475
G1 X150.264 Y132.364 E23.31588
G1 X150.116 Y132.485 E23.34456
G1 X150.341 Y132.671 E23.38835
G1 X151.031 Y133.667 E23.57010
G1 X151.430 Y134.817 E23.75269
G1 X151.505 Y136.052 E23.93828
G1 X151.236 Y137.259 E24.12377
G1 X150.895 Y137.893 E24.23175
G1 X149.292 Y141.107 E24.77049
G1 X148.573 Y142.545 E25.01165
G1 X147.269 Y147.346 E25.75789
G1 X146.876 Y151.819 E26.43142
G1 X146.814 Y152.527 E26.53803
G1 X147.266 Y157.697 E27.31649
G1 X148.398 Y161.874 E27.96564
G1 X148.568 Y162.498 E28.06265
G1 X149.279 Y163.930 E28.30247
G1 X150.875 Y167.140 E28.84020
G1 X151.223 Y167.823 E28.95518
G1 X151.468 Y169.025 E29.13919
G1 X151.375 Y170.248 E29.32317
G1 X150.964 Y171.380 E29.50381
G1 X150.264 Y172.364 E29.68495
G1 X149.310 Y173.139 E29.86932
G1 X148.181 Y173.620 E30.05340
G1 X147.215 Y173.749 E30.19959
G1 X143.455 Y173.749 E30.76359
G1 X141.154 Y172.574 E31.15113
G1 X140.046 Y172.006 E31.33790
G1 X138.558 Y169.720 E31.74704
G1 X138.272 Y169.281 E31.82563
G1 X137.322 Y167.520 E32.12577
G1 X137.054 Y167.023 E32.21047
G1 X136.396 Y165.409 E32.47191
G1 X135.892 Y164.291 E32.65587
G1 X135.229 Y164.585 E32.76466
G1 X134.537 Y164.891 E32.87815
G1 X134.537 Y164.892 E32.87830
G1 X133.999 Y165.132 E32.96667
G1 X133.508 Y165.348 E33.04713
G1 X132.686 Y165.588 E33.17558
G1 X131.589 Y165.639 E33.34030
G1 X130.492 Y165.411 E33.50837
G1 X129.509 Y164.929 E33.67259
G1 X128.662 Y164.220 E33.83828
G1 X128.007 Y163.303 E34.00731
G1 X127.607 Y162.266 E34.17404
G1 X127.497 Y161.382 E34.30766
G1 X127.497 Y159.067 E34.65491
G1 X127.327 Y158.951 E34.68578
G1 X126.677 Y158.170 E34.83819
G1 X126.309 Y157.728 E34.92447
G1 X125.901 Y156.797 E35.07694
G1 X125.672 Y156.275 E35.16244
G1 X125.494 Y154.965 E35.36075
G1 X125.494 Y150.029 E36.10115
G1 X125.679 Y148.696 E36.30301
G1 X126.095 Y147.763 E36.45624
G1 X126.331 Y147.237 E36.54272
G1 X127.350 Y146.027 E36.78001
G1 X127.497 Y145.928 E36.80659
G1 X127.497 Y143.615 E37.15354
G1 X127.610 Y142.715 E37.28960
G1 X128.020 Y141.673 E37.45757
G1 X128.674 Y140.770 E37.62481
G1 X129.513 Y140.066 E37.78909
G1 X130.510 Y139.583 E37.95527
G1 X131.607 Y139.360 E38.12319
G1 X132.799 Y139.419 E38.30220
G1 X133.809 Y139.782 E38.46319
G1 X134.527 Y140.102 E38.58110
G1 X135.131 Y140.370 E38.68022
G1 X135.131 Y140.371 E38.68037
G1 X135.894 Y140.708 E38.80549
G1 X136.362 Y139.660 E38.97765
G1 X137.000 Y138.088 E39.23213
G1 X137.990 Y136.238 E39.54687
G1 X138.246 Y135.762 E39.62794
G1 X140.045 Y132.993 E40.12325
G1 X141.009 Y132.500 E40.28566
G1 X140.046 Y132.006 E40.44801
G1 X138.558 Y129.720 E40.85715
G1 X138.272 Y129.281 E40.93575
G1 X137.322 Y127.520 E41.23588
G1 X137.054 Y127.023 E41.32058
G1 X136.396 Y125.409 E41.58203
G1 X135.892 Y124.291 E41.76598
G1 X135.229 Y124.585 E41.87477
G1 X134.537 Y124.891 E41.98826
G1 X134.537 Y124.892 E41.98841
G1 X133.999 Y125.132 E42.07678
G1 X133.508 Y125.348 E42.15724
G1 X132.686 Y125.588 E42.28569
G1 X131.589 Y125.639 E42.45042
G1 X130.492 Y125.411 E42.61848
G1 X129.509 Y124.929 E42.78270
G1 X128.662 Y124.220 E42.94839
G1 X128.007 Y123.303 E43.11743
G1 X127.607 Y122.266 E43.28415
G1 X127.497 Y121.382 E43.41777
G1 X127.497 Y119.067 E43.76502
G1 X127.327 Y118.951 E43.79589
G1 X126.677 Y118.170 E43.94831
G1 X126.309 Y117.728 E44.03458
G1 X125.901 Y116.797 E44.18705
G1 X125.672 Y116.275 E44.27255
G1 X125.494 Y114.965 E44.47086
G1 X125.494 Y110.030 E45.21111
G1 X125.679 Y108.697 E45.41297
G1 X126.095 Y107.764 E45.56621
G1 X126.331 Y107.238 E45.65268
G1 X127.350 Y106.028 E45.88997
G1 X127.497 Y105.929 E45.91655
G1 X127.497 Y103.616 E46.26350
G1 X127.610 Y102.716 E46.39956
G1 X128.020 Y101.674 E46.56753
G1 X128.674 Y100.771 E46.73477
G1 X129.513 Y100.067 E46.89906
G1 X130.510 Y99.584 E47.06523
G1 X131.607 Y99.361 E47.23315
G1 X132.799 Y99.420 E47.41217
G1 X133.809 Y99.783 E47.57315
G1 X134.527 Y100.103 E47.69107
G1 X135.131 Y100.371 E47.79018
G1 X135.131 Y100.372 E47.79033
G1 X135.894 Y100.709 E47.91545
G1 X136.362 Y99.661 E48.08761
G1 X137.000 Y98.089 E48.34209
G1 X137.990 Y96.239 E48.65683
G1 X138.246 Y95.763 E48.73790
G1 X140.046 Y92.993 E49.23342
G1 X141.010 Y92.501 E49.39576
G1 X140.047 Y92.008 E49.55804
G1 X138.558 Y89.721 E49.96739
G1 X138.272 Y89.282 E50.04599
G1 X137.322 Y87.521 E50.34612
G1 X137.054 Y87.024 E50.43082
G1 X136.396 Y85.410 E50.69227
G1 X135.892 Y84.292 E50.87622
G1 X135.229 Y84.586 E50.98501
G1 X134.537 Y84.892 E51.09850
G1 X134.537 Y84.893 E51.09865
G1 X133.999 Y85.133 E51.18702
G1 X133.508 Y85.349 E51.26748
G1 X132.686 Y85.589 E51.39593
G1 X131.589 Y85.640 E51.56066
G1 X130.492 Y85.412 E51.72872
G1 X129.509 Y84.930 E51.89295
G1 X128.662 Y84.221 E52.05863
G1 X128.007 Y83.304 E52.22767
G1 X127.607 Y82.267 E52.39439
G1 X127.497 Y81.383 E52.52801
G1 X127.497 Y79.068 E52.87526
G1 X127.327 Y78.952 E52.90613
G1 X126.677 Y78.171 E53.05855
G1 X126.309 Y77.729 E53.14482
G1 X125.901 Y76.798 E53.29729
G1 X125.672 Y76.276 E53.38279
G1 X125.494 Y74.966 E53.58110
G1 X125.494 Y70.030 E54.32150
G1 X125.679 Y68.697 E54.52337
G1 X126.095 Y67.764 E54.67660
G1 X126.331 Y67.238 E54.76307
G1 X127.350 Y66.028 E55.00036
G1 X127.497 Y65.929 E55.02695
G1 X127.497 Y63.616 E55.37390
G1 X127.610 Y62.716 E55.50996
G1 X128.020 Y61.674 E55.67792
G1 X128.674 Y60.771 E55.84516
G1 X129.513 Y60.067 E56.00945
G1 X130.510 Y59.584 E56.17562
G1 X131.607 Y59.361 E56.34354
G1 X132.799 Y59.420 E56.52256
G1 X133.809 Y59.783 E56.68355
G1 X134.527 Y60.103 E56.80146
G1 X135.131 Y60.371 E56.90058
G1 X135.131 Y60.372 E56.90073
G1 X135.894 Y60.709 E57.02584
G1 X136.362 Y59.661 E57.19800
G1 X137.000 Y58.089 E57.45248
G1 X137.990 Y56.239 E57.76722
G1 X138.246 Y55.763 E57.84829
G1 X140.046 Y52.993 E58.34381
G1 X142.422 Y51.779 E58.74404
G1 X143.454 Y51.251 E58.91792
G1 X147.261 Y51.251 E59.48897
G1 X148.254 Y51.386 E59.63929
G1 X149.391 Y51.886 E59.82560
G1 X150.341 Y52.672 E60.01055
G1 X151.031 Y53.668 E60.19230
G1 X151.430 Y54.818 E60.37489
G1 X151.505 Y56.053 E60.56048
G1 X151.236 Y57.260 E60.74597
G1 X150.895 Y57.894 E60.85396
G1 X149.292 Y61.108 E61.39269
G1 X148.573 Y62.546 E61.63385
G1 X147.269 Y67.347 E62.38009
G1 X146.876 Y71.820 E63.05363
G1 X146.814 Y72.528 E63.16024
G1 X147.266 Y77.698 E63.93869
G1 X148.398 Y81.875 E64.58784
G1 X148.568 Y82.499 E64.68486
G1 X149.279 Y83.931 E64.92468
G1 X150.875 Y87.141 E65.46241
G1 X151.223 Y87.824 E65.57739
G1 X151.468 Y89.026 E65.76140
G1 X151.375 Y90.249 E65.94538
G1 X150.964 Y91.381 E66.12602
G1 X150.264 Y92.365 E66.30716
G1 X150.116 Y92.486 E66.33583
G1 X150.341 Y92.672 E66.37962
G1 X151.031 Y93.668 E66.56137
G1 X151.430 Y94.818 E66.74396
G1 X151.505 Y96.053 E66.92955
G1 X151.236 Y97.260 E67.11504
G1 X150.895 Y97.894 E67.22302
G1 X149.292 Y101.108 E67.76176
G0 F9000 X128.016 Y96.053
G1 F1800 X127.747 Y97.260 E67.94725
G1 X127.406 Y97.894 E68.05524
G1 X125.803 Y101.108 E68.59397
G1 X125.084 Y102.546 E68.83513
G1 X123.780 Y107.347 E69.58137
G1 X123.387 Y111.819 E70.25476
G1 X123.325 Y112.527 E70.36136
G1 X123.777 Y117.697 E71.13982
G1 X124.909 Y121.874 E71.78897
G1 X125.079 Y122.498 E71.88598
G1 X125.790 Y123.930 E72.12580
G1 X127.386 Y127.140 E72.66353
G1 X127.734 Y127.823 E72.77852
G1 X127.979 Y129.025 E72.96252
G1 X127.886 Y130.248 E73.14650
G1 X127.475 Y131.380 E73.32715
G1 X126.775 Y132.364 E73.50829
G1 X126.627 Y132.485 E73.53696
G1 X126.852 Y132.671 E73.58075
G1 X127.542 Y133.667 E73.76250
G1 X127.941 Y134.817 E73.94509
G1 X128.016 Y136.052 E74.13068
G1 X127.747 Y137.259 E74.31617
G1 X127.406 Y137.893 E74.42415
G1 X125.803 Y141.107 E74.96289
G1 X125.084 Y142.545 E75.20405
G1 X123.780 Y147.346 E75.95029
G1 X123.387 Y151.819 E76.62382
G1 X123.325 Y152.527 E76.73043
G1 X123.777 Y157.697 E77.50889
G1 X124.909 Y161.874 E78.15804
G1 X125.079 Y162.498 E78.25505
G1 X125.790 Y163.930 E78.49487
G1 X127.386 Y167.140 E79.03260
G1 X127.734 Y167.823 E79.14758
G1 X127.979 Y169.025 E79.33159
G1 X127.886 Y170.248 E79.51557
G1 X127.475 Y171.380 E79.69622
G1 X126.775 Y172.364 E79.87735
G1 X125.821 Y173.139 E80.06172
G1 X124.692 Y173.620 E80.24580
G1 X123.726 Y173.749 E80.39199
G1 X119.966 Y173.749 E80.95599
G1 X117.665 Y172.574 E81.34353
G1 X116.557 Y172.006 E81.53030
G1 X115.069 Y169.720 E81.93944
G1 X114.783 Y169.281 E82.01804
G1 X113.833 Y167.520 E82.31817
G1 X113.565 Y167.023 E82.40287
G1 X112.907 Y165.409 E82.66431
G1 X112.404 Y164.292 E82.84807
G1 X111.741 Y164.585 E82.95680
G1 X111.049 Y164.891 E83.07029
G1 X111.049 Y164.892 E83.07044
G1 X110.511 Y165.132 E83.15881
G1 X110.020 Y165.348 E83.23927
G1 X109.198 Y165.588 E83.36772
G1 X108.101 Y165.639 E83.53245
G1 X107.004 Y165.411 E83.70051
G1 X106.021 Y164.929 E83.86473
G1 X105.174 Y164.220 E84.03042
G1 X104.519 Y163.303 E84.19946
G1 X104.119 Y162.266 E84.36618
G1 X104.009 Y161.382 E84.49980
G1 X104.009 Y159.067 E84.84705
G1 X103.839 Y158.951 E84.87792
G1 X103.189 Y158.170 E85.03034
G1 X102.821 Y157.728 E85.11661
G1 X102.413 Y156.797 E85.26908
G1 X102.184 Y156.275 E85.35458
G1 X102.006 Y154.965 E85.55289
G1 X102.006 Y150.029 E86.29329
G1 X102.191 Y148.696 E86.49515
G1 X102.607 Y147.763 E86.64839
G1 X102.843 Y147.237 E86.73486
G1 X103.862 Y146.027 E86.97215
G1 X104.009 Y145.928 E86.99874
G1 X104.009 Y143.615 E87.34569
G1 X104.122 Y142.715 E87.48175
G1 X104.532 Y141.673 E87.64971
G1 X105.186 Y140.770 E87.81695
G1 X106.025 Y140.066 E87.98124
G1 X107.022 Y139.583 E88.14741
G1 X108.119 Y139.360 E88.31533
G1 X109.311 Y139.419 E88.49435
G1 X110.321 Y139.782 E88.65533
G1 X111.039 Y140.102 E88.77325
G1 X111.643 Y140.370 E88.87237
G1 X111.643 Y140.371 E88.87252
G1 X112.406 Y140.708 E88.99763
G1 X112.872 Y139.665 E89.16899
G1 X113.511 Y138.089 E89.42408
G1 X114.501 Y136.238 E89.73895
G1 X114.757 Y135.762 E89.82002
G1 X116.556 Y132.993 E90.31533
G1 X117.520 Y132.500 E90.47774
G1 X116.557 Y132.006 E90.64009
G1 X115.069 Y129.720 E91.04923
G1 X114.783 Y129.281 E91.12783
G1 X113.833 Y127.520 E91.42796
G1 X113.565 Y127.023 E91.51266
G1 X112.907 Y125.409 E91.77411
G1 X112.404 Y124.292 E91.95786
G1 X111.741 Y124.585 E92.06659
G1 X111.049 Y124.891 E92.18008
G1 X111.049 Y124.892 E92.18023
G1 X110.511 Y125.132 E92.26860
G1 X110.020 Y125.348 E92.34906
G1 X109.198 Y125.588 E92.47751
G1 X108.101 Y125.639 E92.64224
G1 X107.004 Y125.411 E92.81030
G1 X106.021 Y124.929 E92.97453
G1 X105.174 Y124.220 E93.14021
G1 X104.519 Y123.303 E93.30925
G1 X104.119 Y122.266 E93.47597
G1 X104.009 Y121.382 E93.60959
G1 X104.009 Y119.067 E93.95684
G1 X103.839 Y118.951 E93.98771
G1 X103.189 Y118.170 E94.14013
G1 X102.821 Y117.728 E94.22640
G1 X102.413 Y116.797 E94.37887
G1 X102.184 Y116.275 E94.46437
G1 X102.006 Y114.965 E94.66268
G1 X102.006 Y110.030 E95.40293
G1 X102.191 Y108.697 E95.60480
G1 X102.607 Y107.764 E95.75803
G1 X102.843 Y107.238 E95.84450
G1 X103.862 Y106.028 E96.08179
G1 X104.009 Y105.929 E96.10838
G1 X104.009 Y103.616 E96.45533
G1 X104.122 Y102.716 E96.59139
G1 X104.532 Y101.674 E96.75935
G1 X105.186 Y100.771 E96.92659
G1 X106.025 Y100.067 E97.09088
G1 X107.022 Y99.584 E97.25705
G1 X108.119 Y99.361 E97.42497
G1 X109.311 Y99.420 E97.60399
G1 X110.321 Y99.783 E97.76498
G1 X111.039 Y100.103 E97.88289
G1 X111.643 Y100.371 E97.98201
G1 X111.643 Y100.372 E97.98216
G1 X112.406 Y100.709 E98.10727
G1 X112.872 Y99.666 E98.27863
G1 X113.511 Y98.090 E98.53372
G1 X114.501 Y96.239 E98.84859
G1 X114.757 Y95.763 E98.92966
G1 X116.557 Y92.993 E99.42518
G1 X117.521 Y92.501 E99.58752
G1 X116.558 Y92.008 E99.74980
G1 X115.069 Y89.721 E100.15915
G1 X114.783 Y89.282 E100.23774
G1 X113.833 Y87.521 E100.53788
G1 X113.565 Y87.024 E100.62258
G1 X112.907 Y85.410 E100.88402
G1 X112.404 Y84.293 E101.06778
G1 X111.741 Y84.586 E101.17651
G1 X111.049 Y84.892 E101.29000
G1 X111.049 Y84.893 E101.29015
G1 X110.511 Y85.133 E101.37852
G1 X110.020 Y85.349 E101.45898
G1 X109.198 Y85.589 E101.58743
G1 X108.101 Y85.640 E101.75216
G1 X107.004 Y85.412 E101.92022
G1 X106.021 Y84.930 E102.08444
G1 X105.174 Y84.221 E102.25013
G1 X104.519 Y83.304 E102.41917
G1 X104.119 Y82.267 E102.58589
G1 X104.009 Y81.383 E102.71951
G1 X104.009 Y79.068 E103.06676
G1 X103.839 Y78.952 E103.09763
G1 X103.189 Y78.171 E103.25005
G1 X102.821 Y77.729 E103.33632
G1 X102.413 Y76.798 E103.48879
G1 X102.184 Y76.276 E103.57429
G1 X102.006 Y74.966 E103.77260
G1 X102.006 Y70.030 E104.51300
G1 X102.191 Y68.697 E104.71486
G1 X102.607 Y67.764 E104.86810
G1 X102.843 Y67.238 E104.95457
G1 X103.862 Y66.028 E105.19186
G1 X104.009 Y65.929 E105.21844
G1 X104.009 Y63.616 E105.56539
G1 X104.122 Y62.716 E105.70145
G1 X104.532 Y61.674 E105.86942
G1 X105.186 Y60.771 E106.03666
G1 X106.025 Y60.067 E106.20095
G1 X107.022 Y59.584 E106.36712
