;FLAVOR:UltiGCode
;TIME:461
;MATERIAL:1028
;MATERIAL2:0

;Layer count: 35
;LAYER:0
M107
G0 F9000 X104.817 Y100.428 Z0.300
;TYPE:SKIRT
G1 F1800 X105.751 Y99.644 E0.18291
G1 X106.860 Y99.106 E0.36781
G1 X108.081 Y98.858 E0.55470
G1 X109.410 Y98.925 E0.75430
G1 X110.507 Y99.319 E0.92914
G1 X111.247 Y99.648 E1.05062
G1 X111.842 Y99.912 E1.14826
G1 X112.154 Y100.050 E1.19943
G1 X112.406 Y99.485 E1.29223
G1 X113.058 Y97.877 E1.55250
G1 X114.061 Y96.003 E1.87133
G1 X114.327 Y95.508 E1.95562
G1 X116.210 Y92.609 E2.47415
G1 X118.703 Y91.335 E2.89410
G1 X119.844 Y90.751 E3.08637
G1 X123.806 Y90.751 E3.68067
G1 X124.902 Y90.900 E3.84658
G1 X126.167 Y91.456 E4.05385
G1 X127.224 Y92.331 E4.25968
G1 X127.992 Y93.439 E4.46190
G1 X128.436 Y94.719 E4.66512
G1 X128.519 Y96.093 E4.87160
G1 X128.220 Y97.436 E5.07798
G1 X127.853 Y98.118 E5.19415
G1 X126.250 Y101.331 E5.73275
G1 X125.555 Y102.721 E5.96586
G1 X124.274 Y107.437 E6.69889
G1 X123.886 Y111.863 E7.36534
G1 X123.827 Y112.529 E7.46563
G1 X124.271 Y117.612 E8.23098
G1 X125.391 Y121.743 E8.87301
G1 X125.392 Y121.743 E8.87316
G1 X125.551 Y122.327 E8.96394
G1 X126.236 Y123.706 E9.19491
G1 X126.237 Y123.706 E9.19506
G1 X127.849 Y126.948 E9.73816
G1 X128.210 Y127.657 E9.85750
G1 X128.483 Y128.994 E10.06219
G1 X128.379 Y130.354 E10.26678
G1 X127.922 Y131.615 E10.46797
G1 X127.143 Y132.710 E10.66954
G1 X126.082 Y133.571 E10.87450
G1 X124.825 Y134.106 E11.07942
G1 X123.760 Y134.249 E11.24060
G1 X119.846 Y134.249 E11.82770
G1 X117.438 Y133.019 E12.23330
G1 X116.211 Y132.391 E12.44005
G1 X114.650 Y129.993 E12.86925
G1 X114.353 Y129.537 E12.95088
G1 X113.393 Y127.757 E13.25424
G1 X113.112 Y127.237 E13.34290
G1 X112.441 Y125.589 E13.60980
G1 X112.152 Y124.949 E13.71513
G1 X111.945 Y125.041 E13.74911
G1 X111.945 Y125.042 E13.74926
G1 X111.243 Y125.353 E13.86443
G1 X111.243 Y125.352 E13.86458
G1 X110.714 Y125.589 E13.95153
G1 X110.191 Y125.819 E14.03723
G1 X109.281 Y126.084 E14.17940
G1 X108.062 Y126.141 E14.36245
G1 X106.840 Y125.888 E14.54964
G1 X105.746 Y125.351 E14.73245
G1 X104.804 Y124.563 E14.91666
G1 X104.075 Y123.542 E15.10485
G1 X103.631 Y122.389 E15.29018
G1 X103.509 Y121.413 E15.43772
G1 X103.509 Y119.331 E15.75002
G1 X103.500 Y119.325 E15.75164
G1 X102.805 Y118.490 E15.91460
G1 X102.392 Y117.994 E16.01141
G1 X101.955 Y116.998 E16.17456
G1 X101.956 Y116.998 E16.17471
G1 X101.698 Y116.412 E16.27075
G1 X101.506 Y114.998 E16.48480
G1 X101.506 Y109.996 E17.23510
G1 X101.706 Y108.558 E17.45288
G1 X102.151 Y107.560 E17.61678
G1 X102.416 Y106.970 E17.71380
G1 X103.509 Y105.672 E17.96833
G1 X103.509 Y103.585 E18.28138
G1 X103.634 Y102.592 E18.43151
G1 X104.090 Y101.432 E18.61847
G1 X104.817 Y100.428 E18.80441
G0 F9000 X105.186 Y100.771
G1 F1800 X106.025 Y100.067 E18.96869
G1 X107.022 Y99.584 E19.13487
G1 X108.119 Y99.361 E19.30278
G1 X109.311 Y99.420 E19.48180
G1 X110.321 Y99.783 E19.64279
G1 X111.039 Y100.103 E19.76070
G1 X111.643 Y100.371 E19.85982
G1 X111.643 Y100.372 E19.85997
G1 X112.406 Y100.709 E19.98509
G1 X112.872 Y99.666 E20.15644
G1 X113.511 Y98.090 E20.41153
G1 X114.501 Y96.239 E20.72640
G1 X114.757 Y95.763 E20.80747
G1 X116.557 Y92.993 E21.30299
G1 X118.933 Y91.779 E21.70322
G1 X119.965 Y91.251 E21.87710
G1 X123.772 Y91.251 E22.44815
G1 X124.765 Y91.386 E22.59847
G1 X125.902 Y91.886 E22.78479
G1 X126.852 Y92.672 E22.96974
G1 X127.542 Y93.668 E23.15149
G1 X127.941 Y94.818 E23.33407
G1 X128.016 Y96.053 E23.51966
G1 X127.747 Y97.260 E23.70516
G1 X127.406 Y97.894 E23.81314
G1 X125.803 Y101.108 E24.35188
G1 X125.084 Y102.546 E24.59304
G1 X123.780 Y107.347 E25.33928
G1 X123.387 Y111.819 E26.01266
G1 X123.325 Y112.527 E26.11927
G1 X123.777 Y117.697 E26.89773
G1 X124.909 Y121.874 E27.54688
G1 X125.079 Y122.498 E27.64389
G1 X125.790 Y123.930 E27.88371
G1 X127.386 Y127.140 E28.42144
G1 X127.734 Y127.823 E28.53642
G1 X127.979 Y129.025 E28.72043
G1 X127.886 Y130.248 E28.90441
G1 X127.475 Y131.380 E29.08505
G1 X126.775 Y132.364 E29.26619
G1 X125.821 Y133.139 E29.45056
G1 X124.692 Y133.620 E29.63464
G1 X123.726 Y133.749 E29.78082
G1 X119.966 Y133.749 E30.34482
G1 X117.665 Y132.574 E30.73237
G1 X116.557 Y132.006 E30.91914
G1 X115.069 Y129.720 E31.32828
G1 X114.783 Y129.281 E31.40687
G1 X113.833 Y127.520 E31.70701
G1 X113.565 Y127.023 E31.79171
G1 X112.907 Y125.409 E32.05315
G1 X112.404 Y124.292 E32.23691
G1 X111.741 Y124.585 E32.34563
G1 X111.049 Y124.891 E32.45913
G1 X111.049 Y124.892 E32.45928
G1 X110.511 Y125.132 E32.54765
G1 X110.020 Y125.348 E32.62811
G1 X109.198 Y125.588 E32.75656
G1 X108.101 Y125.639 E32.92128
G1 X107.004 Y125.411 E33.08935
G1 X106.021 Y124.929 E33.25357
G1 X105.174 Y124.220 E33.41926
G1 X104.519 Y123.303 E33.58829
G1 X104.119 Y122.266 E33.75501
G1 X104.009 Y121.382 E33.88864
G1 X104.009 Y119.067 E34.23589
G1 X103.839 Y118.951 E34.26676
G1 X103.189 Y118.170 E34.41917
G1 X102.821 Y117.728 E34.50544
G1 X102.413 Y116.797 E34.65792
G1 X102.184 Y116.275 E34.74342
G1 X102.006 Y114.965 E34.94172
G1 X102.006 Y110.030 E35.68197
G1 X102.191 Y108.697 E35.88384
G1 X102.607 Y107.764 E36.03707
G1 X102.843 Y107.238 E36.12355
G1 X103.862 Y106.028 E36.36084
G1 X104.009 Y105.929 E36.38742
G1 X104.009 Y103.616 E36.73437
G1 X104.122 Y102.716 E36.87043
G1 X104.532 Y101.674 E37.03840
G1 X105.186 Y100.771 E37.20564
G10
G0 F9000 X108.133 Y103.520
;TYPE:WALL-INNER
G11
G1 F1800 X108.217 Y103.450 E37.22204
G1 X108.313 Y103.403 E37.23807
G1 X108.423 Y103.381 E37.25490
G1 X108.516 Y103.385 E37.26886
G1 X108.834 Y103.500 E37.31959
G1 X109.416 Y103.759 E37.41514
G1 X110.809 Y104.376 E37.64367
G1 X111.584 Y104.717 E37.77068
G1 X112.368 Y105.059 E37.89898
G1 X113.119 Y105.362 E38.02045
G1 X113.511 Y105.519 E38.08379
G1 X114.420 Y105.194 E38.22859
G1 X114.805 Y105.054 E38.29004
G1 X115.410 Y104.059 E38.46472
G1 X115.954 Y102.576 E38.70166
G1 X116.550 Y101.240 E38.92110
G1 X117.139 Y99.788 E39.15614
G1 X118.025 Y98.131 E39.43799
G1 X118.196 Y97.813 E39.49215
G1 X119.329 Y96.068 E39.80423
G1 X120.929 Y95.251 E40.07371
G1 X123.502 Y95.251 E40.45966
G1 X123.667 Y95.273 E40.48463
G1 X123.784 Y95.325 E40.50383
G1 X123.876 Y95.401 E40.52173
G1 X123.944 Y95.498 E40.53950
G1 X123.981 Y95.606 E40.55663
G1 X123.989 Y95.735 E40.57601
G1 X123.963 Y95.852 E40.59399
G1 X121.329 Y101.113 E41.47652
G1 X119.826 Y106.646 E42.33655
G1 X119.309 Y112.530 E43.22255
G1 X119.823 Y118.401 E44.10657
G1 X121.322 Y123.929 E44.96571
G1 X123.821 Y128.955 E45.80766
G1 X123.923 Y129.155 E45.84134
G1 X123.948 Y129.277 E45.86002
G1 X123.939 Y129.399 E45.87837
G1 X123.901 Y129.504 E45.89512
G1 X123.831 Y129.602 E45.91318
G1 X123.736 Y129.679 E45.93152
G1 X123.622 Y129.728 E45.95014
G1 X123.463 Y129.749 E45.97419
G1 X120.929 Y129.749 E46.35429
G1 X119.329 Y128.931 E46.62384
G1 X118.223 Y127.233 E46.92781
G1 X117.189 Y125.317 E47.25439
G1 X116.582 Y123.827 E47.49572
G1 X115.990 Y122.514 E47.71176
G1 X115.413 Y120.951 E47.96168
G1 X114.925 Y120.098 E48.10909
G1 X114.275 Y119.696 E48.22373
G1 X113.897 Y119.465 E48.29018
G1 X112.795 Y119.757 E48.46118
G1 X112.181 Y120.022 E48.56149
G1 X111.493 Y120.322 E48.67408
G1 X110.810 Y120.623 E48.78604
G1 X109.419 Y121.239 E49.01423
G1 X108.887 Y121.476 E49.10159
G1 X108.648 Y121.582 E49.14081
G1 X108.536 Y121.614 E49.15828
G1 X108.419 Y121.620 E49.17585
G1 X108.311 Y121.597 E49.19242
G1 X108.217 Y121.551 E49.20812
G1 X108.133 Y121.481 E49.22452
G1 X108.069 Y121.392 E49.24096
G1 X108.027 Y121.283 E49.25848
G1 X108.009 Y121.135 E49.28085
G1 X108.009 Y117.914 E49.76400
G1 X107.942 Y117.428 E49.83759
G1 X107.718 Y116.927 E49.91990
G1 X107.367 Y116.509 E50.00178
G1 X106.654 Y116.028 E50.13079
G1 X106.556 Y115.962 E50.14851
G1 X106.257 Y115.602 E50.21871
G1 X106.072 Y115.180 E50.28782
G1 X106.006 Y114.696 E50.36110
G1 X106.006 Y110.308 E51.01930
G1 X106.075 Y109.808 E51.09501
G1 X106.262 Y109.388 E51.16397
G1 X106.562 Y109.033 E51.23369
G1 X107.011 Y108.730 E51.31494
G1 X107.373 Y108.484 E51.38059
G1 X107.725 Y108.063 E51.46290
G1 X107.945 Y107.560 E51.54526
G1 X108.009 Y107.086 E51.61700
G1 X108.009 Y103.866 E52.10000
G1 X108.028 Y103.713 E52.12313
G1 X108.069 Y103.608 E52.14004
G1 X108.133 Y103.520 E52.15636
G0 F9000 X107.509 Y103.835
;TYPE:WALL-OUTER
G1 F1800 X107.540 Y103.589 E52.19355
G1 X107.628 Y103.366 E52.22951
G1 X107.764 Y103.177 E52.26444
G1 X107.944 Y103.026 E52.29968
G1 X108.152 Y102.926 E52.33430
G1 X108.384 Y102.879 E52.36980
G1 X108.618 Y102.890 E52.40494
G1 X109.017 Y103.034 E52.46857
G1 X111.011 Y103.919 E52.79581
G1 X112.561 Y104.597 E53.04958
G1 X113.521 Y104.984 E53.20484
G1 X114.251 Y104.723 E53.32113
G1 X114.469 Y104.644 E53.35591
G1 X114.957 Y103.841 E53.49685
G1 X115.496 Y102.374 E53.73129
G1 X116.090 Y101.044 E53.94978
G1 X116.687 Y99.572 E54.18805
G1 X117.766 Y97.557 E54.53091
G1 X118.982 Y95.685 E54.86575
G1 X120.809 Y94.751 E55.17353
G1 X123.533 Y94.751 E55.58213
G1 X123.807 Y94.788 E55.62360
G1 X124.048 Y94.894 E55.66310
G1 X124.249 Y95.060 E55.70220
G1 X124.393 Y95.268 E55.74015
G1 X124.476 Y95.508 E55.77824
G1 X124.492 Y95.775 E55.81836
G1 X124.435 Y96.030 E55.85755
G1 X121.798 Y101.292 E56.74042
G1 X120.320 Y106.734 E57.58629
G1 X119.811 Y112.530 E58.45904
G1 X120.317 Y118.313 E59.32980
G1 X121.792 Y123.750 E60.17483
G1 X124.268 Y128.730 E61.00906
G1 X124.400 Y128.990 E61.05280
G1 X124.452 Y129.247 E61.09213
G1 X124.433 Y129.504 E61.13079
G1 X124.348 Y129.737 E61.16799
G1 X124.199 Y129.947 E61.20662
G1 X123.996 Y130.112 E61.24586
G1 X123.758 Y130.213 E61.28464
G1 X123.492 Y130.249 E61.32490
G1 X120.809 Y130.249 E61.72735
G1 X118.982 Y129.315 E62.03514
G1 X117.795 Y127.491 E62.36157
G1 X116.735 Y125.528 E62.69621
G1 X116.123 Y124.024 E62.93977
G1 X115.527 Y122.703 E63.15715
G1 X114.958 Y121.163 E63.40342
G1 X114.554 Y120.457 E63.52543
G1 X114.013 Y120.122 E63.62088
G1 X113.818 Y120.003 E63.65514
G1 X112.959 Y120.231 E63.78845
G1 X112.380 Y120.481 E63.88305
G1 X111.012 Y121.080 E64.10706
G1 X108.817 Y122.053 E64.46721
G1 X108.621 Y122.110 E64.49783
G1 X108.380 Y122.122 E64.53403
G1 X108.145 Y122.073 E64.57003
G1 X107.943 Y121.974 E64.60378
G1 X107.761 Y121.822 E64.63935
G1 X107.625 Y121.631 E64.67452
G1 X107.539 Y121.408 E64.71037
G1 X107.509 Y121.163 E64.74739
G1 X107.509 Y117.948 E65.22964
G1 X107.457 Y117.567 E65.28732
G1 X107.290 Y117.195 E65.34849
G1 X107.029 Y116.884 E65.40939
G1 X106.213 Y116.333 E65.55708
G1 X105.828 Y115.869 E65.64752
G1 X105.587 Y115.319 E65.73759
G1 X105.506 Y114.726 E65.82737
G1 X105.506 Y110.275 E66.49502
G1 X105.590 Y109.668 E66.58693
G1 X105.836 Y109.118 E66.67731
G1 X106.223 Y108.658 E66.76748
G1 X107.034 Y108.110 E66.91430
G1 X107.296 Y107.797 E66.97553
G1 X107.459 Y107.424 E67.03659
G1 X107.509 Y107.053 E67.09274
G1 X107.509 Y103.835 E67.57544
G0 F9000 X108.250 Y103.654
;TYPE:SKIN
G1 F1800 X119.326 Y114.730 E69.92501
G0 F9000 X119.394 Y115.505
G1 F1800 X108.183 Y104.294 E72.30323
G0 F9000 X108.183 Y105.001
G1 F1800 X119.462 Y116.280 E74.69586
G0 F9000 X119.530 Y117.055
G1 F1800 X108.183 Y105.708 E77.10293
G0 F9000 X108.183 Y106.415
G1 F1800 X119.597 Y117.829 E79.52420
G0 F9000 X119.708 Y118.647
G1 F1800 X108.180 Y107.119 E81.96966
G0 F9000 X108.067 Y107.714
G1 F1800 X119.971 Y119.617 E84.49477
G0 F9000 X120.234 Y120.587
G1 F1800 X107.841 Y108.195 E87.12362
G0 F9000 X107.519 Y108.580
G1 F1800 X120.497 Y121.558 E89.87667
G0 F9000 X120.760 Y122.528
G1 F1800 X107.106 Y108.874 E92.77312
G0 F9000 X106.685 Y109.160
G1 F1800 X121.023 Y123.498 E95.81467
G0 F9000 X121.502 Y124.684
G1 F1800 X106.377 Y109.559 E99.02316
G0 F9000 X106.210 Y110.100
G1 F1800 X122.202 Y126.091 E102.41547
G0 F9000 X122.903 Y127.499
G1 F1800 X106.180 Y110.776 E105.96296
G0 F9000 X106.180 Y111.483
G1 F1800 X114.049 Y119.352 E107.63223
G0 F9000 X113.402 Y119.413
G1 F1800 X106.180 Y112.190 E109.16435
G0 F9000 X106.180 Y112.898
G1 F1800 X112.843 Y119.561 E110.57778
G0 F9000 X112.340 Y119.764
G1 F1800 X106.180 Y113.605 E111.88441
G0 F9000 X106.180 Y114.312
G1 F1800 X111.849 Y119.981 E113.08699
G0 F9000 X111.358 Y120.196
G1 F1800 X106.235 Y115.073 E114.17374
G0 F9000 X108.156 Y117.702
G1 F1800 X110.867 Y120.413 E114.74883
G0 F9000 X110.376 Y120.629
G1 F1800 X108.183 Y118.436 E115.21404
G0 F9000 X108.183 Y119.143
G1 F1800 X109.885 Y120.845 E115.57508
G0 F9000 X109.394 Y121.061
G1 F1800 X108.183 Y119.851 E115.83187
G0 F9000 X119.258 Y113.955
G1 F1800 X109.121 Y103.818 E117.98225
G0 F9000 X110.386 Y104.376
G1 F1800 X119.190 Y113.180 E119.84986
G0 F9000 X119.143 Y112.425
G1 F1800 X111.651 Y104.933 E121.43916
G0 F9000 X112.876 Y105.451
G1 F1800 X119.199 Y111.775 E122.78057
G0 F9000 X119.257 Y111.125
G1 F1800 X113.749 Y105.617 E123.94900
G0 F9000 X114.270 Y105.431
G1 F1800 X119.314 Y110.475 E125.01899
G0 F9000 X119.371 Y109.825
G1 F1800 X114.791 Y105.245 E125.99056
G0 F9000 X115.121 Y104.868
G1 F1800 X119.428 Y109.175 E126.90421
G0 F9000 X119.486 Y108.526
G1 F1800 X115.388 Y104.428 E127.77353
G0 F9000 X115.630 Y103.963
G1 F1800 X119.542 Y107.875 E128.60339
G0 F9000 X119.600 Y107.225
G1 F1800 X115.819 Y103.445 E129.40535
G0 F9000 X116.010 Y102.928
G1 F1800 X119.662 Y106.580 E130.18006
G0 F9000 X119.813 Y106.025
G1 F1800 X116.211 Y102.423 E130.94416
G0 F9000 X116.430 Y101.934
G1 F1800 X119.964 Y105.469 E131.69394
G0 F9000 X120.115 Y104.912
G1 F1800 X116.648 Y101.445 E132.42940
G0 F9000 X116.856 Y100.946
G1 F1800 X120.266 Y104.356 E133.15277
G0 F9000 X120.417 Y103.800
G1 F1800 X117.060 Y100.443 E133.86490
G0 F9000 X117.265 Y99.941
G1 F1800 X120.568 Y103.244 E134.56557
G0 F9000 X120.719 Y102.688
G1 F1800 X117.504 Y99.472 E135.24768
G0 F9000 X117.750 Y99.012
G1 F1800 X120.870 Y102.132 E135.90953
G0 F9000 X121.021 Y101.575
G1 F1800 X117.997 Y98.551 E136.55102
G0 F9000 X118.243 Y98.091
G1 F1800 X121.177 Y101.025 E137.17341
G0 F9000 X121.413 Y100.553
G1 F1800 X118.509 Y97.650 E137.78934
G0 F9000 X118.787 Y97.220
G1 F1800 X121.649 Y100.082 E138.39646
G0 F9000 X121.885 Y99.611
G1 F1800 X119.066 Y96.792 E138.99446
G0 F9000 X119.344 Y96.363
G1 F1800 X122.120 Y99.139 E139.58334
G0 F9000 X122.357 Y98.668
G1 F1800 X119.742 Y96.054 E140.13796
G0 F9000 X120.210 Y95.815
G1 F1800 X122.592 Y98.197 E140.64326
G0 F9000 X122.828 Y97.726
G1 F1800 X120.678 Y95.576 E141.09934
G0 F9000 X121.235 Y95.426
G1 F1800 X123.064 Y97.254 E141.48723
G0 F9000 X123.300 Y96.783
G1 F1800 X121.942 Y95.426 E141.77519
G0 F9000 X122.649 Y95.426
G1 F1800 X123.536 Y96.312 E141.96325
G0 F9000 X123.771 Y95.841
G1 F1800 X123.356 Y95.426 E142.05128
G0 F9000 X121.377 Y101.131
G0 X115.569 Y120.872
G1 F1800 X123.604 Y128.907 E143.75577
G0 F9000 X123.549 Y129.560
G1 F1800 X115.986 Y121.997 E145.36012
G0 F9000 X116.500 Y123.218
G1 F1800 X122.855 Y129.573 E146.70822
G0 F9000 X122.148 Y129.573
G1 F1800 X117.025 Y124.450 E147.79497
G0 F9000 X117.625 Y125.756
G1 F1800 X121.441 Y129.573 E148.60457
G0 F9000 X120.486 Y129.324
G1 F1800 X118.501 Y127.340 E149.02555
G0 F9000 X114.883 Y120.138
G0 X113.885 Y119.537
G0 X108.903 Y121.278
G1 F1800 X108.183 Y120.558 E149.17828
G0 F9000 X108.221 Y121.303
G1 F1800 X108.327 Y121.408 E149.20066
;LAYER:1
M106 S127
G0 F9000 X108.009 Y121.135 Z0.450
;TYPE:WALL-INNER
G1 F2520 X108.009 Y117.914 E149.44224
G1 X107.942 Y117.428 E149.47903
G1 X107.718 Y116.927 E149.52019
G1 X107.366 Y116.509 E149.56118
G1 X106.779 Y116.113 E149.61429
G1 X106.555 Y115.960 E149.63463
G1 X106.257 Y115.602 E149.66957
G1 X106.072 Y115.180 E149.70412
G1 X106.006 Y114.696 E149.74076
G1 X106.006 Y110.308 E150.06986
G1 X106.075 Y109.809 E150.10764
G1 X106.264 Y109.386 E150.14239
G1 X106.562 Y109.033 E150.17704
G1 X107.011 Y108.730 E150.21766
G1 X107.373 Y108.484 E150.25049
G1 X107.725 Y108.063 E150.29164
