;Generated with Cura_SteamEngine 13.10
;FLAVOR:UltiGCode
;TIME:1627      
;MATERIAL:1917      

;total_layers=288
;LAYER:0
M107
G0 F3600 X101.02 Y98.50 Z0.30
;TYPE:SKIRT
G11
G1 F1200 X101.17 Y98.36 E0.02531
G1 X101.70 Y97.93 E0.10704
G1 X101.93 Y97.77 E0.14070
G1 X102.30 Y97.56 E0.19162
G1 X102.55 Y97.44 E0.22489
G1 X103.19 Y97.19 E0.30719
G1 X103.40 Y97.12 E0.33398
G1 X104.37 Y96.88 E0.45331
G1 X104.57 Y96.84 E0.47826
G1 X104.95 Y96.79 E0.52366
G1 X105.23 Y96.78 E0.55826
G1 X105.44 Y96.78 E0.58288
G1 X106.21 Y96.78 E0.67540
G1 X106.45 Y96.79 E0.70438
G1 X107.49 Y96.93 E0.82949
G1 X107.64 Y96.95 E0.84887
G1 X108.67 Y97.18 E0.97487
G1 X108.82 Y97.22 E0.99312
G1 X109.69 Y97.49 E1.10262
G1 X109.75 Y97.52 E1.11086
G1 X110.59 Y97.81 E1.21796
G1 X110.66 Y97.84 E1.22601
G1 X111.51 Y98.18 E1.33616
G1 X111.60 Y98.22 E1.34831
G1 X114.29 Y99.47 E1.70442
G1 X114.33 Y99.49 E1.71000
G1 X114.79 Y99.71 E1.77070
G1 X114.88 Y99.76 E1.78267
G1 X118.86 Y102.02 E2.33313
G1 X118.98 Y102.09 E2.34875
G1 X121.87 Y104.02 E2.76604
G1 X121.97 Y104.09 E2.78049
G1 X123.39 Y105.19 E2.99596
G1 X123.49 Y105.27 E3.01138
G1 X124.88 Y106.51 E3.23544
G1 X125.02 Y106.64 E3.25818
G1 X125.68 Y107.37 E3.37660
G1 X125.78 Y107.50 E3.39559
G1 X126.41 Y108.32 E3.51960
G1 X126.54 Y108.51 E3.54702
G1 X127.07 Y109.43 E3.67529
G1 X127.18 Y109.66 E3.70513
G1 X127.31 Y109.98 E3.74734
G1 X127.38 Y110.17 E3.77132
G1 X127.65 Y111.12 E3.88977
G1 X127.69 Y111.33 E3.91522
G1 X127.80 Y112.00 E3.99699
G1 X127.82 Y112.29 E4.03105
G1 X127.82 Y112.71 E4.08193
G1 X127.80 Y112.98 E4.11479
G1 X127.69 Y113.66 E4.19710
G1 X127.65 Y113.88 E4.22412
G1 X127.38 Y114.84 E4.34336
G1 X127.31 Y115.03 E4.36792
G1 X127.18 Y115.35 E4.40984
G1 X127.07 Y115.57 E4.43828
G1 X126.54 Y116.49 E4.56639
G1 X126.41 Y116.69 E4.59451
G1 X125.78 Y117.51 E4.71908
G1 X125.68 Y117.63 E4.73833
G1 X124.97 Y118.41 E4.86437
G1 X124.86 Y118.52 E4.88261
G1 X124.19 Y119.13 E4.99216
G1 X124.13 Y119.18 E5.00075
G1 X123.44 Y119.77 E5.10946
G1 X123.38 Y119.82 E5.12003
G1 X121.95 Y120.92 E5.33516
G1 X121.83 Y121.00 E5.35333
G1 X117.38 Y123.87 E5.98875
G1 X117.27 Y123.93 E6.00391
G1 X114.82 Y125.27 E6.33848
G1 X114.72 Y125.32 E6.35195
G1 X111.59 Y126.79 E6.76627
G1 X111.47 Y126.84 E6.78310
G1 X109.80 Y127.47 E6.99705
G1 X109.69 Y127.50 E7.00991
G1 X108.73 Y127.80 E7.13149
G1 X108.58 Y127.84 E7.15009
G1 X107.63 Y128.05 E7.26627
G1 X107.48 Y128.07 E7.28505
G1 X106.45 Y128.21 E7.40941
G1 X106.22 Y128.22 E7.43755
G1 X105.39 Y128.22 E7.53703
G1 X105.20 Y128.22 E7.55935
G1 X104.91 Y128.21 E7.59373
G1 X104.55 Y128.15 E7.63821
G1 X104.36 Y128.12 E7.66170
G1 X103.40 Y127.87 E7.77986
G1 X103.20 Y127.81 E7.80540
G1 X102.50 Y127.54 E7.89566
G1 X102.12 Y127.34 E7.94628
G1 X101.55 Y126.95 E8.02966
G1 X101.41 Y126.84 E8.05157
G1 X101.12 Y126.60 E8.09601
G1 X100.99 Y126.48 E8.11715
G1 X100.32 Y125.78 E8.23316
G1 X100.19 Y125.63 E8.25698
G1 X99.98 Y125.36 E8.29872
G1 X99.84 Y125.16 E8.32761
G1 X99.31 Y124.23 E8.45596
G1 X99.20 Y124.02 E8.48424
G1 X98.80 Y123.06 E8.60904
G1 X98.75 Y122.91 E8.62840
G1 X98.42 Y121.87 E8.75858
G1 X98.37 Y121.66 E8.78506
G1 X97.89 Y119.05 E9.10365
G1 X97.86 Y118.88 E9.12461
G1 X97.57 Y115.42 E9.54096
G1 X97.56 Y115.31 E9.55442
G1 X97.50 Y112.53 E9.88727
G1 X97.50 Y112.44 E9.89879
G1 X97.61 Y108.84 E10.33075
G1 X97.62 Y108.74 E10.34218
G1 X97.76 Y106.99 E10.55314
G1 X97.78 Y106.88 E10.56705
G1 X98.17 Y104.28 E10.88165
G1 X98.19 Y104.15 E10.89766
G1 X98.42 Y103.15 E11.02106
G1 X98.46 Y103.00 E11.03998
G1 X98.75 Y102.08 E11.15615
G1 X98.81 Y101.93 E11.17483
G1 X99.21 Y100.98 E11.29876
G1 X99.31 Y100.77 E11.32635
G1 X99.84 Y99.85 E11.45441
G1 X99.98 Y99.65 E11.48320
G1 X100.19 Y99.37 E11.52547
G1 X100.33 Y99.21 E11.55022
G1 X101.02 Y98.50 E11.66920
G0 F3600 X101.30 Y98.79
G1 F1200 X101.44 Y98.66 E11.69170
G1 X101.94 Y98.25 E11.77012
G1 X102.15 Y98.11 E11.80004
G1 X102.49 Y97.91 E11.84730
G1 X102.71 Y97.81 E11.87687
G1 X103.32 Y97.57 E11.95578
G1 X103.51 Y97.51 E11.97961
G1 X104.45 Y97.27 E12.09609
G1 X104.64 Y97.24 E12.11831
G1 X104.98 Y97.19 E12.16031
G1 X105.24 Y97.18 E12.19108
G1 X105.43 Y97.18 E12.21377
G1 X106.20 Y97.18 E12.30617
G1 X106.41 Y97.19 E12.33203
G1 X107.42 Y97.32 E12.45436
G1 X107.57 Y97.35 E12.47152
G1 X108.57 Y97.57 E12.59555
G1 X108.70 Y97.61 E12.61171
G1 X109.56 Y97.87 E12.71972
G1 X109.62 Y97.89 E12.72705
G1 X110.46 Y98.19 E12.83340
G1 X110.51 Y98.21 E12.84053
G1 X111.36 Y98.55 E12.94943
G1 X111.44 Y98.58 E12.96040
G1 X114.12 Y99.83 E13.31554
G1 X114.16 Y99.85 E13.32032
G1 X114.61 Y100.07 E13.38005
G1 X114.68 Y100.11 E13.39079
G1 X118.66 Y102.37 E13.93975
G1 X118.76 Y102.43 E13.95360
G1 X121.64 Y104.35 E14.36916
G1 X121.73 Y104.41 E14.38198
G1 X123.14 Y105.50 E14.59583
G1 X123.23 Y105.57 E14.60963
G1 X124.61 Y106.80 E14.83156
G1 X124.73 Y106.92 E14.85176
G1 X125.38 Y107.64 E14.96788
G1 X125.47 Y107.74 E14.98466
G1 X126.08 Y108.55 E15.10617
G1 X126.20 Y108.72 E15.13050
G1 X126.72 Y109.62 E15.25567
G1 X126.81 Y109.82 E15.28207
G1 X126.94 Y110.12 E15.32120
G1 X127.00 Y110.29 E15.34276
G1 X127.26 Y111.22 E15.45847
G1 X127.30 Y111.40 E15.48109
G1 X127.40 Y112.05 E15.55957
G1 X127.42 Y112.30 E15.58979
G1 X127.42 Y112.69 E15.63695
G1 X127.40 Y112.94 E15.66608
G1 X127.30 Y113.59 E15.74499
G1 X127.26 Y113.78 E15.76905
G1 X126.99 Y114.72 E15.88544
G1 X126.93 Y114.89 E15.90718
G1 X126.81 Y115.19 E15.94625
G1 X126.72 Y115.38 E15.97152
G1 X126.20 Y116.28 E16.09651
G1 X126.08 Y116.45 E16.12144
G1 X125.47 Y117.26 E16.24343
G1 X125.37 Y117.37 E16.26064
G1 X124.68 Y118.13 E16.38456
G1 X124.58 Y118.23 E16.40076
G1 X123.92 Y118.84 E16.50879
G1 X123.87 Y118.88 E16.51652
G1 X123.19 Y119.46 E16.62421
G1 X123.13 Y119.51 E16.63351
G1 X121.72 Y120.60 E16.84701
G1 X121.61 Y120.67 E16.86322
G1 X117.17 Y123.53 E17.49663
G1 X117.07 Y123.58 E17.51013
G1 X114.63 Y124.91 E17.84309
G1 X114.55 Y124.96 E17.85495
G1 X111.43 Y126.42 E18.26755
G1 X111.32 Y126.47 E18.28277
G1 X109.66 Y127.09 E18.49498
G1 X109.57 Y127.12 E18.50652
G1 X108.62 Y127.42 E18.62638
G1 X108.48 Y127.45 E18.64277
G1 X107.56 Y127.66 E18.75685
G1 X107.42 Y127.68 E18.77366
G1 X106.41 Y127.81 E18.89537
G1 X106.20 Y127.82 E18.92038
G1 X105.38 Y127.82 E19.01866
G1 X105.21 Y127.82 E19.03966
G1 X104.95 Y127.81 E19.07032
G1 X104.61 Y127.76 E19.11153
G1 X104.44 Y127.72 E19.13242
G1 X103.51 Y127.49 E19.24797
G1 X103.33 Y127.43 E19.27055
G1 X102.66 Y127.17 E19.35655
G1 X102.33 Y127.00 E19.40169
G1 X101.79 Y126.62 E19.48091
G1 X101.66 Y126.52 E19.50042
G1 X101.39 Y126.30 E19.54231
G1 X101.28 Y126.19 E19.56124
G1 X100.62 Y125.51 E19.67479
G1 X100.50 Y125.38 E19.69597
G1 X100.30 Y125.12 E19.73480
G1 X100.18 Y124.94 E19.76040
G1 X99.66 Y124.04 E19.88551
G1 X99.57 Y123.85 E19.91068
G1 X99.18 Y122.92 E20.03274
G1 X99.13 Y122.78 E20.05013
G1 X98.81 Y121.76 E20.17780
G1 X98.76 Y121.58 E20.20118
G1 X98.28 Y118.99 E20.51711
G1 X98.26 Y118.83 E20.53586
G1 X97.97 Y115.39 E20.95028
G1 X97.96 Y115.29 E20.96230
G1 X97.90 Y112.53 E21.29359
G1 X97.90 Y112.44 E21.30403
G1 X98.01 Y108.86 E21.73467
G1 X98.02 Y108.77 E21.74464
G1 X98.16 Y107.03 E21.95418
G1 X98.17 Y106.93 E21.96662
G1 X98.56 Y104.35 E22.27953
G1 X98.58 Y104.23 E22.29382
G1 X98.81 Y103.25 E22.41539
G1 X98.84 Y103.11 E22.43207
G1 X99.13 Y102.21 E22.54622
G1 X99.18 Y102.08 E22.56274
G1 X99.57 Y101.14 E22.68409
G1 X99.66 Y100.96 E22.70867
G1 X100.18 Y100.06 E22.83356
G1 X100.30 Y99.88 E22.85925
G1 X100.50 Y99.62 E22.89843
G1 X100.62 Y99.48 E22.92063
G1 X101.30 Y98.79 E23.03672
G0 F3600 X106.90 Y105.94
G1 F1200 X106.80 Y106.03 E23.05344
G1 X106.70 Y106.17 E23.07355
G1 X106.45 Y106.58 E23.13109
G1 X106.30 Y106.89 E23.17232
G1 X106.06 Y107.55 E23.25670
G1 X105.81 Y108.47 E23.37205
G1 X105.63 Y109.49 E23.49603
G1 X105.47 Y111.24 E23.70692
G1 X105.44 Y112.46 E23.85336
G1 X105.54 Y114.76 E24.12941
G1 X105.67 Y115.80 E24.25557
G1 X105.93 Y117.06 E24.40930
G1 X106.05 Y117.45 E24.45832
G1 X106.18 Y117.81 E24.50390
G1 X106.54 Y118.59 E24.60773
G1 X106.68 Y118.81 E24.63856
G1 X106.80 Y118.97 E24.66244
G1 X106.90 Y119.06 E24.67950
G1 X107.03 Y119.10 E24.69549
G1 X107.23 Y119.13 E24.71970
G1 X107.53 Y119.14 E24.75512
G1 X108.01 Y119.11 E24.81331
G1 X108.89 Y118.95 E24.92032
G1 X109.84 Y118.67 E25.03915
G1 X110.83 Y118.30 E25.16588
G1 X111.83 Y117.84 E25.29895
G1 X113.90 Y116.70 E25.58211
G1 X115.85 Y115.36 E25.86543
G1 X116.61 Y114.73 E25.98432
G1 X117.32 Y114.01 E26.10609
G1 X117.58 Y113.71 E26.15298
G1 X117.82 Y113.40 E26.20053
G1 X118.01 Y113.10 E26.24357
G1 X118.16 Y112.82 E26.28066
G1 X118.22 Y112.67 E26.30025
G1 X118.26 Y112.47 E26.32454
G1 X118.24 Y112.40 E26.33405
G1 X118.12 Y112.12 E26.37081
G1 X117.81 Y111.60 E26.44307
G1 X117.28 Y110.94 E26.54497
G1 X116.87 Y110.53 E26.61447
G1 X115.81 Y109.61 E26.78250
G1 X114.43 Y108.63 E26.98593
G1 X112.14 Y107.31 E27.30249
G1 X111.13 Y106.83 E27.43764
G1 X110.14 Y106.43 E27.56528
G1 X109.17 Y106.12 E27.68707
G1 X108.30 Y105.93 E27.79418
G1 X107.57 Y105.86 E27.88255
G1 X107.56 Y105.86 E27.88352
G1 X107.23 Y105.87 E27.92327
G1 X107.04 Y105.90 E27.94674
G1 X106.90 Y105.94 E27.96352
G0 F3600 X107.11 Y106.29
G1 F1200 X107.10 Y106.30 E27.96505
G1 X107.03 Y106.39 E27.97875
G1 X106.80 Y106.77 E28.03129
G1 X106.68 Y107.03 E28.06639
G1 X106.44 Y107.67 E28.14850
G1 X106.20 Y108.56 E28.25925
G1 X106.02 Y109.55 E28.37933
G1 X105.86 Y111.26 E28.58527
G1 X105.83 Y112.46 E28.72956
G1 X105.94 Y114.72 E29.00140
G1 X106.07 Y115.73 E29.12368
G1 X106.32 Y116.96 E29.27384
G1 X106.43 Y117.31 E29.31788
G1 X106.55 Y117.66 E29.36229
G1 X106.89 Y118.40 E29.45994
G1 X107.01 Y118.58 E29.48634
G1 X107.09 Y118.69 E29.50286
G1 X107.11 Y118.71 E29.50532
G1 X107.11 Y118.71 E29.50593
G1 X107.26 Y118.73 E29.52409
G1 X107.52 Y118.74 E29.55531
G1 X107.96 Y118.71 E29.60750
G1 X108.80 Y118.56 E29.71023
G1 X109.71 Y118.30 E29.82417
G1 X110.67 Y117.93 E29.94672
G1 X111.66 Y117.48 E30.07754
G1 X113.69 Y116.36 E30.35586
G1 X115.60 Y115.05 E30.63392
G1 X116.34 Y114.43 E30.75017
G1 X117.03 Y113.74 E30.86617
G1 X117.27 Y113.46 E30.91094
G1 X117.49 Y113.17 E30.95462
G1 X117.67 Y112.89 E30.99410
G1 X117.79 Y112.66 E31.02631
G1 X117.83 Y112.56 E31.03901
G1 X117.85 Y112.49 E31.04710
G1 X117.76 Y112.30 E31.07263
G1 X117.48 Y111.83 E31.13816
G1 X116.98 Y111.21 E31.23366
G1 X116.60 Y110.82 E31.29909
G1 X115.56 Y109.92 E31.46448
G1 X114.21 Y108.97 E31.66198
G1 X111.96 Y107.67 E31.97424
G1 X110.97 Y107.19 E32.10585
G1 X110.00 Y106.80 E32.23139
G1 X109.08 Y106.51 E32.34688
G1 X108.23 Y106.33 E32.45154
G1 X107.56 Y106.26 E32.53293
G1 X107.27 Y106.27 E32.56775
G1 X107.12 Y106.29 E32.58567
G1 X107.11 Y106.29 E32.58689
G10
G0 F3600 X104.42 Y103.06
;TYPE:WALL-INNER
G11
G1 F1200 X103.95 Y103.50 E32.66464
G1 X103.54 Y104.04 E32.74556
G1 X103.09 Y104.79 E32.85052
G1 X102.80 Y105.40 E32.93109
G1 X102.43 Y106.40 E33.05896
G1 X102.09 Y107.67 E33.21686
G1 X101.86 Y108.97 E33.37620
G1 X101.79 Y109.74 E33.46838
G1 X101.81 Y109.03 E33.55362
G1 X101.94 Y107.42 E33.74798
G1 X102.31 Y105.00 E34.04124
G1 X102.49 Y104.18 E34.14225
G1 X102.72 Y103.46 E34.23235
G1 X103.02 Y102.74 E34.32615
G1 X103.43 Y102.05 E34.42276
G1 X103.93 Y101.53 E34.50872
G1 X104.25 Y101.29 E34.55704
G1 X104.57 Y101.16 E34.59902
G1 X105.31 Y100.98 E34.68971
G1 X105.38 Y100.98 E34.69835
G1 X106.07 Y100.98 E34.78140
G1 X106.83 Y101.08 E34.87372
G1 X107.66 Y101.26 E34.97501
G1 X109.15 Y101.76 E35.16338
G1 X109.89 Y102.05 E35.25898
G1 X112.72 Y103.37 E35.63349
G1 X111.42 Y102.84 E35.80186
G1 X110.14 Y102.44 E35.96274
G1 X108.86 Y102.17 E36.11951
G1 X107.59 Y102.06 E36.27297
G1 X106.90 Y102.08 E36.35534
G1 X106.22 Y102.18 E36.43746
G1 X105.62 Y102.35 E36.51257
G1 X105.02 Y102.59 E36.59023
G1 X104.94 Y102.63 E36.60120
G1 X104.42 Y103.06 E36.68186
G0 F3600 X102.80 Y105.40
G0 X101.86 Y109.00
G0 X101.63 Y112.51
G0 X101.77 Y115.26
G1 F1200 X101.92 Y116.44 E36.82509
G1 X102.25 Y117.99 E37.01570
G1 X102.44 Y118.63 E37.09517
G1 X102.66 Y119.26 E37.17502
G1 X103.20 Y120.42 E37.32920
G1 X103.56 Y120.99 E37.40994
G1 X103.98 Y121.53 E37.49228
G1 X104.52 Y122.03 E37.58022
G1 X105.02 Y122.41 E37.65602
G1 X105.65 Y122.66 E37.73648
G1 X106.27 Y122.83 E37.81401
G1 X106.93 Y122.92 E37.89423
G1 X107.57 Y122.94 E37.97096
G1 X108.49 Y122.88 E38.08112
G1 X109.73 Y122.66 E38.23333
G1 X111.05 Y122.28 E38.39735
G1 X112.31 Y121.80 E38.55876
G1 X112.91 Y121.53 E38.63883
G1 X109.90 Y122.94 E39.03768
G1 X108.38 Y123.52 E39.23370
G1 X107.58 Y123.76 E39.33307
G1 X106.84 Y123.92 E39.42444
G1 X106.07 Y124.02 E39.51737
G1 X105.38 Y124.02 E39.60089
G1 X105.31 Y124.02 E39.60881
G1 X104.58 Y123.84 E39.69895
G1 X104.27 Y123.72 E39.73917
G1 X104.03 Y123.56 E39.77326
G1 X103.93 Y123.47 E39.79011
G1 X103.43 Y122.95 E39.87583
G1 X103.40 Y122.92 E39.88173
G1 X103.02 Y122.26 E39.97217
G1 X102.72 Y121.54 E40.06615
G1 X102.47 Y120.76 E40.16463
G1 X102.04 Y118.40 E40.45176
G1 X101.77 Y115.26 E40.83101
G0 F3600 X102.66 Y119.26
G0 X103.98 Y121.53
G0 X105.65 Y122.66
G0 X108.49 Y122.88
G0 X112.30 Y121.80
G0 X115.91 Y119.93
G0 X118.22 Y118.33
G1 F1200 X119.19 Y117.51 E40.98363
G1 X120.12 Y116.59 E41.14112
G1 X120.54 Y116.09 E41.21943
G1 X120.93 Y115.57 E41.29695
G1 X121.29 Y115.02 E41.37658
G1 X121.60 Y114.43 E41.45640
G1 X121.87 Y113.78 E41.54021
G1 X122.08 Y112.76 E41.66520
G1 X122.11 Y112.52 E41.69391
G1 X122.11 Y112.45 E41.70315
G1 X122.01 Y111.79 E41.78278
G1 X121.85 Y111.15 E41.86168
G1 X121.49 Y110.35 E41.96764
G1 X120.91 Y109.40 E42.10034
G1 X120.11 Y108.41 E42.25387
G1 X119.47 Y107.75 E42.36418
G1 X118.16 Y106.62 E42.57160
G1 X117.67 Y106.27 E42.64425
G1 X119.46 Y107.47 E42.90349
G1 X120.77 Y108.47 E43.10090
G1 X122.00 Y109.56 E43.29818
G1 X122.51 Y110.12 E43.38924
G1 X122.97 Y110.74 E43.48214
G1 X123.35 Y111.39 E43.57273
G1 X123.37 Y111.45 E43.57946
G1 X123.56 Y112.12 E43.66349
G1 X123.62 Y112.48 E43.70688
G1 X123.62 Y112.53 E43.71300
G1 X123.57 Y112.88 E43.75536
G1 X123.35 Y113.61 E43.84679
G1 X122.98 Y114.26 E43.93694
G1 X122.50 Y114.88 E44.03069
G1 X121.94 Y115.49 E44.13015
G1 X120.77 Y116.53 E44.31777
G1 X119.47 Y117.53 E44.51492
G1 X118.22 Y118.33 E44.69331
G0 F3600 X117.90 Y118.08
;TYPE:WALL-OUTER
G1 F1200 X118.92 Y117.22 E44.85299
G1 X119.82 Y116.32 E45.00666
G1 X120.23 Y115.84 E45.08190
G1 X120.60 Y115.35 E45.15599
G1 X120.94 Y114.82 E45.23178
G1 X121.24 Y114.27 E45.30710
G1 X121.48 Y113.68 E45.38314
G1 X121.69 Y112.72 E45.50093
G1 X121.71 Y112.51 E45.52651
G1 X121.71 Y112.48 E45.52963
G1 X121.61 Y111.88 E45.60307
G1 X121.47 Y111.30 E45.67472
G1 X121.14 Y110.54 E45.77387
G1 X120.60 Y109.64 E45.89998
G1 X119.82 Y108.68 E46.04865
G1 X119.20 Y108.05 E46.15464
G1 X117.90 Y106.92 E46.36123
G1 X116.26 Y105.76 E46.60178
G1 X113.73 Y104.30 E46.95243
G1 X112.50 Y103.71 E47.11603
G1 X111.29 Y103.22 E47.27295
G1 X110.05 Y102.83 E47.42946
G1 X108.82 Y102.57 E47.57955
G1 X107.80 Y102.47 E47.70313
G1 X107.58 Y102.46 E47.72944
G1 X106.94 Y102.48 E47.80569
G1 X106.32 Y102.56 E47.88111
G1 X105.76 Y102.73 E47.95131
G1 X105.19 Y102.95 E48.02434
G1 X105.17 Y102.97 E48.02794
G1 X104.69 Y103.35 E48.10185
G1 X104.26 Y103.76 E48.17290
G1 X103.88 Y104.26 E48.24800
G1 X103.45 Y104.97 E48.34812
G1 X103.18 Y105.55 E48.42450
G1 X102.81 Y106.51 E48.54773
G1 X102.48 Y107.75 E48.70148
G1 X102.25 Y109.05 E48.85980
G1 X102.07 Y111.03 E49.09937
G1 X102.03 Y112.51 E49.27607
G1 X102.15 Y115.06 E49.58263
G1 X102.32 Y116.37 E49.74097
G1 X102.63 Y117.89 E49.92765
G1 X102.81 Y118.50 E50.00423
G1 X103.03 Y119.10 E50.07999
G1 X103.55 Y120.22 E50.22864
G1 X103.88 Y120.75 E50.30436
G1 X104.27 Y121.25 E50.37988
G1 X104.77 Y121.72 E50.46255
G1 X105.19 Y122.05 E50.52659
G1 X105.77 Y122.27 E50.60053
