;FLAVOR:UltiGCode
;TIME:2023
;MATERIAL:1819
;MATERIAL2:0

;Layer count: 48
;LAYER:0
M107
G0 F9000 X101.150 Y60.170 Z0.300
;TYPE:SKIRT
G1 F1200 X107.809 Y60.172 E0.79908
G1 X108.162 Y60.171 E0.84144
G1 X109.460 Y60.172 E0.99720
G1 X109.618 Y60.171 E1.01616
G1 X119.275 Y60.172 E2.17500
G1 X120.369 Y60.171 E2.30628
G1 X121.663 Y60.172 E2.46156
G1 X121.822 Y60.171 E2.48064
G1 X124.893 Y60.172 E2.84916
G1 X128.850 Y60.161 E3.32400
G1 X128.850 Y86.815 E6.52248
G1 X123.010 Y86.815 E7.22328
G1 X111.766 Y86.814 E8.57256
G1 X111.766 Y86.815 E8.57268
G1 X105.992 Y86.815 E9.26556
G1 X101.150 Y86.811 E9.84660
G1 X101.150 Y60.170 E13.04352
G0 F9000 X101.550 Y60.570
G1 F1200 X107.810 Y60.572 E13.79472
G1 X108.163 Y60.571 E13.83708
G1 X109.462 Y60.572 E13.99296
G1 X109.619 Y60.571 E14.01180
G1 X119.275 Y60.572 E15.17052
G1 X120.369 Y60.571 E15.30180
G1 X121.665 Y60.572 E15.45732
G1 X121.823 Y60.571 E15.47628
G1 X124.894 Y60.572 E15.84480
G1 X128.450 Y60.562 E16.27153
G1 X128.450 Y86.415 E19.37389
G1 X123.041 Y86.415 E20.02297
G1 X111.366 Y86.414 E21.42397
G1 X111.366 Y86.415 E21.42409
G1 X105.992 Y86.415 E22.06897
G1 X101.550 Y86.411 E22.60201
G1 X101.550 Y60.570 E25.70293
G10
G0 F9000 X105.350 Y64.371
;TYPE:WALL-INNER
G11
G1 F1200 X107.819 Y64.372 E25.99921
G1 X108.168 Y64.371 E26.04109
G1 X109.483 Y64.372 E26.19889
G1 X109.634 Y64.371 E26.21701
G1 X121.686 Y64.372 E27.66325
G1 X121.837 Y64.371 E27.68137
G1 X124.650 Y64.372 E28.01893
G1 X124.650 Y82.615 E30.20809
G1 X122.433 Y82.614 E30.47413
G1 X122.433 Y71.274 E31.83493
G1 X119.769 Y71.274 E32.15461
G1 X119.769 Y82.615 E33.51553
G1 X110.230 Y82.614 E34.66021
G1 X110.230 Y71.274 E36.02101
G1 X107.566 Y71.274 E36.34069
G1 X107.566 Y82.615 E37.70161
G1 X105.350 Y82.614 E37.96753
G1 X105.350 Y64.371 E40.15669
G0 F9000 X104.950 Y63.971
;TYPE:WALL-OUTER
G1 F1200 X109.482 Y63.972 E40.70053
G1 X109.631 Y63.971 E40.71841
G1 X121.685 Y63.972 E42.16489
G1 X125.050 Y63.971 E42.56869
G1 X125.050 Y83.015 E44.85397
G1 X122.033 Y83.014 E45.21601
G1 X122.033 Y71.674 E46.57681
G1 X120.169 Y71.674 E46.80049
G1 X120.169 Y83.015 E48.16141
G1 X109.830 Y83.014 E49.40209
G1 X109.830 Y71.674 E50.76289
G1 X107.966 Y71.674 E50.98657
G1 X107.966 Y83.015 E52.34749
G1 X104.950 Y83.014 E52.70941
G1 X104.950 Y63.971 E54.99457
G0 F9000 X105.523 Y64.511
;TYPE:SKIN
G1 F900 X119.628 Y78.616 E57.38827
G0 F9000 X119.628 Y79.181
G1 F900 X105.489 Y65.042 E59.78773
G0 F9000 X105.489 Y65.608
G1 F900 X119.628 Y79.747 E62.18720
G0 F9000 X119.628 Y80.313
G1 F900 X105.489 Y66.173 E64.58675
G0 F9000 X105.489 Y66.739
G1 F900 X109.882 Y71.133 E65.33236
G0 F9000 X109.317 Y71.133
G1 F900 X105.489 Y67.305 E65.98199
G0 F9000 X105.489 Y67.870
G1 F900 X108.751 Y71.133 E66.53565
G0 F9000 X108.185 Y71.133
G1 F900 X105.489 Y68.436 E66.99326
G0 F9000 X105.489 Y69.002
G1 F900 X107.620 Y71.133 E67.35491
G0 F9000 X107.425 Y71.504
G1 F900 X105.489 Y69.567 E67.68354
G0 F9000 X105.489 Y70.133
G1 F900 X107.425 Y72.070 E68.01218
G0 F9000 X107.425 Y72.636
G1 F900 X105.489 Y70.699 E68.34081
G0 F9000 X105.489 Y71.265
G1 F900 X107.425 Y73.201 E68.66936
G0 F9000 X107.425 Y73.767
G1 F900 X105.489 Y71.830 E68.99800
G0 F9000 X105.489 Y72.396
G1 F900 X107.425 Y74.333 E69.32663
G0 F9000 X107.425 Y74.898
G1 F900 X105.489 Y72.962 E69.65518
G0 F9000 X105.489 Y73.527
G1 F900 X107.425 Y75.464 E69.98382
G0 F9000 X107.425 Y76.030
G1 F900 X105.489 Y74.093 E70.31245
G0 F9000 X105.489 Y74.659
G1 F900 X107.425 Y76.595 E70.64100
G0 F9000 X107.425 Y77.161
G1 F900 X105.489 Y75.224 E70.96964
G0 F9000 X105.489 Y75.790
G1 F900 X107.425 Y77.727 E71.29827
G0 F9000 X107.425 Y78.292
G1 F900 X105.489 Y76.356 E71.62682
G0 F9000 X105.489 Y76.921
G1 F900 X107.425 Y78.858 E71.95546
G0 F9000 X107.425 Y79.424
G1 F900 X105.489 Y77.487 E72.28409
G0 F9000 X105.489 Y78.053
G1 F900 X107.425 Y79.990 E72.61273
G0 F9000 X107.425 Y80.555
G1 F900 X105.489 Y78.618 E72.94136
G0 F9000 X105.489 Y79.184
G1 F900 X107.425 Y81.121 E73.27000
G0 F9000 X107.425 Y81.687
G1 F900 X105.489 Y79.750 E73.59863
G0 F9000 X107.625 Y71.333
G0 X110.171 Y71.333
G0 X110.369 Y79.539
G1 F900 X113.303 Y82.474 E74.09663
G0 F9000 X112.738 Y82.474
G1 F900 X110.369 Y80.105 E74.49867
G0 F9000 X110.369 Y80.670
G1 F900 X112.172 Y82.474 E74.80473
G0 F9000 X111.606 Y82.474
G1 F900 X110.369 Y81.236 E75.01474
G0 F9000 X110.369 Y81.802
G1 F900 X111.041 Y82.474 E75.12878
G0 F9000 X110.475 Y82.474
G1 F900 X110.369 Y82.368 E75.14677
G0 F9000 X110.171 Y71.333
G0 X107.625 Y71.333
G0 X107.425 Y82.252
G1 F900 X105.489 Y80.316 E75.47532
G0 F9000 X105.489 Y80.881
G1 F900 X107.081 Y82.474 E75.74558
G0 F9000 X106.515 Y82.474
G1 F900 X105.489 Y81.447 E75.91978
G0 F9000 X105.489 Y82.013
G1 F900 X105.950 Y82.474 E75.99802
G0 F9000 X107.625 Y71.333
G0 X110.171 Y71.333
G0 X110.369 Y78.973
G1 F900 X113.869 Y82.474 E76.59207
G0 F9000 X114.435 Y82.474
G1 F900 X110.369 Y78.408 E77.28209
G0 F9000 X110.369 Y77.842
G1 F900 X115.001 Y82.474 E78.06817
G0 F9000 X115.567 Y82.474
G1 F900 X110.369 Y77.276 E78.95030
G0 F9000 X110.369 Y76.711
G1 F900 X116.133 Y82.474 E79.92840
G0 F9000 X116.698 Y82.474
G1 F900 X110.369 Y76.145 E81.00246
G0 F9000 X110.369 Y75.579
G1 F900 X117.264 Y82.474 E82.17258
G0 F9000 X117.830 Y82.474
G1 F900 X110.369 Y75.014 E83.43867
G0 F9000 X110.369 Y74.448
G1 F900 X118.395 Y82.474 E84.80073
G0 F9000 X118.961 Y82.474
G1 F900 X110.369 Y73.882 E86.25884
G0 F9000 X110.369 Y73.317
G1 F900 X119.527 Y82.474 E87.81292
G0 F9000 X119.628 Y82.010
G1 F900 X110.369 Y72.751 E89.38423
G0 F9000 X110.369 Y72.185
G1 F900 X119.628 Y81.444 E90.95553
G0 F9000 X119.628 Y80.878
G1 F900 X110.369 Y71.620 E92.52675
G0 F9000 X110.614 Y64.511
G1 F900 X119.628 Y73.524 E94.05639
G0 F9000 X119.628 Y72.959
G1 F900 X111.180 Y64.511 E95.49006
G0 F9000 X111.746 Y64.511
G1 F900 X119.628 Y72.393 E96.82768
G0 F9000 X119.628 Y71.827
G1 F900 X112.311 Y64.511 E98.06934
G0 F9000 X112.877 Y64.511
G1 F900 X119.628 Y71.262 E99.21502
G0 F9000 X120.065 Y71.133
G1 F900 X113.443 Y64.511 E100.33881
G0 F9000 X114.008 Y64.511
G1 F900 X120.631 Y71.133 E101.46268
G0 F9000 X121.196 Y71.133
G1 F900 X114.574 Y64.511 E102.58647
G0 F9000 X115.141 Y64.512
G1 F900 X121.762 Y71.133 E103.71010
G0 F9000 X122.328 Y71.133
G1 F900 X115.706 Y64.512 E104.83380
G0 F9000 X116.272 Y64.512
G1 F900 X124.509 Y72.749 E106.23167
G0 F9000 X124.509 Y73.314
G1 F900 X122.572 Y71.377 E106.56039
G0 F9000 X122.572 Y71.943
G1 F900 X124.509 Y73.880 E106.88911
G0 F9000 X124.509 Y74.446
G1 F900 X122.572 Y72.508 E107.21791
G0 F9000 X122.572 Y73.074
G1 F900 X124.509 Y75.012 E107.54672
G0 F9000 X124.509 Y75.577
G1 F900 X122.572 Y73.640 E107.87544
G0 F9000 X122.572 Y74.205
G1 F900 X124.509 Y76.143 E108.20424
G0 F9000 X124.509 Y76.709
G1 F900 X122.572 Y74.771 E108.53304
G0 F9000 X122.572 Y75.337
G1 F900 X124.509 Y77.274 E108.86176
G0 F9000 X124.509 Y77.840
G1 F900 X122.572 Y75.902 E109.19057
G0 F9000 X122.572 Y76.468
G1 F900 X124.509 Y78.406 E109.51937
G0 F9000 X124.509 Y78.971
G1 F900 X122.572 Y77.034 E109.84809
G0 F9000 X122.572 Y77.600
G1 F900 X124.509 Y79.537 E110.17681
G0 F9000 X124.509 Y80.103
G1 F900 X122.572 Y78.165 E110.50562
G0 F9000 X122.572 Y78.731
G1 F900 X124.509 Y80.668 E110.83434
G0 F9000 X124.509 Y81.234
G1 F900 X122.572 Y79.297 E111.16306
G0 F9000 X122.572 Y79.862
G1 F900 X124.509 Y81.800 E111.49186
G0 F9000 X124.509 Y82.365
G1 F900 X122.572 Y80.428 E111.82058
G0 F9000 X122.572 Y80.994
G1 F900 X124.051 Y82.474 E112.07166
G0 F9000 X123.486 Y82.474
G1 F900 X122.572 Y81.559 E112.22686
G0 F9000 X122.572 Y82.125
G1 F900 X122.920 Y82.474 E112.28600
G0 F9000 X122.374 Y71.333
G0 X119.828 Y71.333
G0 X119.628 Y78.050
G1 F900 X106.089 Y64.511 E114.58364
G0 F9000 X106.655 Y64.511
G1 F900 X119.628 Y77.484 E116.78524
G0 F9000 X119.628 Y76.919
G1 F900 X107.220 Y64.511 E118.89094
G0 F9000 X107.786 Y64.511
G1 F900 X119.628 Y76.353 E120.90060
G0 F9000 X119.628 Y75.787
G1 F900 X108.352 Y64.511 E122.81420
G0 F9000 X108.917 Y64.511
G1 F900 X119.628 Y75.222 E124.63191
G0 F9000 X119.628 Y74.656
G1 F900 X109.483 Y64.511 E126.35358
G0 F9000 X110.049 Y64.511
G1 F900 X119.628 Y74.090 E127.97919
G0 F9000 X119.828 Y71.333
G0 X122.374 Y71.333
G0 X124.509 Y72.183
G1 F900 X116.838 Y64.512 E129.28100
G0 F9000 X117.403 Y64.512
G1 F900 X124.509 Y71.617 E130.48684
G0 F9000 X124.509 Y71.052
G1 F900 X117.969 Y64.512 E131.59672
G0 F9000 X118.535 Y64.512
G1 F900 X124.509 Y70.486 E132.61054
G0 F9000 X124.509 Y69.920
G1 F900 X119.100 Y64.512 E133.52839
G0 F9000 X119.666 Y64.512
G1 F900 X124.509 Y69.355 E134.35028
G0 F9000 X124.509 Y68.789
G1 F900 X120.232 Y64.512 E135.07611
G0 F9000 X120.797 Y64.512
G1 F900 X124.509 Y68.223 E135.70597
G0 F9000 X124.509 Y67.658
G1 F900 X121.363 Y64.512 E136.23986
G0 F9000 X121.929 Y64.512
G1 F900 X124.509 Y67.092 E136.67771
G0 F9000 X124.509 Y66.526
G1 F900 X122.494 Y64.512 E137.01958
G0 F9000 X123.060 Y64.512
G1 F900 X124.509 Y65.961 E137.26548
G0 F9000 X124.509 Y65.395
G1 F900 X123.626 Y64.512 E137.41533
G0 F9000 X124.191 Y64.512
G1 F900 X124.509 Y64.829 E137.46921
;LAYER:1
M106 S127
G0 F9000 X121.836 Y64.437 Z0.400
;TYPE:WALL-INNER
G1 F1800 X124.650 Y64.438 E137.58177
G1 X124.650 Y82.802 E138.31633
G1 X122.433 Y82.801 E138.40501
G1 X122.433 Y71.274 E138.86609
G1 X119.769 Y71.274 E138.97265
G1 X119.769 Y82.802 E139.43377
G1 X110.230 Y82.801 E139.81533
G1 X110.230 Y71.274 E140.27641
G1 X107.566 Y71.274 E140.38297
G1 X107.566 Y82.802 E140.84409
G1 X105.350 Y82.801 E140.93273
G1 X105.350 Y64.437 E141.66729
G1 X107.681 Y64.438 E141.76053
G1 X108.167 Y64.437 E141.77997
G1 X109.422 Y64.438 E141.83017
G1 X109.633 Y64.437 E141.83861
G1 X121.625 Y64.438 E142.31829
G1 X121.836 Y64.437 E142.32673
G0 F9000 X121.624 Y64.038
;TYPE:WALL-OUTER
G1 F1320 X125.050 Y64.037 E142.46377
G1 X125.050 Y83.202 E143.23037
G1 X122.033 Y83.201 E143.35105
G1 X122.033 Y71.674 E143.81213
G1 X120.169 Y71.674 E143.88669
G1 X120.169 Y83.202 E144.34781
G1 X109.830 Y83.201 E144.76137
G1 X109.830 Y71.674 E145.22245
G1 X107.966 Y71.674 E145.29701
G1 X107.966 Y83.202 E145.75813
G1 X104.950 Y83.201 E145.87877
G1 X104.950 Y64.037 E146.64533
G1 X109.421 Y64.038 E146.82417
G1 X120.369 Y64.037 E147.26209
G1 X121.624 Y64.038 E147.31229
G0 F9000 X121.816 Y64.577
;TYPE:SKIN
G1 F900 X110.369 Y76.023 E147.95980
G0 F9000 X110.369 Y75.458
G1 F900 X121.250 Y64.577 E148.57533
G0 F9000 X120.684 Y64.577
G1 F900 X110.369 Y74.892 E149.15883
G0 F9000 X110.369 Y74.326
G1 F900 X120.119 Y64.577 E149.71035
G0 F9000 X122.381 Y64.577
G1 F900 X110.369 Y76.589 E150.38985
G0 F9000 X110.369 Y77.155
G1 F900 X122.947 Y64.577 E151.10137
G0 F9000 X123.513 Y64.577
G1 F900 X110.369 Y77.720 E151.84488
G0 F9000 X110.369 Y78.286
G1 F900 X124.078 Y64.577 E152.62037
G0 F9000 X124.509 Y64.712
G1 F900 X110.369 Y78.852 E153.42025
G0 F9000 X110.369 Y79.417
G1 F900 X124.509 Y65.277 E154.22013
G0 F9000 X124.509 Y65.843
G1 F900 X110.369 Y79.983 E155.02001
G0 F9000 X110.369 Y80.549
G1 F900 X119.628 Y71.290 E155.54378
G0 F9000 X119.784 Y71.134
G1 F900 X124.509 Y66.409 E155.81107
G0 F9000 X124.509 Y66.975
G1 F900 X120.350 Y71.134 E156.04633
G0 F9000 X120.915 Y71.134
G1 F900 X124.509 Y67.540 E156.24964
G0 F9000 X124.509 Y68.106
G1 F900 X121.481 Y71.134 E156.42093
G0 F9000 X122.047 Y71.134
G1 F900 X124.509 Y68.672 E156.56020
G0 F9000 X124.509 Y69.237
G1 F900 X122.572 Y71.174 E156.66978
G0 F9000 X122.572 Y71.740
G1 F900 X124.509 Y69.803 E156.77935
G0 F9000 X124.509 Y70.369
G1 F900 X122.572 Y72.305 E156.88889
G0 F9000 X122.572 Y72.871
G1 F900 X124.509 Y70.934 E156.99847
G0 F9000 X124.509 Y71.500
G1 F900 X122.572 Y73.437 E157.10804
G0 F9000 X122.572 Y74.002
G1 F900 X124.509 Y72.066 E157.21759
G0 F9000 X124.509 Y72.631
G1 F900 X122.572 Y74.568 E157.32716
G0 F9000 X122.572 Y75.134
G1 F900 X124.509 Y73.197 E157.43673
G0 F9000 X124.509 Y73.763
G1 F900 X122.572 Y75.700 E157.54631
G0 F9000 X122.572 Y76.265
G1 F900 X124.509 Y74.328 E157.65588
G0 F9000 X124.509 Y74.894
G1 F900 X122.572 Y76.831 E157.76545
G0 F9000 X122.572 Y77.397
G1 F900 X124.509 Y75.460 E157.87503
G0 F9000 X124.509 Y76.025
G1 F900 X122.572 Y77.962 E157.98460
G0 F9000 X122.572 Y78.528
G1 F900 X124.509 Y76.591 E158.09417
G0 F9000 X124.509 Y77.157
G1 F900 X122.572 Y79.094 E158.20375
G0 F9000 X122.572 Y79.659
G1 F900 X124.509 Y77.723 E158.31329
G0 F9000 X124.509 Y78.288
G1 F900 X122.572 Y80.225 E158.42286
G0 F9000 X122.572 Y80.791
G1 F900 X124.509 Y78.854 E158.53244
G0 F9000 X124.509 Y79.420
G1 F900 X122.572 Y81.356 E158.64198
G0 F9000 X122.572 Y81.922
G1 F900 X124.509 Y79.985 E158.75156
G0 F9000 X124.509 Y80.551
G1 F900 X122.572 Y82.488 E158.86113
G0 F9000 X122.965 Y82.661
G1 F900 X124.509 Y81.117 E158.94847
G0 F9000 X124.509 Y81.682
G1 F900 X123.530 Y82.661 E159.00385
G0 F9000 X124.096 Y82.661
G1 F900 X124.509 Y82.248 E159.02721
G0 F9000 X122.374 Y71.333
G0 X119.828 Y71.333
G0 X119.628 Y82.038
G1 F900 X119.004 Y82.662 E159.06251
G0 F9000 X119.570 Y82.662
G1 F900 X119.628 Y82.604 E159.06579
G0 F9000 X119.628 Y81.472
G1 F900 X118.438 Y82.662 E159.13311
G0 F9000 X117.873 Y82.662
G1 F900 X119.628 Y80.907 E159.23239
G0 F9000 X119.628 Y80.341
G1 F900 X117.307 Y82.662 E159.36368
G0 F9000 X116.741 Y82.662
G1 F900 X119.628 Y79.775 E159.52700
G0 F9000 X119.628 Y79.210
G1 F900 X116.176 Y82.662 E159.72227
G0 F9000 X115.610 Y82.662
G1 F900 X119.628 Y78.644 E159.94956
G0 F9000 X119.628 Y78.078
G1 F900 X115.044 Y82.662 E160.20887
G0 F9000 X114.479 Y82.661
G1 F900 X119.628 Y77.513 E160.50012
G0 F9000 X119.628 Y76.947
G1 F900 X113.914 Y82.661 E160.82335
G0 F9000 X113.348 Y82.661
G1 F900 X119.628 Y76.381 E161.17860
G0 F9000 X119.628 Y75.815
G1 F900 X112.782 Y82.661 E161.56587
G0 F9000 X112.217 Y82.661
G1 F900 X119.628 Y75.250 E161.98510
G0 F9000 X119.628 Y74.684
G1 F900 X111.651 Y82.661 E162.43635
G0 F9000 X111.085 Y82.661
G1 F900 X119.628 Y74.118 E162.91961
G0 F9000 X119.628 Y73.553
G1 F900 X110.520 Y82.661 E163.43484
G0 F9000 X110.369 Y82.246
G1 F900 X119.628 Y72.987 E163.95860
G0 F9000 X119.628 Y72.421
G1 F900 X110.369 Y81.680 E164.48237
G0 F9000 X110.369 Y81.115
G1 F900 X119.628 Y71.856 E165.00614
G0 F9000 X119.553 Y64.577
G1 F900 X110.369 Y73.761 E165.52567
G0 F9000 X110.369 Y73.195
G1 F900 X118.987 Y64.577 E166.01317
G0 F9000 X118.422 Y64.577
G1 F900 X110.369 Y72.629 E166.46869
G0 F9000 X110.369 Y72.064
G1 F900 X117.856 Y64.577 E166.89222
G0 F9000 X117.290 Y64.577
G1 F900 X110.369 Y71.498 E167.28373
G0 F9000 X110.168 Y71.133
G1 F900 X116.724 Y64.577 E167.65460
G0 F9000 X116.159 Y64.577
G1 F900 X109.602 Y71.133 E168.02549
G0 F9000 X109.037 Y71.133
G1 F900 X115.593 Y64.577 E168.39635
G0 F9000 X115.027 Y64.577
G1 F900 X108.471 Y71.133 E168.76721
G0 F9000 X107.905 Y71.133
G1 F900 X114.462 Y64.577 E169.13811
G0 F9000 X113.896 Y64.577
G1 F900 X105.489 Y72.984 E169.61368
G0 F9000 X105.489 Y72.419
G1 F900 X113.330 Y64.577 E170.05726
G0 F9000 X112.765 Y64.577
G1 F900 X105.489 Y71.853 E170.46885
G0 F9000 X105.489 Y71.287
G1 F900 X112.199 Y64.577 E170.84843
G0 F9000 X111.633 Y64.577
G1 F900 X105.489 Y70.721 E171.19598
G0 F9000 X105.489 Y70.156
G1 F900 X111.068 Y64.577 E171.51158
G0 F9000 X110.502 Y64.577
G1 F900 X105.489 Y69.590 E171.79516
G0 F9000 X105.489 Y69.024
G1 F900 X109.936 Y64.577 E172.04672
G0 F9000 X109.371 Y64.577
G1 F900 X105.489 Y68.459 E172.26632
G0 F9000 X105.489 Y67.893
G1 F900 X108.805 Y64.577 E172.45390
G0 F9000 X108.239 Y64.577
G1 F900 X105.489 Y67.327 E172.60946
G0 F9000 X105.489 Y66.762
G1 F900 X107.673 Y64.577 E172.73304
G0 F9000 X107.108 Y64.577
G1 F900 X105.489 Y66.196 E172.82462
G0 F9000 X105.489 Y65.630
G1 F900 X106.542 Y64.577 E172.88419
G0 F9000 X105.976 Y64.577
G1 F900 X105.489 Y65.065 E172.91176
